/* XPM */
static char *_335aec0ad8648f0da2e498e44228ce3g0677zz4hrxpVLQR[] = {
/* columns rows colors chars-per-pixel */
"512 512 256 2 ",
"   c #7B039B",
".  c #781298",
"X  c #7C04A4",
"o  c #7A08A9",
"O  c #7B0AB4",
"+  c #7A14B9",
"@  c #7213AC",
"#  c #752CAF",
"$  c #5F26AA",
"%  c #117BB3",
"&  c #2E79B3",
"*  c #1C69A3",
"=  c #7450AC",
"-  c #5075B3",
";  c #7372AF",
":  c #69649F",
">  c #7B19C7",
",  c #771ACD",
"<  c #7C2BDD",
"1  c #7A26D7",
"2  c #7935DC",
"3  c #702DCF",
"4  c #7D2EE1",
"5  c #762DE2",
"6  c #7C34E4",
"7  c #7C3AE5",
"8  c #7C3BE9",
"9  c #7637E5",
"0  c #6C3AE4",
"q  c #5533CF",
"w  c #1B7ECC",
"e  c #167DC7",
"r  c #1E7ED1",
"t  c #177DD2",
"y  c #0E7AC6",
"u  c #257ACA",
"i  c #227ED3",
"p  c #297CD6",
"a  c #3574D0",
"s  c #345DD5",
"d  c #5251D5",
"f  c #714DD7",
"g  c #4F73D5",
"h  c #7071D4",
"j  c #5554E7",
"k  c #7C43EC",
"l  c #7847E8",
"z  c #7858E9",
"x  c #7C4BF2",
"c  c #7C53F5",
"v  c #7B5AF7",
"b  c #6951E9",
"n  c #5979E8",
"m  c #5471EC",
"M  c #6868E9",
"N  c #7868E9",
"B  c #6878EA",
"V  c #7878EA",
"C  c #7A69F8",
"Z  c #6A7AF7",
"A  c #7C74F5",
"S  c #747CF5",
"D  c #7C7CF5",
"F  c #7575FB",
"G  c #7C75FC",
"H  c #757CFB",
"J  c #7D7DFD",
"K  c #7474F4",
"L  c #6969F5",
"P  c #382EBB",
"I  c #850698",
"U  c #8306A7",
"Y  c #8515B9",
"T  c #8A0FB0",
"R  c #8A2DB0",
"E  c #A526AD",
"W  c #8A50AE",
"Q  c #8D71AE",
"!  c #B174B0",
"~  c #9E63A2",
"^  c #D275B3",
"/  c #E879BA",
"(  c #EE74B2",
")  c #D962A6",
"_  c #8419C7",
"`  c #891ACD",
"'  c #822CDD",
"]  c #8426D7",
"[  c #8635DC",
"{  c #902FCF",
"}  c #AB35D0",
"|  c #822EE1",
" . c #8233E4",
".. c #833AE5",
"X. c #823BEA",
"o. c #8737E6",
"O. c #9439E4",
"+. c #A729D1",
"@. c #8F4ED6",
"#. c #AF51D5",
"$. c #8F70D5",
"%. c #B171D5",
"&. c #8545E9",
"*. c #8758E8",
"=. c #834BF2",
"-. c #8357F6",
";. c #9652E9",
":. c #AB53E7",
">. c #8668E9",
",. c #9768E9",
"<. c #8778EA",
"1. c #9778E9",
"2. c #8569F7",
"3. c #8374F5",
"4. c #837CF5",
"5. c #8375FC",
"6. c #827DFD",
"7. c #8A7CFC",
"8. c #8B77F7",
"9. c #9579F7",
"0. c #966AF5",
"q. c #A778E8",
"w. c #A579F4",
"e. c #B16FE9",
"r. c #CB55D1",
"t. c #DB79CB",
"y. c #CA79D9",
"u. c #DB7CD3",
"i. c #D679D6",
"p. c #D06CD0",
"a. c #E47AC8",
"s. c #E575CC",
"d. c #C777E3",
"f. c #D458D6",
"g. c #CA31B7",
"h. c #1184B4",
"j. c #2D86B3",
"k. c #1B91A3",
"l. c #508AB3",
"z. c #728CAF",
"x. c #77B0AC",
"c. c #6E9A9C",
"v. c #78D2AE",
"b. c #7DEDBD",
"n. c #78E9B9",
"m. c #7CF5B8",
"M. c #79F1AB",
"N. c #72E09F",
"B. c #0C82C5",
"V. c #1482CB",
"C. c #1B82CC",
"Z. c #1684C5",
"A. c #1E81D1",
"S. c #1884D2",
"D. c #1696C6",
"F. c #2585CA",
"G. c #2281D3",
"H. c #2883D7",
"J. c #358BD0",
"K. c #36A1D7",
"L. c #4F8BD5",
"P. c #6F8ED5",
"I. c #51ADD4",
"U. c #71B0D5",
"Y. c #5986E8",
"T. c #548EEC",
"R. c #6887EA",
"E. c #7887EB",
"W. c #6896E9",
"Q. c #7897EA",
"!. c #6A86F7",
"~. c #7483F5",
"^. c #7C83F5",
"/. c #7C8BF5",
"(. c #7583FC",
"). c #7D82FD",
"_. c #758AFB",
"`. c #7C8AFC",
"'. c #748BF4",
"]. c #6A95F5",
"[. c #7C92FB",
"{. c #7996F6",
"}. c #54AAE6",
"|. c #7BBAEB",
" X c #7BA7F6",
".X c #7DB5F3",
"XX c #70A9E9",
"oX c #7ADAC8",
"OX c #7BD8D6",
"+X c #72CCD2",
"@X c #7CE5C4",
"#X c #7CEAC2",
"$X c #79E5C8",
"%X c #78E8CA",
"&X c #7CC7E6",
"*X c #73C9E5",
"=X c #55CCCF",
"-X c #31D2AD",
";X c #8C8DAE",
":X c #B08BAF",
">X c #89B0AD",
",X c #96999D",
"<X c #D18AB2",
"1X c #E886BA",
"2X c #EF8DB4",
"3X c #DB9DA9",
"4X c #86D3AF",
"5X c #82EDBD",
"6X c #85E8B9",
"7X c #82F5B8",
"8X c #84F0AA",
"9X c #94E0A1",
"0X c #8F8DD5",
"qX c #B28DD5",
"wX c #8FAFD6",
"eX c #B1AED5",
"rX c #8787EA",
"tX c #9787EA",
"yX c #8797EA",
"uX c #8383F5",
"iX c #838BF5",
"pX c #8282FD",
"aX c #8A83FC",
"sX c #828AFC",
"dX c #8B8BFB",
"fX c #8B86F4",
"gX c #9586F7",
"hX c #8595F7",
"jX c #9696EF",
"kX c #A887E9",
"lX c #B787E8",
"zX c #A686F4",
"xX c #AD95EC",
"cX c #84A7F6",
"vX c #82B6F2",
"bX c #8CAEEA",
"nX c #ABA9E7",
"mX c #DB86CB",
"MX c #CA86D9",
"NX c #DB83D3",
"BX c #D686D6",
"VX c #D194D0",
"CX c #E485C8",
"ZX c #E58ACD",
"AX c #CEAACE",
"SX c #C688E3",
"DX c #D4A5D5",
"FX c #83D8D6",
"GX c #8AD2CD",
"HX c #82EAC2",
"JX c #83E4C7",
"KX c #88E5CB",
"LX c #83C6E7",
"PX c #8EC9E7",
"IX c #ADCBD0",
"UX c #D1C8BA",
/* pixels */
"U U X o @ U o U U + + + Y T @ T o $ { Y + T T o @ O q W Y + > Y O T o T X O U O O U U U o U U P @.g.U T +.# q } U o U X o X o O O O U @ { U + Y > Y U o U O U U X U X X X o X X U o @ T @ 3 E U X U U 3 T @ f E U 3 E o O > # W # g %.Q = P d R @ o U U U T E T o X @ # @ Y + @ T T T U @ 3 T T T O 3 P T T o U U @ + T T + +.U o U + # # R @ = @.T # R R R # @.R = ; W P.wX,XQ ;X: : : ; c.c.c.c.x.9X>XN.4Xx.x.>Xc.c.x.N.N.N.9XN.v.v.x.>X9X4Xx.v.v.4Xx.v.6Xv.v.N.8X8X8X8X8XM.M.M.M.M.M.8XM.M.8XM.8X8X8X8X8X8X8X8XM.8XN.9X9X8Xv.v.=Xv.IXIXUX9Xx.v.v.P.wX;X3 ] [ 0XIX>Xv.>X4X>Xz.z.,Xx.x.x.>Xv.4XN.v.N.M.8X9X4X>X4X>Xx.>X>Xx.x.c.,Xv.N.-X4X9X! U X $ T X o X o o T X U X X X X o U X X o . @ { T   X X o O U X U $ s e.E U U @ @ o . U X o U X + T $ } T o + T U o $ + U o o O > @ o U U $ # g.# { N r.O.` Y , *.tX` 3 { > , > > 3 , 1 ] ` ` ` 3 ` > , , _ T O @ $ ,.E U @ + @ # T q { U O # E U P E T o E # R g.@ o X o U o O U X X U X X U X X X o Y U $ @.E U X X X U o + U U @ T P T X U X O T U U U X @ @ U X X U U o # o # # T o U # = R # R R R U X X o o ",
"+ ` Y O T U U o $ , , ` > O._ , 2 + + ` _ ` q ;.T $ a r._ > Y Y R Y + 3 [ 3 > R R R R = ; ~ = g ; ~ = d eX>XI.qX>XQ W = ; W # = = ; ~ : Q W ; W = W W = W R R W W = W = = Q ; Q ; Q ; ; x.U.;X;Xz.x.;Xx.,Xv.4X,Xc.z.:Xz.z.x.x.>X>X4Xx.4X8XI.z.! = = = W R + z kX#.` + $ + T T R E T + { q d W E W = Q W = f ; Q ; l.x.>Xx.v.IX>Xv.v.v.M.6X4Xv.v.4Xv.n.8XM.8Xn.6X8XM.8XM.7X8X8X8X8XM.M.M.8X8X8X8XM.8X8XM.M.M.M.8X8XM.M.M.M.M.M.M.7XM.M.m.m.7X7Xm.m.6X@Xm.b.b.b.m.m.b.7Xm.7XM.m.m.m.m.5Xb.m.m.m.m.b.b.5Xb.#XHX6X6X5XIXeXeX0XXXqX:.@.q { { @.0XUXx.N.v.8X4X4X>Xh l.N.>XQ ;X>XQ ~ ; c.;X! ~ W = x.N.c.c.,Xz.z.z.;X; ;X,X,X;X,X~ ~ = : x.x.wXwX4X>X>X;X: : = ; ; Q : ; ~ R = W W = : ; ; ; z.z.Q W Q ; : Q ; = = = = c.P.>X,XW = : ; c.;XW ; = Q ; ; ; l.wX4X;Xz.z.,X;Xx.>X>X,X: : ; z.c.;X,XQ = # q $ Y +.+.Y f W - ! R { Y # = # = = ; ; Q Q 0XU.;X;Xx.z.z.>X,Xz.x.x.x.,XQ : ; ; z.z.c.:XW ; W : W = W W W W v.4XN.9X4X>X;Xc.; ; Q ; W = ; ; ; ; Q W z.;X;Xc.c.v.;X; ; z.z.c.;X;X; ; ,X; ;XQ ; z.z.,X;X;Xz.c.>X,Xc.c.z.x.>Xx.v.v.v.n.4Xv.v.N.M.M.M.n.n.v.4X,XQ W # ",
":X#.+.R W W W : l.;Xx.;Xc.v.4Xc.>X4X4Xx.>X>Xx.>X,Xc.N.9X>Xx.v.N.v.4XM.M.7Xn.4X8X8Xn.n.8X7X7X7X7X7X8XM.M.m.7X6Xn.7X8XM.M.7X8Xm.8XM.8X6Xn.n.7X7X8Xn.M.M.8XM.8XM.8X#Xm.m.m.m.7Xm.m.7X7X7X7X7X8Xm.m.7X7X7X7X7X7X7X7X7X7Xm.7X7Xm.b.#X5X#Xb.HX#XKXIXUX8X7Xm.9XKXGXn #.) @.U.L.x.v.v.N.8X4XN.M.M.M.M.M.8X8XM.8X8XM.n.6Xn.m.7Xm.m.7Xm.m.m.7Xm.b.b.b.m.7Xb.m.7Xb.b.b.5Xb.b.b.b.7Xb.7X7Xb.#Xb.5Xb.5Xb.b.5Xm.7X7XJXb.b.b.b.b.b.b.7Xb.5Xb.5Xb.b.b.HXb.b.5Xb.HXoXb.b.b.b.JX+XoX#Xb.m.7Xb.5XHXb.b.b.b.b.b.b.b.b.HXb.5XHX@Xb.b.IXAXeXVXwX0X%.1.q.h v.z.4Xv.4X4Xv.M.8Xn.M.m.8XM.n.n.n.6Xn.7X6X8X4X6XM.n.8X8Xm.n.oXGX4XoXoXGXGXoXGX6X6X6Xb.b.7XM.5X6XoXGX4Xn.GX6Xm.8XM.7X7Xb.7Xn.>X9Xv.n.8X8Xm.8Xm.b.7Xb.b.7X7Xm.M.7Xb.m.7Xm.7XM.7X6X8XM.M.7Xm.7XM.7Xm.M.8XM.7Xm.m.7XM.m.7Xm.m.m.m.7Xm.m.m.m.m.m.m.m.KXIXUXPXeX= $ R : ,Xv.M.M.8XM.8X8XM.M.M.M.M.M.M.7X8XM.M.8X8XM.M.M.M.m.m.m.m.6XM.n.8X7Xm.7X7X7X8XM.7X7X7X7X8X8XM.7X8X8XM.M.n.M.7Xm.m.7X8X8XM.m.7Xm.7X7Xm.m.7Xm.7XM.m.7Xm.n.m.7Xm.M.M.M.7X7Xm.7Xm.m.7X7Xm.m.M.M.m.m.m.m.m.m.m.m.m.7Xm.7Xm.m.7Xm.m.m.m.m.b.b.b.b.5X#XHXUXIXUXeX",
"VX3XW K.7X7Xm.7X7Xm.m.m.m.b.m.m.5XwXU.@Xm.m.7Xm.m.7Xm.m.m.7XoX#X#XHX+X$Xb.7Xb.b.#XHXHX5X7Xb.5X5X5X5X5X5X5Xb.7Xb.b.b.m.7X5X5Xb.b.5Xb.6Xn.b.b.b.b.5Xb.b.b.b.b.b.6X@Xn.b.b.b.b.5Xb.5X5X5X5X5Xb.HXHXHXHXHXHXHXHXHXJXHX@XHXJX@X@X@X@XKXFXOXKXKXGXIXIX6X7Xm.IXAXnXqXr./ l.+X=X-XHX$X@X#X#X#X@X@X#X#X#X#X#X@XJX$XKXwXGX+X@XKXoX#X@X@X@X#X#X#X#Xb.b.b.b.HX5Xb.5Xb.b.5Xb.b.b.5Xb.5Xb.5X5X#X#Xb.b.5Xb.5X5Xb.7X5XJXb.5Xb.5X7Xb.b.b.b.m.b.b.5Xb.b.5Xb.#Xb.6X6XoXn.b.5Xb.6Xv.+X$XGXyX=XHXb.m.m.m.m.b.m.7Xm.m.7Xm.b.b.5Xb.KXPXUXAXVXVXbXnXqXrXSXl.D.L.wX9X#Xm.#X#X@X#X#XHX@XJXb.#XHXGX$XHX#X#X#Xb.#X@XGX@Xb.m.7Xb.#Xb.7Xb.b.7X5Xb.b.7X6Xn.6XoXb.5X#Xb.5Xb.7Xb.b.5X5Xb.5X7Xb.5Xn.m.5X7Xb.6Xb.5Xb.b.5Xb.5Xb.b.b.b.5X5X5Xb.b.5Xb.6XeXI.b.n.#X5Xb.b.b.b.GXoX#XHX5Xb.HXHXb.#X@Xb.b.5Xb.b.b.b.b.5Xn.#XIXeXnX3XAXeX>X,X- -X-Xn.6X+XFX@X#XJXJX$X@XJX$X@XHXHX#XHX#XJXoX#X#Xb.5X5X5X#X@Xb.5X5XHX@X@XHXHX5X#XHX5X5X5Xb.7X5X5X5X5X5X5XoXb.5X5X5X@Xb.5X5X5X5X5X5Xb.n.5Xb.7X5Xb.b.b.b.5X5X5X5Xb.n.b.JXoX5Xb.#XHX@X5Xb.b.5XGXwXU.n.b.b.5Xb.b.b.b.b.b.b.b.b.b.b.b.b.b.b.b.b.b.7Xb.6XIX3XAXDXDX",
"VX2Xj.% I.oXJX$X$XJXFXOXoXOX$X$XKXGXU.oX@XJX$X@X@X@X#X@X$XGXU.oX#X#XoXoX#XHXJX$X$X$XKX+XoXJX#X5X5X5XHXb.5X#X#XHX@XHXJX#XKXoX#X#XHXHXJXJX#X#X#X#X#X#X#Xb.b.b.b.HX$X5XHX#X#X#XHXHXHXHXHXJX@XHXHXHXHXHXHXHXHXHXHXHXHXHXHXHXHXHX#XHXKX#XJXKXKXKXKX6X7X7XIX3X3XnXmXNX^ j.U.I.K.bXXX=X#X#X@X#X#X#Xb.#X#X#XHX@Xb.HXm.@X#X#X#Xb.b.b.b.b.b.b.b.@XoX#Xb.HX#XHX#Xb.b.b.b.b.7Xb.b.b.7X7Xb.m.5X5Xb.b.b.b.m.b.b.6Xb.7Xm.5XKXoX#X7Xb.b.b.b.b.b.b.b.b.5X5X5X#Xb.b.5X#X#X#X@X$XHX$XKXVXP.I.wXI.oXOXFXOXOXOXFXOXFXFXFXFXFXFXbXnXnXAX1Xt.AXxXq.%.P.SXI.% L.bXGX%X@X@X#X$X@X#X#XKX+X#X@XJXU.$XHX#X#X@XJXGXoXGX$X#X$X@XHX5Xb.5Xb.HX#XHXHX$XHX@X#XKXoX#XHXKX$XHX#XJXHX@X@Xb.#XGX@XHX#X#X#Xb.5XHX#XJXJX#Xb.5XHXoXoX5Xb.5XGX#X5X#XJX#X#XHXn.n.@Xn.b.b.5Xb.n.5XJXn.5X#Xb.5Xb.b.b.b.b.b.b.m.m.7Xm.M.M.M.n.IXAXAXAXVXUXAX0X2X= % e K.FXoX$X$X$X@XJX$X$X#X#X@X#X@X@X#XHX5X#X$Xb.#XHX5XHXb.b.b.5X5X5X5XHXHX#X#Xb.HXHXb.5XHXHX5X5Xb.5Xb.5XoXn.5Xb.5X5Xb.5X5Xb.b.#XHXHXHXHX#XHXb.b.5X5X5XHXb.5X@Xb.5Xb.b.b.5X5XHX#XHX@Xb.b.6XnX>Xv.b.b.5X5Xb.m.m.m.m.m.n.n.m.m.m.b.b.m.m.n.m.m.5X@XIXDXAXUXeXDX",
"DX:Xk.% s L.+XGX@X@XJX#XHX@X#XHX#Xm.HXHX@XJX#X@X#X5Xb.b.b.m.m.7X5X#X6X+XoXb.5X5Xb.#X5X6X+X$X#Xb.5Xb.b.7X7X5Xb.b.5XGXGXb.5X5Xb.5X@X7Xb.b.b.b.b.b.7Xb.b.b.7X7Xb.6Xn.b.7Xb.b.b.b.7X5X5X5X5X5X5X5XHX#XHXHXHXHXHXHXHXHXHXHXHXHXHXHXKXKX@XKXKXKXKXKXKXKXIXIXAXAXUXt.a.^ * W.I.L.cXK.=XHX#Xb.n.#X#X#Xb.5XHX#Xn.$X#XHXGX@X#X#X#X#X#X#X#X#X$X$X#XoX$XJXJX#X#XHXoX$X$XJX$X$XJX$X$X$XKX$XFXKX$XKXKX$XFX&XFXwX+XOXGXwXbXPXOXXXU.OXFXOX&X&X&XLX&X&X&XLX&X&XLX&X&XLX&X&X&XLXvX&XbX4X+XLXGXU.|..XvX.X.XvX.XbXQ..XvXvXvXbXnXnXnXAX1XVXAXlXi.@.@.:.& h.u I.%X#X#X@X#X#X@X#XHXb.b.b.b.#X#XoX#X#X#X5XHXHXHX@X@X+X+Xn.@X@X@XJXJXHXb.b.5X5X5Xb.b.#X5X5X5X6X+XoX5X5Xb.5X5X@X@X6Xb.b.b.b.b.b.5Xb.5X5X5Xb.b.b.5X7Xb.#X6Xb.5Xb.5X5Xb.b.b.b.b.HXn.b.b.5Xb.b.b.b.m.5X5Xb.n.5Xb.HXHX#X#X#X#X%XoXJX#X@X$XoXFXUXAXDXmXBXDX1X0X3X,X% u u J.=XGXoX$X#XHX#X#XoX#X#X#X@X#X#X#Xb.HX#X#X5Xb.b.n.b.HXHXHXb.5XHX5Xb.b.b.b.5X5Xb.5X5X5X5X7Xb.b.7X7X7X5Xb.b.5X5Xb.5Xb.b.5Xb.7Xb.7X7Xb.b.b.7Xb.b.5Xb.6X#Xb.b.b.b.5X5Xb.5Xn.6X@Xb.b.b.b.n.n.b.5Xb.#XJX#X@X$XJX#XJXJX$X$X$XoXoXOX$XOXOXOXFXGXFXAXVXAXAXeXAX",
"DX>Xk.% a u n P.n.#XHX#XJX$X#X#XKXoXHX#Xb.b.#X#X#X#X#X#X#X#X$XJXKX$X$XoX+XJXJX#X#X#X#X#XHX#X$X$XJXJX%XKXKXJXJX$XKXKX$X$XGXoX$XGX+XoXoX$X$X$X$XFXOXOXOXFXOXFXOXOXFXFXOXOXOXOXOXFXFXFXFXFXFXFXFXFXFXFXFXFXPXFXFXPXPXLXLXLXLXLXPXPXLXLXvXbXbXbXbXnXPXeXAXVXnXZX3XZX2X* h.I.m W.I.I.%X@X#X#X$XoX%XOXoXJX#X#XJX$XGXoX%X$X$X%X$XKXOXOXFXFXOXOXOX&XLX&X&XLXLXLX|..XvXvX.XvXvXvX.XvX.XvX|.vXvX.X.XqX[ [ h |.vXyX0X|.*XPXnXY.XXvX.XvX.X.XvXvX.X.X.X.XvX.X.XvXvXvX X XcX.XvXcX XcX X X.XcXtX!.cXcXcX{.jXQ.{.hXjX[.gXdXnXxXMXt.NXCXy.p.r.> +.- B.i y K.OX$XoX$X%Xn.#X@X#X#X#XHX6X#X@X#X$X$X$XJXKXJXFXoX+XoX$XOX$XGXOX$X$X$XFXFXFXOXOXFXFXOXFXFX$XJXoX$XJXOXOXKXFXoXFXOXOXFXOXOXFXFXFXFXFXOXOXOXFXOXOXFXFXOX|.GXFXFXOXOXFXFXOX&XOXOXOXOXFXOX*XOX&X&X&X&X&X&X&XLXLX&XLX&X&X&XLX|.|.|.&X&X|.bXDXVXmXBXVXCX1Xh ^ :X% i u a H.PXI.$X@X#X#Xb.5XHXb.#X#XHX#X$X$XJX%X$XJX$X$X$XKXGX+XJXFXOXoXJX$XoXOXFXOXFXFXOXOXFXOXOXOXOXFXFXFXFXOXFXFXFXFXFXOXOXFXGX+XFXFXOXFXFXOXOXOXOXOXOXFXOXOXFX&XLXLX&X&X&X&XwXU.OXLXLX&XPX&X*XLX&X&XLX&X&X|.vX&X&XLX&X|.|.&X|.|.|.&X|.|.|.|.&XIX<XqXUXUX3X",
"AXwXj.& G.F.a D.T.Q.+XFXFX+X+XPXPX+X*X+X$XoXGXOXOXOXOXOXOXOXFXFXFXFXOXOXFX+XOXFXOXOX&X&XLXwXLXLXvX|.bX.XvXvX|.vX X|.LXvX|.&X&XLXLXLX&XLX&X|.vXvXvX.X.XvX.XvX.XcX.XvX.X.X.X.XvXjX[.yXcXcXvXvXcXcXcXbXbXbXvXvXvXvXvXvXvXcXcXcXcXcXbXbXbXbXbXbXbXjXnXnXAX3XDXs.1X2X2X- y w H.J.L.I.}.OX&XLXvX&XjX].}.|.&X|.|.LXwXU.Q.cX X X XcX XcX X XcXcXcXhXhXhXsX[.hX[.[.hX`.[.hXhX[.[.hX[.sX`.[.8.E.[.dXnXwXz.XXhXhXhXcX|.XXbXPX+X{.fXV [.[.fXE.[.[.sXsXsXsX`.`.`.hX`.sX`.`.`.uXsXsX`.`.sXpX,.Q.R.J sXpXpX).sXsXpXaXaXdXhXxXSXBXa.NXCXNX^ @.f { * Z.G.i s H.U.+XOX+XOX&X&X*X|.|..XbXU.|.LX*XLXLX&XLXPX+X*XLXLX&X&X|.vX&X.X.XvX.XvXvX.XcX|..XvX|.LX|.vXvXvXvXLXvXvXvX|.bXq.n .XvX.XvXvX.XvX.X.XvX.X.X.X.XvXvXvXvXvXvXcXcX.XvX.XvX|..X.X.X.XvXvX.X.X.XcXXX.X.X.XcXcX.XvX.X.X.X XcX.X X.X.X X XxXNXa.mXBXmXZXCX! $.:Xh.r C.F.e }.I.XX+XOX+X*XLXLX*X&XLXLXLXLXLX|.|.vX.XvX.XvXvXvX.XcXbX|.cX.XcX.XvXvX.XvXvXvX.XvXvX.XvXvX.XvX.X.XvXvXvXvXvXvX.X.XbXXX|.vXvXvXbXXX.XvX.X.XvXvX.X.XvXvXvX.X|.|.vX XvXvX.XvXvX.XvX.X|..XvX.X.X.XvX.XcX.X.XvXcX XbXXXcX XcX X X X XcX XhXxXAXMXVX3XAX",
"2XjX& % r i A.t L.P.K.LXXXyX|.bX+XPX|.XXjX,.*.n  X X X XhX[.hX{.hXcX{.hXw.V '.hXhXsXsXdX,.L (.dX^.{.yXQ.{.hX{.jXXX{.hXcXcX{.{.[.hX{.hX{.[.[.{. XcXcX{.cXhXhXrXE.R.hXhXsX{.{.tX2 X.O.b ].hXcXjXhXhXhXjXhXhXdXhXhXjXhXdXdXdXsXdXdXdXdXdXgXgXgXgXgXgXxXMX( s./ ( 1X3X- % i w e * q j n hXdX XjXkXT.L.hXJ `.`.`.dXzX>.Z sX`.).pX).).sXpXpX).sXpXaXsXhX`.sXpXJ pX`.).pXpXsX^.).pXdX_.gX$.R.pX).sX[.[.pXpX).hX`.[.).).`.).J uXE.J 5.6.uXJ G 5.5.6.6.6.J G J 6.J 5.J J pXJ J pXC -.,.E.B dX).6.6.6.5.7.6.7.7.pXpXaXzXlXVXZXu.u.u.) d 0Xe.* Z.i G.A.w U.|.XX].hX{.hX`.sX[.`.jX{.[._.`.sX[.sX[.hX{.dXK `.[.[.hX[.sX[.[.[.[.hXhXhX{.{.hXhXhX{.hXiX{. XW.XXnXhX{. XjXAXg m hXsX'.gXE. XcXhX{.Q.cXyX'.hXyXdX].XXbXrXW.cXcX{.{.{. X XhX[.hX XcX XhXhX XhX{.hXsX`.[.[.iX/.hX[.[.{.sX`.`.`.`.xXVXmXCXBXNXZX2X;Xx.3X% A.i w i w H.}.}.{.`.[.sX[.sX`.[.sX[._.rXK (.[.sX`.`.sXhX[.[.hX[.sX[.[.[.hXsXhXuX`.hXhX[.hXhX{.hXhXhX[.sXsXsX[.hXhXhXhXiX{.hXhX[.hXhXhXhX[.[.[.[.[.[.hX`.[.hXhXhX{.[.hXhXiX_.hXsX[.sX[.hX[.[.sX[.[.hX`.sX`.`.sXsX`.sX`.`.`.).).).pX).).).pX).gX9.mXCXNXAXAX",
"2XqX- % r r r r i P.s Z xXS Z {.{.hX XaXgXPXPXI.).D _.sXsX`.`.pX).pXpXsXjXQ.!.pXpXsX).9.yX XG ,.B ).).sX`.6.).).sX6.J J pX6.G 6.6.J pXpXJ 5.C H 7.pX4.!.hXiXyXiXuXS pXuX'.7.0X;X= 0XY.~.sX8.9.pXaX7.aXaX9.7.6.5.7.aXgX7.7.7.7.7.7.7.9.9.9.9.9.9.9.9.MX( / s./ CX3Xl.% w w w w s J.T.pX[.hXgXbX|.n 8.D G J 5.7.dXjXY.).pX6.6.).7.A ).pX6.6.pXpXsXJ 6.6.sXuXJ 5.5.J ).pX6.6.J J 6.6.yXpXJ 6.6.6.J 6.6.J J 6.6.6.J J 6.J J 6.pXpXJ 6.pXJ ).).).pXpX).pX*.C pXJ J G 6.J 5.7.0XB C ;.h L 6.6.6.6.6.6.6.6.pX6.7.aXzXxXmXa.mXNXCX<XM 3 #.- B.G.G.G.r g aX~.J J J pXsX(.).J ).7.C D D J 6.6.J J ).dXQ.(.J G J pXJ ~.7.J 7.5.J `.).G 6.pXpXJ 6.`.(.3.R.V q.pX).(.rXQ.wXL.E.E.[.hXQ.S pXaXJ D G fX(.J uXgXL j 8.yXE.pXuX/.).).6.J 9.N (.pX3.D 8.D ).iX`.6.`.).H J pXuXJ ^.).pXuXpX).uXH zXVXp.i.BXNXNX2X>X0X) h.A.G.C.G.G.V.}.(.6.F J J 5.6.).6.J pXJ 8.Q.!.6.J pXJ J pX).6.6.5.5.6.6.J 6.6.8.V F 5.5.6.6.uX).5.6.6.J 6.6.6.5.G J 6.pXpX6.G 6.5.6.6.8.G ).).6.pX).).6.D J 5.J ).J J J 6.sXJ 5.J J 6.J J J ).pX).J 5.6.J J 5.5.6.6.J ).6.J J J J J ).).).pX).gXw.%.mXVXDXCX",
"ZX:Xl.& A.r r i r I.XXT.jXxXm !.7.(.aXgX].H yX XsX[.D G J ).6.J 6.6.6.6.6./.).6.5.J aX<.'.9.rX{.'.aX6.J 6.).J J 7.6.J J 6.pX).5.J J J 6.).gXV F J 5.sXH G 4.6.aX`.sX).^.J 1.eX|.I.LX|.J 7.9.uXaXaX7.7.7.7.7.7.7.7.5.8.aX7.7.7.7.9.7.9.9.9.9.9.9.gXdXNX( CXCX/ CX( : % u w w w w S.!.6.F pXzXR.[.hXpXsX).J J 6.J uXsX6.6.pX).).7.E.J 5.5.6.J 6.6.pX6.6.6.6.pX6.6.H 5.6.6.6.6.6.5.F 6.6.6.J 5.5.6.5.J 6.6.J 6.6.J 5.J ).5.5.5.5.6.6.6.6.J 6.J 7.6.J 6.kXB ).6.7.D J 6.6.).hXvXxXE.XXR.7.C J 6.pXpX6.6.pXpXpX6.gXxXmXCXBXNXCX1X9.O.@.k.w G.A.i A.u uXJ D 5.J J 5.J J 8.N gX$.Y.sXJ 6.J pXF J 5.J 6.J ).D 6.J G D ).aX^.J J 6.5.G ).pXpX).6.5.D B gX1.D 8.L ^.^.6.yX~.,.V 6.pX5.5.pX).aX3.J pX(.6.tXyXR.J 8.rX!./.dXpX>.F ).gXW.J 7.pXA J `.D ).6.`.sXpX).J ).pX`.).`.sXD aX(.rX~.jXVXVXMXBXNXNXZX! ~ ! h.r A.r w G.e m 7.(.).D 6.J pX5.J J 5.6.J sXJ J 6.J 6.J J 6.6.6.6.pX6.J 3.A 6.6.pX6.6.6.6.6.J pXpXpXpX6.6.6.6.pX`.).5.5.5.pX9.V pX`.6.aX_.).pXpX).4.@.K pX5.6.(.).6.J 6.6.6.pXpX).).).).6.J ).J 6.6.J 6.J J 6.6.J ).).J pX).).).).).).pX).).).gXlXmXCXqXt.CX",
"ZX:X; % r r r i A.p {.].`.yXXX^.sX`.pXsXsX<.Z 7.;.z sX`.J 5.6.5.6.6.6.5.).6.G 5.J J 6.sX5.pX`.5.G 5.pXpX).6.J J 6.pX5.J ).6.6.pX).J ).J ).6.`.J 6.J pX6.5.J 5.J pXJ 6.J 6.).eX0XT.^.7.7.7.7.7.7.7.7.aX7.9.7.7.7.7.7.8.5.9.7.7.7.9.7.9.9.9.7.9.9.7.7.u.1XmXCX1XCX2X: % u w w w w u Z J J C gX!.J ).sXpXpX).6.J 5.5.J 6.J J J 5.6.pX6.8.A 6.J 6.6.6.6.6.6.6.6.6.).).pXpX6.6.6.J q.@.B 6.6.).1.V 6.6.J 5.6.J J 6.6.pX2.z J 6.J J 6.6.6.6.6.6.J 6.).).J sXsXJ 6.pXpXJ J ).pX5.5.iXQ.pX6.aX/.J 6.6.7.6.6.6.pX4.dXdXlXVXZXNXNXCX<X:X;.P.k.w G.A.G.A.J.sXpXJ 6.(.J ).).).uXiX).yXZ 5.6.).6.6.J J 6.).).6.J J pXJ ).J G J pX6.J pXsX(.D 6.J 5.6.).`.M N tX_.jXE.G 3.5.G C uX/.D 7.3.(.6.J 6.iXD pXJ J J ).pXpX`.`.D K 9.8.rXZ J 6.3.D J 6.pXH 6.).J ).J ).pX).^.D J ).6.S 9.3.F 5.3.Z dXMX1XZXBXNXBXCX^ Q :X% A.r i r i V.L.aXJ pXJ 5.J 5.).6.6.pXJ J J pXG 5.).6.6.J 5.5.6.pX6.pX6.uX^.6.6.6.J 6.6.5.J ).6.6.J 6.6.6.J 5.6.J 6.pXpX).J sX/.6.6.6.J J J J pXJ 1.h g 6.6.G H 5.6.pXJ 6.6.6.6.J ).J ).pX).5.5.5.6.J J 6.J J ).aXC D G J pX).).).).).8.S ).).sXxX1XCXBXCXNX",
"ZXVXz.h.i i r r r i !.).6.Z 6.6.J 6.6.6.pXiX(.7.DXL.Z 7.7.6.6.6.).pX6.J J 6.^.5.J 5.5.5.6.6.7.6.J uX).pX6.J J 6.pX7.<.~.6.6.J pX).).5.J 6.6.J 6.J 6.5.J ).pXpX^.6.6.J ).).).pXyX/.7.7.7.7.7.7.7.aXaX9.9.9.7.7.7.7.7.8.7.7.7.7.7.7.9.9.9.9.9.9.9.7.9.i.1XCXCX1Xa.^ l.% w w w r w J.^.J 7.(.(.).J F 5.5.pX5.6.pX).).8.N ).6.6.J 6.6.6.pXuX6.6.5.7.6.6.6.6.6.6.6.J J 5.6.6.6.6.J tXwX}.5.6.5.`.sX6.6.6.J pX>.N ).6.J e.h Z 6.J J J J 6.J 6.6.6.J 6.6.6.J J 6.6.6.6.pX).2.G sXpXJ G 6.6.3.J 6.6.pXpX6.6.).aXpXpXaXzXNXmXmXNXCX:X,X9X-Xl.e G.A.G.A.a 7.5.J ).6.G H J J J J ).6.`.).6.J J 5.).J J J 5.J 6.H ).pXJ 6.J 3.G J J 6.6.).6.pXD ).pX5.A ).2.A 5.J pX).pXJ 6.4.G G 6.6.iXD 8.D J 6.).6.J J 6.J 6.6.G J D A 3.pXdXD J 6.uXJ 6.D ).J pX).J 5._.^.6.D pX).).J pX).sXhX(.7.].W.dXMX1XCXBXNXBXCX<X0X:Xh.r A.G.A.A.V.L.aXJ J J J 5.J 6.J pX6.).pXJ ).9.V J 6.pXJ 6.6.J 5.6.5.5.5.6.6.6.6.J 6.6.6.5.-.C pX6.6.6.).2.A pXJ 7.2.J pXpXJ 5.5.6.pX6.J 0.M 6.6.6.yXQ.D 0.M H 5.J 6.6.5.5.6.6.J ).).).6.5.J pXJ 6.6.J J 6.pXJ aXyX~.uX(.pX).).).).).iX'.).).).yXVXZXBXVXCX",
"ZX:Xl.j.r i A.r r i !.).`.(.J 6.6.6.6.J 6.5.pXJ fXXXJ 6.pX6.6.J ).6.pX6.6.6.6.6.6.J 6.6.J 6.pX`.).J 6.6.pX6.J J 6.fX'.pX6.pXJ ).pX8.>.!.6.pX).).J J pX(.).J 6.J sXpXJ J ).J 6.6.6.7.7.aXaXpXdXdX7.9.7.7.7.7.7.7.aX7.uXpX9.7.7.7.7.7.aXgX4.gXgXgXaXzXu.t.CXCX1XCX( : % C.w w r w a K ).).`.).J 6.J 6.5.5.6.J J 6.J aXE.G pXpX6.6.J 7.N J 6.J pXpX6.6.6.5.6.6.6.J 6.6.6.J 6.D J 6.sX).5.6.6.F 7.6.6.6.6.6.rXE.J 6.5.dXXXJ 6.5.J 6.6.J J pXpX6.J J 6.J J J J 6.6.pX).1.#.M M pX8.>.F aXiX).6.5.6.6.6.pX6.6.`.hXgXw.i.CXmXmXCX<XwXv.l.; V.G.A.G.A.J.pXpX).).pXpXH J pX(.).6.J J 5.J 6.5.`.).J J 7.(.pX).J A D 6.6.).gXS J J 6.).J ).pXiX).pX:.M 6.D ).6.G D D 4.pXpXpX`.D J D D pXD ^.J pX6.6.).5.7.(.6.6.D J D 6.J J 9.0XJ 5.5.J J pX).(.).6.pX^.^.6.4.D J J J J J 6.5.6.6.).m G 8.lXCXCXBXNXNXCX<X:X:Xh.G.r A.A.r V.Y.7.).J J 6.6.J 5.J J pXJ 6.J J dX/.J 5.J 5.J 6.6.J J 6.6.6.J 6.6.6.J 6.6.J gX$.Y.6.6.6.pX6.tXV 6.).7.rXD =.C J 6.).J 6.pXJ w.B F 5.J J pX`.tX].J ).6.J 6.6.6.6.).).J J J 6.6.J 6.pX6.6.6.J J ).pXD uXD (.6.J J ).).).).`.).pX).).5.mX/ BXp.ZX",
"ZXqX; h.A.A.r r r G.Z J J 6.J J 6.6.6.3.S 6.J 6.J J 6.).pXpXpX).J 6.pXpX).6.6.pXpX).6.).9.N ).).pX).9.A ).pXpX).6.pXJ J pXJ ).6.J gXQ.).6.).).).pX).pX).).pX6.J 2.J ).J J J 5.6.6.aXaXaXaXaX7.7.9.9.7.7.7.7.7.7.aXaX7.9.9.7.7.7.7.7.aXgXaXgXgXgXgXzXNX1XCXCX1XZX2Xc.% w w w t w P._.J J 5.J 6.6.).6.pX).pX6.6.J 5.J pXJ 2.5.pX7.V 6.E.H pXJ 5.6.6.5.6.pX).pXJ pXpX6.pXpX0.K pX6.J pX6.6.pX1.K 6.J 6.J J ).6.J 5.pX).G 6.pXpXD 6.J pX*.b D pXpX).6.).J J J J 6.J J 8.wXPXL.pXq.P.S 6.pX6.6.6.pX6.J 6.pXpXD A 9.w.MXCXNXNXCXmX$.h ; - V.G.A.G.C.n 6.).6.J 7.J pX).).).pXpX).6.pX).7.>.C J ).).).G G ).6.uXJ 5.J 5.pX`.J J ).`.6.5.D D 5.5.d.z F 6.G 5.1.B pXJ J pXpXD 6.6.D D J pX5.H J dX`.1.f g 6.D pX6.D J pX6.J pX^.6.uX).6.A J D ).5.J ).(.6.pXpX).J J ).pXpX6.5.6.6.6.F N 5.%./ 1XVXZXNXCXmX<X~ % G.r r r A.V.g 7.pXJ 5.J pX6.D ).J 6.pX6.6.J 6.5.J 6.pX6.J 6.6.6.J 6.pXpXJ J 6.pX6.6.pXpX5.Q.).6.6.J 6.6.sX).J pXJ ).1.h Y.J 4.J 5.6.5.J gX{.D D 5.J 5.2.F sXpXpX6.).6.6.6.6.J J pX).J 6.6.6.J 6.pXJ ).).).J pX^.pX^.5.6.(.).J ).).).).J pX).`.dXVX2XBXVXZX",
"ZXMX; h.r i i r r p n 7.F J J J pX).aXiX^.6.).pX6.).).).6.).5.6.).pX2.H 6.6.pX).pXpXpX).gXQ.).).).pXdX`.6.pXpX6.J pXpXJ 6.J ).pXpX).J J pX6.J J ).).J J J 6.6.7.<.!.pXJ J J 6.6.6.pXpXdXaXaXaXaX9.7.7.aX7.aXaXaXaXaX7.7.7.7.7.aXaXdX7.9.gXaXgXgX9.zXu./ CXZXZXZX2X: % w w w r w g C J J pX6.6.).6.).6.5.J pXpX6.6.6.J q.h g 6.6.sX).pX).6.pXpX6.6.pXJ 6.J 6.6.J 6.).pXpXtXE.6.).).6.6.6.6.iX`.J 6.J pXJ pXpX6.8.N C J J J pX).J ).pXkXW.B F pXpX6.J J pXpX6.6.J 6.J J hXE.5.tXW.uX6.5.pXpXpX6.sX6.J 6.5.8.3.9.gXMX1XNXNXZX^ P.P.- - V.G.G.G.A.a 6.J 6.J pX_.).pXJ J J ).`.sXsX).w.0XR.S J G 5.q.B pXpXpX).pX6.J ).pXpXJ D 6.pXpX).pXpXpXlX0X!.pX`.).hX_.6.6.J 6.5.6.J pX).J 6.D 6.5.C C F qXU.Y.(.pX6.pX).J 6.5.D J pXJ pX).pX/.pX_.).pX5.H 4.G J J pX).J J J pXpXpXpX6.^.pXF G kXt.mXBXZXBXZX^ ! ,Xh.i r r r r V.n 7.6.6.5.J J ).).J 6.6.).pXpX).pXpXpXJ 5.6.J 6.6.6.6.5.J 6.6.).pXJ 6.6.6.6.pX6.J 6.6.J 6.6.pXuXJ 5.J 5.yXXX`.J 6.pXpXuXpXJ ).sX).).pXpXpXtXR.6.J 6.pXJ 6.pX6.6.).).J pXJ pXpX).pX).pX).J J J (.pX).J J pX`.).).`.).).).).(.).).).`.tX2XqXqXCX",
"ZX! - j.A.G.i r w p m (.).J 6.J 5.5.6.J 5.pXJ pXuXJ J 7.D 6.1.S 6.7.iX(.6.pX6.G 5.pXpXpX).pXJ pX5.J aX>.F 6.5.6.6.3.J pX6.).3.A ).pX`.).6.pXJ J J J ).pX6.J pXpX[.).J ).J 6.J pX6.pXpX7.aXaXaX9.9.pXaXaXaXaXaXaXaXaX7.8.7.aXaXsXdXaXaXgXaXgXgXgXdXzXNX1XVXZXZXVXZXc.% r w w r w g !.7.H J 6.J 5.J 6.6.).J 7.7.J 6.pXJ jXXX/.J 7.A J 5.6.6.J 6.6.6.pXpXpX5.J 6.J J 6.J 6.5.7.6.J 6.6.6.6.J J 6.pXpXJ pXJ J 6.6.dXcX'.(.pX).6.pXJ J G dX XiX,.z J 6.6.D J 6.J 6.J ).sX).5.rX~.sX`.6.pX4.6.pX6.6.5.pXpX6.4.7.).dXgXy.CXNXBXZXVXP.Q - z.V.i A.i r u 6.6.).).J 6.F 6.).).).J G 5.5.J dX X`.`.pXpX6.hX_.J 6.).6.5.pXJ J 6.J 5.G H 7.5.5.A 5.6.uXQ.).J ).6.J J 6.pX).pX`.pX).pXpX).sXJ 5.iXyX~.~.`.uX6.(.).pX).J J 6.iXsXJ 6.pXJ 6.J J ).).J 7.`.^.7.).J ).D 6.6.J D 6.J 6.6.6.S uX(./.q.mXBXBXNXNXZX<X! :Xh.i w C.A.A.e Y.aXpXpX).).).).6.J J pXJ 5.7.D J 6.pX6.6.).pX6.J J 8.(.).7.6.C 6.6.J 6.6.6.6.6.6.J pX5.G pXJ 6.6.).pXJ J 8.D 5.J 6.5.J 5.5.D 6.J 6.).pXpXpX).5.6.6.J 6.6.6.6.).J J 6.J 6.J 6.J 6.J 6.pX).).pX*.M sX6.D (.pX).(.).).pX).^.).).).`.pXe.2X<.t.ZX",
"u.^ ; & r i A.r r H.T.H 6.J 6.J 7.^.).pXpXJ pXJ pX6.J 6.pX5.uX).J 6.pX6.pX6.pXuXS 7.C 6.6.pXJ J ).).pXfX(.pXpXpXpX/.7.N H 9.$.Y.6.).pX6.6.J pX).).).J pX6.J J 6.J ).).).pXpX).7.6.6.7.7.7.aX7.7.dXdX7.aXaX7.aX7.7.7.aXaXaXsXdXaX7.7.aXaXaXgXaXgXdXzXNXCXZXVXZXVX( : % i w r r e F.`.sX).J J J 6.J 6.J J 5.pXsX).J 6.5.5.5.8.D pX/.J 6.J 6.J 6.6.6.6.6.J pXJ ).pX6.(.fX@.V ~.pXJ 6.6.pXpX6.J 6.6.).).).6.J ).5.J J pXpX).6.pXJ pX6.4.M J 7.;.M B 6.5.).).).).pXJ 3.K 7.3.(.gXN F 7.2.6.).6.pXpX7.J 6.6.aXpX^.aXgXt.CXNXBXCXt.$.;X- l.e G.A.G.G.w S J ).pX6.).5.C J J J ).6.6.6.J J 6.).J J 6.pXJ ).).pXJ 6.).J ).).pXpXpX`.3.<.4.5.rXD uXsXG ).J J 7.4.S ).6.5.A 5.7.J ).pX).6.6.H F pXsX).J 5.`.^.7.J 0.A ).J G D sXsX6.pXJ (.).A @.l H ^.6.6.(.).6.6.J ).pXJ 7.G 7.6.6.D G !.~.y./ u.i.NXNXZX<X^ ; h.G.C.r A.A.V.n 7.pX).).).).6.).6.J J pXpXpX).pXJ 6.pXpXJ ).pXJ 6.pX).5.pXrXR.J 6.J 6.6.J 6.6.J G 6.1.B ).pX6.).pX6.).6.sXuXiX).6.pX6.6.).6.D ).6.J 6.6.6.J 6.6.J ).pXpXpX6.6.uX).6.J ).).6.J 6.6.J J ).).aXP.L.aXpX/.H pX).).J J J ).).).J ).6.pXlX2Xp.p.BX",
"CX<Xz.j.p u C.r r p n 6.J pX).).pXpXpXpXpX6.).6.J 6.pXJ 6.pXJ 6.J 6.6.6.6.pXpXpX).gXE.).).6.pX8.;.M pXpXpX).uXpXpXJ tXW.!.gX|.!.6.J J 6.uX).J J ).J 6.3.pXpX6.).).).).pX6.).pXdXpX7.6.aX7.6.9.<.7.9.7.7.7.aXaXaX7.7.7.aXaXaXaXdXdXaXdXaXdXaXgXgXgXzXBX2XVXZXDXDXUXc.% i w w t J.W.J 6.6.pX).).).pXpX5.J pX2.C J 6.).).pXuXiXuX6.6.6.J 6.6.2.G pXpX6.6.pX6.6.J 6.pXH 1.M R.sX6.6.J 6.6.6.pX6.6.J 6.J 6.pX(.,.N ).1.D G J 6.6.6.6.`././.).7.wXI./.5.6.H 6.6.J 6.4.E.'.pX[.D 7.0Xn zX,.n 6.7.6.6.pX<.D pX6.pXJ 7.9.1XCXBXNXZXCXh P.z.l.V.G.A.G.A.A._.).J ).6.pX1.R.6.6.D H 6.J pX).J 6.6.6.5.J 6.).G D ).6.6.6./.(.6.J pX).pXsXpX6.).sX).).pXsXD J J ).sX`.G 7.J 7.D ).pXJ J 6.pXsX).4.S pX).pX).).6.).pXtXE.pXsXpXJ G 6.`.sX`.J 8.#. .h '.6.6.J D 5.D J (.6.6.J 7.G J ).pXpXJ !.^.y.( NXBXBXNXZX/ ^ z.% G.A.A.r A.V.n aX).).J ).pX).pXpX).).pXpXpX6.6.).).6.6.pXJ pXpX6.6.5.pXJ pX).6.3.J pXpXpX6.).aX<.).sX^.A pX6.6.6.J ).pXpXpXpX5.pX6.5.pXJ pX3.F pXJ 6.6.6.6.).pX3.C ).pX6.J ).).pX6.).J 6.pX).6.pXpXJ 5.J pXQ.!.5.).).J J ).).J ).).).J ).).).pX`.kX2XVXNXNX",
"ZX<Xl.j.H.C.r r r a j (.pX).pX6.6.J J ).pXpX).pXpXJ 5.6.J ).pXpXpX).pXsX>.C pX6.6.pX`.pXpX6.7.:.0.R.).pX6.J 6.6.pXpXsX{.pX).).pX).).pXpXJ 6.0.M ).J 9.E.(.pX).).).J 6.).sX).J aXpX6.aX7.aXpX7.fXaXaXaXaXaXaX7.aXaXaX6.aXaXaXaXaXdXdXaXdXdXdXgXgXdXlXMX1XmXVXVXDXDXc.% i w w e L.aXC J 6.J ).pX6.J ).sX).sXkX$.Z pXJ 5.6.pXpXpXpX).pXpX6.6.jX~.6.5.7.J 5.6.6.J J ).J 7.yXj 7.J pX).6.pX6.6.6.pX6.J pXJ ).8.%.W.6.iXuX4.S 6.6.J J ).J 5.6.6.hX`.5.).sX).6.).).).).J 6.6.6.4.^.rX(.aXbX'.7.6.6.6.7.iXJ 7.pX6.J pXw.BXCXBXNXmX1X0Xg z.; V.G.r G.A.w (.pX).pXpX).iX~.5.^.sX).J J 5.(.pX6.6.6.`.).).pX4.(.5.5.J ).).6.J J J 7.G 5.6.).).6.^.J ).pXpX).J J 6.pXpXJ aX<.Z 6.).pXJ J 6.4.D ).pX).pX).).J ).).pX(.5.J J pX).).(.pXD pX6.fXAXP.T.6.6.uXuXpXpX).(.(.pXpXJ fX^.).pXpX6.`.T.'.BX2XNXBXu.BXZX1X:X;X% i A.A.A.r V.Y.pXJ ).).).pX6.J ).).6.6.6.6.6.).).6.6.J 6.6.J 6.pX6.pX6.).J 6.pXrXG J J 6.pX).sXsX7.(.e.#.M J pXpX6.J J 6.6.7.(.4.6.^.pXpXJ tXS 6.).J 6.6.).J 6.fXE.J 6.pX).).J 6.).).6.(.pXpXpXJ pX).6.J J 5.J ).).pXpXD J ).).).).).^.).).).).).q.1XCXBXNX",
"ZX<X; & r C.r r i p L._.6.J 6.6.pX).pXJ pXpXpXpXpX1.V ).).).pXpXpXpX6.J kX<.S 6.).6.J 6.J ).9.xXfXB 6.6.pX).6.pXpX).J 5.).6.6.J ).J 6.sX,.n xXQ.5.J uX[.G pXpXJ ).6.6.2.G pX6.pXaXaXpXaX7.aXaXaXaXaXaXaX7.7.6.dXaXaXaX6.dXdXdXaXaXaXdXdXgXaXaXdXgXe.p.CXVXVXVXDXCX: % u w w w a 9.E.H pXJ J J pXpXJ 5.6.2.uXcX`.pX6.5.6.5.A 6.7.J 5.6.6.6.).sXpX6.pX6.pXJ 6.).6.5.6.J xXL.S J J 6.6.6.pX).pXpXpXJ 5.6.J pXQ.`.6.J 6.sXpXJ pXpXpXD ).).pXpX5.pX).J J 6.J J pX8.A J J 5.J J 6.<.D 0.H aXpXpXsXpXpXpX7.J 6.6.'.sXzXmXCXNXmXa./ $.L.P.l.V.G.i A.A.G.(.pX6.J pXpXpX<.K J 6.J 6.J pXD 5.7.J ).).6.J pX`.).).).).J J ).).).pXsXdX(.pXJ 6.J 6.(.).6.J pX).J J J 5.4.J hX(.J ).pXpXpXpXpX^.H pXJ pX6.G J J 6.6.6.(.`.pXpX).5.D 6.).J pX).hXXX_.6.(.D ^.aX5.4.(.3.A pX).sX).6.6.6.7.Y.V ^.t.a.mXNXBXu.u.CX^ ; h.i r A.A.G.e n pXpX).).pXpXpX).J J pX6.6.6.).J 6.6.6.7.J pXpX6.6.6.6.J pX6.5.J 7.^.J J 5.J 5.J 6.pXJ qXnXQ.H 6.J pX6.J pXpXpX6.5.pXD 4.6.uX).).).pXpX6.J 6.6.pX).).pXpX6.).6.5.J J J ).pXJ ).6.pX).pX).pX).uX(.).H ).sXsX(.(.pX).).).).).).J ).J %.1XZXNXBX",
"CX1XQ h.H.w r i r K.{.5.5.).pXpXpX).).pXpXpX).pX6.hX{.6.).J 6.pX6.pXpX6.dXbX].7.6.6.J 6.G 6.^.cXnX'.6.).pXpXpX).pX).pX).pXpX6.J pXpX).aXyX].pX).pX).J 9.rX(.pX).).pXaXkXB 6.).pXaXaXsXaXaX7.7.7.9.3.aXaXaXaXaX,.^.dXaXaX8.2.sXdXdXdXsXdXgXdXdXhXjXSXVX1Xy.BXVXBXDX,X% w w w w a _.sXuXJ 6.3.Z pX).6.).7.1.Y.6.pX).pXpX7.uX^.6.).fX$.B pX6.2.J pXpX6.J 6.pX6.J 6.pXpXJ fXXX(.^.6.J pX6.G 6.4.J ).0.N `.pX).5.J pXpX6.J J pX6.).pX6.>.N A pX`.).).pX6.J 6.V D fX'.pX6.).<.S pX`.pXjX(.5.J pX6.6.pX7.pX6.6._._.dXdXVXCXNXNXCX/ ; F.P.; y G.G.G.w J.).J pX).G J `.jXB H pX6.6.J 6.J J pXJ J 6.6.J G 5.H ).J 6.J J J pXJ J J 6.pX6.4.S ).).6.J 6.J 6.2.A ).uXJ ).).5.6.J 5.D J 6.).pXpXG G pX).aX/.(.6.J 6.`.^.6.4.6.6.).`.pX).pX6.(.).pX).sX).J J sXdX'.^.fXE.7.A pXpX6.6.pXsXK M V s./ BXNXNXi.NX1X^ l.h.G.C.A.A.A.e T.pXJ ).).).pX6.J pX).6.6.6.).pX6.J 6.6.pX).6.6.pXpXpXpXpX5.6.).pXpX).pX6.J pX).pX6.6.).).^.).6.7.6.3.).pXJ 6.6.pX).pX6.6.A S 7.J J 6.pXpXpX6.6.J pX3.F pXpX).6.`.6.D 6.D pX).6.6.).6.).).pX).).`.7.A H G J `.).).).).).J (.).).).pXy.1XCXNXBX",
"NX<X;X% G.G.r r A.u z D _.).J 6.).pX).pX).pX6.J ).J 6.pXpXpXpX6.pX6.J pXpX).pXpXfX^.).9.<.~.pXJ sX).pXJ J pX).pX).pXpXpX6.pX9.N J 6.J ).).5.D J ).).6.).[.).J pX6.).6.hX`.J pXpXpXpXaXaXaXaXdXaXzXrXdXaX9.7.aXjXiXaXaXdXzX$.'.dXaXdXdXdXdXdXdX[.zXlXMX1XDXMXZXNXp.~ % w w w t w B 6.pX6.8.'.).).pXpX).pXhX`.J pX6.6.6.aX~.pXpX).aXwX].6.7.rX(.7.5.^.pX4.J fXD pX6.).pX).6.).).6.6.J q.@.n iXJ J zXW.J pXpXpX6.C ).pXpXH 6.uX).).fX#.x M (.pX6.J 6.pX6.pXuX).).6.pX`.).pX).J 0.N J aX<.B 7.6.6.6.pXpXpXpX~.6.pX6.kXCXZXBXCX1Xz.% h P.e i i G.C.g 6.J ).pXsXJ J sXrXK J uX`.`.pX).).6.`.).pX).sXpX`.).G J pXJ pX6.J 6.6.3.H pX6.pX^.G 5.J 6.6.).6.tXR.J G 5.H 6.6.6.5.D 6.C D G J 9.O.j >.C 5.).5.J ).pX6.G 6.pXuXpX).5.6.J 5.).~.J 4.J 6.pX6.J J pX^.D ).).aX'.J pXpX^.`.dX`.W.,.i.CXNXBXZXBXu.ZX<XK.% G.C.r r A.e Y.dX6.(.).).6.pXJ J 7.6.pXpX6.6.pX6.5.).pX).pXpX6.6.6.pXpXpXpXpXJ pXpX).pX6.J 5.6.6.^.).pXpX6.7.D pXiXH pX6.6.).).6.6.pX<.g (.6.6.4.J 6.6.6.6.J J 6.fX~.C 5.6.6.J 7.D (.).J pX).pXJ J J J 6.J J 5.7.R.`.pX(.J J H (.).).).(.).).).pXy./ s.BXBX",
"u.mX;Xh.r r r r r J.{._.6.).6.).J pX).pX6.J ).pXpXpX6.6.3.J pXpXpXpX7.N ).pX6.pXpXpXpXsX{.^.6.).J J pX,.o.b H 5.).pX).pXpX).e.b Z 6.6.J 6.pX`.pX3.J 6.J J pX).J ).pXpXJ J ).pXpXpXpX7.7.9.2.aXaX9.<.7.aXgXaX6.7.7.aXaXdXdXyXD dXaXaXdXaXdXdXdXpXjXnXVXZXVXVXZXCX( ~ h.u w w w C.!.6.5.6.`.H pX).pX).pX).J 6.J pXpXpXpX).pXpXpXJ pXJ 7.pXpXpXJ 6.iX(.6.aXJ J uXpX).pX5.6.pX).J 6.pX).dXbXB 5.pXpX).uX6.4.H ).aXE.J 6.pX).6.G 5.G G kXq.h _.7.6.).pX).6.D 4.J J J ).pX6.6.4.G gXQ.J 6.sX6.5.pX6.pXpXpXpX_.E.uXaX5.kX1XNXNXCX<X$.= h ; V.i i i A.J.6.F J J pX6.H 6.aX{._.J J J 6.).6.6.J J pX6.6.`.6.6.^.J J ).J pX).6.6.iXS 5.6.).pXpX^.6.8.K ).pX).pXpXuX`.3.G J J sX`.sX[.uX^.).tX%.d c N ~.pX/./.6.6.6.6.H J pX).pX6.(.gXV _.(.7.D ^.pXpXuX`.5.7.~.).).6.).pXpX).).pXJ 7.~.N e.y.t.BXBXBXCXNXs.<XI.% G.A.A.A.r V.n 7.).(.).6.6.).7.2.H 6.J 6.pXJ pXpXpXJ 6.J 6.J pXpXJ pX6.6.6.6.8.(.sXJ 7.6.pX).pX).pX).).pX6.).sX).pX6.J 6.D 6.J pXpXpX0Xg L pXpX`.).pXpXpXpX).).pX).gX$.B ).pXuXpX/.pX5.H 6.6.J pXJ J J ).(.).uX`.(.D `.).).pX,.B ).).).).).J pXJ MX( NXNXNX",
"s.p.- h.p a A.i w L.).).pX).).).pX).).pXpXsXpX6.6.J pXaX<.Z 7.6.pX).gXyX(.pXpXpX6.pXpX).J 6.pX).pXpXJ xXbXT.~.`.).pXpXpXpXJ xXP.!.pXpX`.).).pXpXfX(.pX6.J pX6.J J 6.6.pX).).pX6.pX7.7.pXw.0X(.7.gXyXaX9.8.aXaXaXaXaX6.dXaXrX/.aXsXdXdXdXsXdXdXsXdXlXVXCXBXmXZXDXUX,X% w w w w u K pX`.`.).).J ).7.J pX).pXpXpX5.J 6.6.6.J 6.5.5.).aX6.J 7.pXpX).6.pXpXpXdX>.H pX6.6.uX).pXpXpXpX6.6.J 5.,.B pXJ 6.6.pX/.).7.D ).J pXJ 6.6.sX).<.K pXwXXX5.6.J J 5.J pX(.).).).J J 6.pXuX^.pXJ 7.4.(.7.<.~.7.6.6.6.pXpXD G (.dX9.,.1XNXCXs.) : P.- P.e G.A.A.C.Y.6.5.F H pXpX).J pXH pX6.).pX).).7.D pX).J pX).J pX`.).pXJ J ).).pX7.J D pX6.J D J 6.J 6.iX'.6.J sX).6.J 6.rXD J J J pXJ 2.G ^.6.8.VXg L W.~.pXJ 4.5.pX6.4.J F D 5.6.`.J pXiXG D 6.J J 6.6.J 4.`.sX(.D 6.5.5.D ).pXJ pXpXpX(.Q.xXMXCXBXBXNXNXt.a.! P.h.A.A.A.r G.e Y.aX).).pX6.).J gXQ.`.pXpX6.6.J ).pXpXpX).6.6.J 6.pX6.J pXpXpXpXsX).6.6.pX6.D 6.).pX).).6.5.pX^.J pXpXpX).sX`.J J pXpX).sXrXg ).pX).6.5.6.5.J 6.J pX6.pXbXE.G pXJ 6.G 6./.).).pX).6.6.).).J J D 6.(.J 6.(.6.J 9.rX_.J ).).).).).pX).lX/ NXNXNX",
"CX^ - % H.G.r G.w g ).6.pX).).6.J 6.J ).pX6.6.pXpX).).6.hX`.3.H pXpX6./.5.6.pX6.).pXpXpXpXpX).).pXpXpXpX<.^.pXpX5.F sXpXpX6.sXhX6.J ).).).pXpXJ ).pXpXpXJ 6.,.l !.pXpXJ ).J 6.6.pXaX).dXtX{.aXaX7.9.7.gXdXsXaXaX7.7.pXpXdXsXdXsXsXdXdXsXsXdXdXsXhXxXDXa.ZXZXZXDXDX:X% A.w w w e g pXJ 6.).6.J J uX^.`.7.3.F 9.D J 6.pXpX).pXpXpX*.K sXpX).J 6.6.6.6.pX6.pXiX).6.pXpX).6.).pXpXpXpXpXpX6.hX/.pXJ 6.6.6.J 6.sXuX6.J 3.D 6.J 6.6.iX^.5.6.J J 6.6.J 6.<.(.pXJ ).6.J J ).pXpX^.pX).6.`.pXpXdXpXpXpX6.5.J 6.J _.~.aXzX:.CXBXZXCX) * j.P.- V.G.G.A.F.pX6.dXS Z 6.J J ).).`.(.uXpXD ).6.7.4.H J 5.).pX7.S ).).pXpX).J J 6.pX).pXH  XgXH ).sX).pXpX5.(.6.D 6.8.4.<.D `.`.pX5.G ,.W.V K aXJ jXwXL._.J D J 6.pX).sXuXpX).J D J J 6.J aXuX~.6.(.).pXsX6.).(.pXuX^.J pX).^.J 6.pXJ pXpX(.Z w.NXa.BXBXZXBXCXs.^ g h.A.w r i A.V.g pX).J 6.pXpXpXpX).pXpXpX).aXD J pXpXpXpXpX).pXpXpXpXpX6.6.5.J 7.7.J ).pXfX^.uXH 5.J 6.6.pX6.pX6.6.6.J pX).pX).6.J 7.J J pXsXJ 5.5.6.6.6.<.~.pX).J ).J J gX~.pX7.J uX).0.K ).pXpXpX).pX).J `.^.`.(.9.M F D ).`.(.J ).J J J ).J J J %.mXVXNXNX",
"s./ z.h.i i r r r a H J 6.5.J pX).).).).6.pXpXpX).pXpXpXJ pX/.pX5.J ).9.&.S pX).).pXpXpXpXsXD J pXpX).q.@.n pXpXrX~.6.pX6.).).6.pX`.).6.J pX6.pXJ J J ).pX).xXXXY.sXsXpX).pXpXpXaXaXpX8.sX7.7.8.7.aXdXaXaX7.pXsXaXaXpX2.pXpXsXaXdXsXdXdXsXdXsX[.iXxXi.CXVXmXNXMXi.^ h.r w w w e a 5.J 5.C G ).pXJ J J aXhX).pXsX).pXpX).pXpX).e.1.g 6.pXpX6.pXpX6.).pXpX).J pX4.6.C J 6.G J pXpXpXpX).pX6.J J pX6.6.).).pXJ 6.pX6.4.J J J pX).J pXpX^.sX6.6.6.J pXiXJ pXpXJ pX).6.2.F pX).).6.pX).6.pX7.pX7.6.pX7.D pXJ R.fX6.zXy.t.NXCX/ 3Xc.h.0Xl.e i r G.w M pXJ sXH J pXJ ).).J 6.J 6.(.J 6.6.`.`.pXpXH 7.6.J J 6.D 6.J J J ).).).aX!.N zX_.6.6.J J 6.sX(.dXJ 5.sX`.hX/.5.K ).sX9.E.{.kXE.pX).5.).`.).pX).J D 6.6.2.G ).uX).pX).J J ).^./.sXpXH J ^.8.<.K 6.J 6.).J J ).J 6.J pX6.J pXH G 9.y.CXBXi.NXu.a.mXt.u h.G.A.C.A.G.e Y.7.).pX(.pXpX6.pX).pX6.pXJ 6.pXH 6.).pXpXpX6.J 6.6.6.J pXpXpXJ pXpX6.H pXpX).).7.<.Z 6.J uX).6.pXpX7.V ).6.pX).pXpXpX(.J 5.6.6.6.pXJ ).6.`.pXpX6.).6.).6.`.pX6.sX).J 6.tXR.J J 6.).J 6.pX).(.J J J iXQ.^._.).(.).J J J J D H 6.J 8.i./ t.BXt.",
"ZXs.- h.i A.A.i w g F J 6.pX(.).pX).6.5.5.6.J 6.J pXpXpXpX).pXpXrX(.3.e.%.Y.7.J pX).pX6.6.pXdX(.).pXJ xXPX].pX).sXpXpXpXpXpXpX).).J pXpXJ pXuX).).pX).6.J pX).{.pX5.J pX).5.J pXaXaX9.<.5.7.aXtXuXaXdXaXaXtX^.aXaXsXzX$.!.dXsXaXpXaXaXsXsXsXdXsXhXlXp.mXNXmXBXNXs.! h.r w w w r h.R.6.8.6.S (.).pXpXG G pX6.6.7.(.pXpXpX5.pX7.nXPXyXR.6.J pXpX6.pXpXpXpXpXpXpX).aXQ.(.sXiXJ 6.6.6.pXJ 6.pXpX).).pXpX6.J aX).).pX`.1.b J 5.J 5.).).pX).7.6.).pXpXJ J 6.J pX).J pXpXjXY.6.J J pX6.6.pX6.7.7.fX4.4.).`.5.J L G pXzXt.BXMXa.a.<Xl.l.;X; V.i r i C.p pXJ ).).).).sX(.6.J J 6.J J 5.3.D (.G J ).6.6.).^.).pXJ pX6.D (.J 5.5.).6.>.K ).sX`.pX6.J 5.6.6.pX).D ).).aXiX/.).6.aX_.G pX_.pXpXsX^.(.6.6.).pXpX).aXtX!.0.A 6.D ).pX6.J J J 7.).(.D 6.5.rX'.pXJ pX).).).).).pX).pX6.J 6.).^.jXSXCXBXNXNXNXZXmXAXl.% G.A.A.A.i V.n 6.H pX).J pXpX6.G pXpXpXpXpXpX).pXJ 5.6.6.pX).6.).6.).).pXpXpX).pXuX(.6.6.J ).sX{.).pXJ 6.pX6.6.6.pX).J pXpX6.J 6.pXpX8.V pXpXJ 6.pX).`.).6.pXpX).).).pXJ 5.).J 7.V ).uX).6.(.pXpX).pX).).J ).pXJ J 6._.J 6.J J (.).J J ).J J J 9.BX1Xa.i.CX",
"1X1X- e A.i r i w m Z ).J ).H 6.).6.J ).pXpXpXpX).pX).`.pX6.pX7.`.pXfXrXwX(.pX).).).6.pX).pX6.).).pX).).`.6.pXJ ).).pX).pXpXpX).6.).).pX).).pX6.A J D ).).pX).J 6.pX`.pXpXfXS 6.6.7.gX/.gXuXaXdXdXaXaXaXaXaX7.aXdXpXhXcXpXpXaXaXsXdXsXsXaXsXdX_.sXlXAXVXBXVXZXNXCX:X% w w w r w I.C 3.sX).!.).6.J 8.3.(.pXaX6.`.).6.7.*.F J pX`.jXQ.(.7.^.J 7.J 6.6.pXpXpXpXpXpXpXsX).6.6.pXpX).pX6.J J J ).pX6.J 7.>.Z pXpX5.5.H tXP.M A 7.H J 6.(.6.6.6.J J pXpXJ 6.).pXJ pXD J sX1.l S J 6.6.J 5.7.pX7.pXsXsXJ 5.pX)._.(.7.,.1XMXy.CXCX^ * % $.- e G.A.G.C.L.sX).J J (.).7.D (.).).pXJ pXpXuX(.0.K H J 6.pXD J 6.5.H pXaX).J J J ).).pXfXE.G G J pX).pX6.).`._.dXuX(.7.6.J J 6.6.).pXJ J H uX`.sX`.pX).).pXJ J ).pXiX(.tXQ.sX^.`.7.uX(.J 5.D _.pX6.J 7.~.).8.J 6.5.C ).).6.6.).pXpX6.D J K 1.MXt.i.u.NXu.mXt.U.GXe A.C.C.w G.V.Y.pX(.pXpXJ J pX6.).J 6.pX6.pXpXJ 6.7.D ).pXJ pXpXaXD ).6.6.J pX6.6.6.G 6.pX).).).pX6.).6.J pXpXpX).pX6.J J 6.pXJ 6.J pXiXiX6.J pX^.).).pXpX).pXpXpXJ 6.K ).pX).pXpX`.).sX3.A J 6.J pXJ 6.J J J 6.J G ).).J J ).).J 6.6.H J ).).).gXMX/ a.MXmX",
"CX3Xl.Z.r r r i w J._.pX6.).).).pXpX).J ).pXpX).pX).pXJ 6.pXpXpX).6.pX).).pX).pX).pX6.J 6.6.pXJ J pX,.M pXpXpXpXJ 5.pXpX).pXpXpXD ).pXJ ).pX).dX/.pX/.).pX).pXpX6.J J pXpX).sXpXpXpXpXaXaXaXaXaX7.aXaXaXgX9.^.sXfX`.pX7.dXdXsXsXsXdXdXpXaXsXsX[.pXjXDX2XVXmXVXZXZX:X% r w w r w ,.h T.uX/.(.J ).pX0.R.D 5.pXsXpX5.J 9.0X!.).).6.J gX,.B dXJ pX).pX).pXpX).pX6.pX6.6.6.6.6.J ).pX6.6.).pX).5.J pX).gXyX!.J 6.6.6.J J hXyXE.).`.J ).).6.pX).pXJ G J sXpXJ J 5.D pX4.D tXwXB pX6.).7.N ).7.6.pX6.pXaXuXG F !._.dXtX<XNXBXCX1X:Xk.* 0Xz.e G.G.G.C.a 6.6.(.^.(.).pXsX).J 6.8.3.H pXpX,.V W.6.D J pXpX6.D pX(.5.).6.).sXpXJ J pX6.J sX`.J (.sXpXsXpX).J pXsXaX6.).).pX5.).pXpXJ ).H H 6.J 5.6.pX5.J 6.^.J fX/.pXJ ).6.6.2.G ).).).pX^.J 5.6.6.J A 5.`.`.pXgXR.).pXpXpXJ ).sXsX).J (.tXy.a.y.BXNXBXNXVX@.@.Z.S.A.A.G.G.V.n pX(.5.6.J J ).sX).pX6.6.pX).pXpX6.6.`.5.6.pXJ pXpX`.J pX`.pX6.pXJ gX~.6.pX).).).6.pX6.pX).6.6.pX6.6.6.).pX6.pX).pX).pXJ 6.pX).pXpXG J 6.6.J 6.5.5.J uX^.J 6.5.F 5.G 7.J q.$.Z 6.J 6.).pX`.).).).pX(.H J pX(.J J J 6.).J J J J F pXVX1XBXBXNX",
"ZX1X- e A.r r i C.a F ).pX).J ).5.).pXpXJ 6.6.G ).5.J ).6.6.6.6.pXpX).pXpX).pXpX).sXaX6.G ).pXpX).J xXW.).pXpX).pX6.J pXpX6.).uX/.).pX6.J pX).6.J (.pX6.pX).).7.J `.J 6.pX).6.pXpXaX7.6.aXaXaX0.D dXdXaXgXdXsXaXsXuXaX`.sXaXsXsXpXaXsXdX`.sX[.yXsXgXSXAXZXZXVXVXZX^ % r r w r w 0X}.pX).(.).).).aXjX!.sX(.J pXdX^.pXpX{.[.).6.6.J 9.bX].pX4.D pX6.).6.pX6.5.6.pXpX).pXpXpX).5.G pXpXJ pXpXpX).J 6.pX`.pX4.J pX).).pXJ pXsX).).pX).pX6.pX).pXsXiX_.pXpX6.J ).uXJ `.).J dX_.J 6.G aX/.7.V H 6.pXpXpXsX1.B J Z `.gXVXmXy.mX1X<XU.% 0XP.y i r i A.p J 6._.).).).6.pX).).pXsXhXJ 7.J jXW.5.uX_.pXpXJ 2.K ^.pX6.J uXS 6.pX).).).fX~.G D aXS J 6.5.6.6.J G 5.7.`.J 6.8.S ).6.6.).J (.D J 6.pX6.6.pXD F G 6.6.5.6.^.).).9.0X!.pX).5.J pXpX6.).`.aX^.H 2.C (.sXiXJ 6.J pX).).pXpX6.).].zXi.CXMXu.NXBXmXs.$.P.e A.A.G.A.G.V.n 6.H pXpX).).6.5.6.pX).).).pXpX7.pXpX6.6.).pX).).pXpXpXJ 6.6.pXpX6.J pXpX).pXJ J pXJ pX).pXpXpXpX6.pXpX).6.pXJ J pX).6.6.6.J pX6.pX`.).6.5.J 6.6.5.G J J ).pXpX1.h K ).sX$.P.(.).pXJ J J D G 5.D `.5.H 6.A J 6.(.pXJ ).).J J J J F e.1XNXu.y.",
"ZX1Xz.% r A.r i r J.'.).pX).).J 6.F 6.pX7.H aXrXJ uX).6.pXpXpXpXpXpXpX6.J 6.).).pX>.(.gX>.(.6.).pXJ J 6.D J pX).).aX).pX6.pXpXpX5.).7.5.C F pXsX`.).6.pXpXpXJ $.h ).).pX).).pXpX6.pXpXaX7.aXgXtX~.7.7.9.gX4.sXpX6.dXuX`.sXsXsXsXsXdXpXpX/.sX/.uXdXgXe.%.mXVXVXVXCX<Xh.r r w r F.V 6.).6.H ).6.J 6.pX`.).pX5.).sXpX6.).G 5.6.6.pXpX).).pX6.pX).5.).6.6.6.5.4.D 6.).uXpX).pXpXpX^.6.pXpX6.J pX6.J pX6.6.5.).`.).pXJ J pX).pX).pXJ ).6.).).).J ,.N N C 6.3.K (.pX).J pXpX).7.D 7.>.H 6.7./.pX6.pXpX6.J jXR.6.R.2.0.p.t.CXBX1X( @.* h h V.i A.G.w J.pX(.H 6.J ).pXpX).5.J G 6.pX`.pX).aX(._.6.6.J 9.#.n ).pXpX(.pXJ ).).pX).7.).).iX).6.6.K J 6.D ).6.`.).pXpXJ )./.sX6.pX).pXpX(.).J J 7.D ).sXsX1.z K pX/.^.J J 5.6.`.sXpX5.^.).J 7.J ).J pX`.e.@.Y.J D 6.J 6.).6.D J 6.6.J !.B e.BXqXu.BXNXBXBX1X}.$.% A.G.A.A.i V.Y.pXH 6.6.J 6.7.(.pX).pXpXpX6.pXpXJ pXpXpXpXpX).6.6.6.6.6.J J ).pXsX6.J ).sXD ).).pXpXJ 6.J pXpX6.pX).pXJ 6.).pX).pXpX6.).pX6.6.).pX).J aX/.).pXpXdX~.J J J 6.6.iX/.^.D 0.Q.).pXJ J ).pX).tXB 6.A F fXB pXE.!.pXJ J ).J ).).).).J J d.t.mXZXMX",
"u.1Xl.Z.r r i G.w L.`.).pX).).6.pX).J 6.dX`.).sX).).6.pXJ 6.6.5.D ).pXpXpX).pXV <.0X!.zX0X!.pX).pX).pXpX^.).pX6.2.J pXpX4.D pXsXiXJ 9.0.v L C H 6.pX).).pXpXJ 0Xz.).`.pX).).pXpXpX7.7.7.aXaX7.dXaXaX7.pXdXhXsXdXuXpXdXpXpXsXsXsXsXdXdX/.sXsXuX).iXxXMX%.VXVXVXVXZX<X% w w C.A.u q j 2.C H H ).).6.pX).6.pXsXJ 6.pXpX7.;.M J pX).pX).sX5.6.pX6.6.5.5.pXpX).pXsXpX3.F 6.pX6.pX).J pXsX8.K ).6.4.E.6.pX6.).).J pX5.).).pX).pX).pX).6.6.).).).q.:.N *.R.`.jX].).).).).pX).sXpX`.pXiX).pXpX6.pXpX6.6.6.pX).).~.^.`.jXmXVXVXCX/ ) f & ; L.V.G.A.G.C.a aX(.).J ).).6.J 6.pX6.D _.pXpXsX7.F (.pX).8.A dXwXW.F 5.7.H 6.(.J J J 5.pX6.5.J J pXsX).).7.).6.).).pX(.sXpXG G 6.6.J pXJ `.`.<.^.pXaX).).6.5.jXXX~.H J 8.3.D 6.J H 6.7.6.H ).pXuX).J J 6.J jXbX_.6.3.S 6.J 6.pX).J pXpX).C C 1.i.p.NXBXi.i.i.mX<.Q h.A.r A.A.G.V.n pX).6.J J 6.`.).pXpX6.J J pXpXpX).).6.J pX6.).6.6.6.J pXpX).pX6.7.6.).5.C /.).pX6.5.pX).J 6.).pXJ 6.7.J ).5.J pX6.6.pX).pXpX).7.C pX).J ).6.J 5.).pX6.J J 6.).).pX6.9.W.(.pXuXpX,. .l V ^.`.pXiXZ pX^.J ).).J ).J J J ).).).J J pXy.t.NXNXBX",
"NX<X; u A.i r i w n pX).6.J J 6.6.A J pX).sX`.6.).pXpXJ pX).pXsX`.pX6.6.6.J 7.Q.^.{.pX6.hX_.6.pX6.).G J ).J J aXQ.(.sXpXsX).J pXpX5.9.e.C m !.(.pX).pX).6.pXJ hXXX).pX).).).pXsXaXpXsXdXsX9.3.).aXaXdXdXdXaXdXsXdXsXdXaX(.sXsXdXsXuXsX`.sXhXsX`.`.zXMXeXMXBXVXVXDX3Xh.C.w w r r C.g h ].!.(.).pX).).6.pX).pXpX5.7.5.9.%.j ~.sX6.6.G 5.1.Z sXpX6.`.`.sXpX).6.J pXq.$.f M ).).pXpXpX(.jXP.F 7.^.pX6.5.6.).pX).7.uX).J pXpXpXpXpXpX6.J ).).).kXqX@.f V 6.).sX5.J ).6.J 6.6.).pX7.,.K 7.pX7.3.6.6.6.pX6.).).^.4.!.w.t.%.mXCX2X3Xz.k.z.- V.G.G.G.C.L.pX(.).).H 5.).pXuX6.pX{.pX5.J 6.dXsXH J 5.1.E.H pXsXsXpX`.).J J `.pX6.).6.).[.dXA H 7.J 6.4.J J J 5.J (.pX7.uXD ).).`.6.).(.aXuXD 6.8.C D 6.pX).J pX).(.sXiX`.6.J D J aX/.(.6.6.J 6.6.(.pXsX(.J 6.7.rX(.6.J 6.).J J 6.J aX).}.xXSXCXi.BXNXy.p.p.%.; h.i A.A.A.G.V.n 5.J J J ).J 6.6.).pXpXpXJ 6.6.pXpX6.pX).pXpX).pXpXpXpXJ ).6.J aX7.).J tXE.F pXpXaXpXJ 6.).pX).pXpX6.).pX).pX).pXpX).pX6.pXsX).w.@.j 6.6.G ).sX).pX).).`.6.S `.pX6.7.{.[.pX6.6.J kXrXbXn m 5.K pX(.5.J ).D C H ).pX).).).J ).pXJ D i.CXu.NXu.",
"u.^ z.j.r A.G.i w a 6.5.5.J J J 6.E.(.pX).).pXpX).6.pXpX).pX6.pXpXpXpX7.D ).`.sXpXJ sXsXpX6.pX6.).aX1.~.pX).pX).sX).pXpX).pX4.(.8.4.9.kX'.T.!.).pX6.).pXpX).pX).6.).).).).).).pXsXsX7.aXaXgXyXpXdXdXaXdX7.sXaXsXsXsXpXdX,.b 4.(.sXsXsXuX).sXsX{.{.zXy.#.NXBXVXVXZX<Xh.C.w w r w K.}.].[.`.).).pXpX6.J ^.sX6.pX7.J pXpXeXP.(.7.pXpX`.6.jX~.pXaXuXJ G 5.6.pXpXpXJ jXAXXXH.`.7.A J pXG V PXR.6.J J pX<.~.).6.6.).).pXJ J pXpXpX6.6.pX).).).).pXbXeXwXL.n 5.5.pXD F pX6.5.J 6.J gXtXB 6.J aXiX).6.pX6.6.J H uX~.5.9.mXi.NXBX3X3X,X* g z.V.i G.G.w n pXH J ).).).).pXpXaX!.).7.,.Z pX7.^.`.J pXuX`.J J J pXsX).7.J J J uX).pXsX(.5.8./.).sX`.sX`.pX`.).6.).J 6.pX).`.).).6.4._.J J sXsX8.e.h ~.).).sX).pXpXH 5.D 6.pXaXS J 8.(.J J uX).pX).J J 6.J J 6.^.`.).pX6.6.6.).6.5.J 5.Y.~.zXMXt.NXi.BXmXmXCX! ; B.G.i r A.G.V.Y.6.J ).).).5.J 6.).pXpX).pXpXpXJ pXpX).pXpX6.6.).6.pX).uX).sX6.6.uX).6.).sX(.pX6.pXpX`.`.pXJ ).6.pXpXpX).pX6.).).6.J pX).pXpX).w.zXb b `.uXD J pXpX).pX).iX'.J sXpX/.7.C ).7.).).).iXhXyXW.fXV L D C (.5.:.m !.J ).).J J J J J ).aXu.1XNXu.u.",
"a.<Xl.& r A.A.G.w Y.7.J pX).J 6.J (.J pXpXpX6.6.).pXpXpXpXpX).pXpXpXpXsX`.(.0.z J pXpX6.pXpXpXuX).aXyX).pX).pX).6.4.6.).).pXsXuX0.3.9.sX.X}.].G G ).).pX).).pXpX).0.A ).J ).pXpXpXaXaXpX7.sXaXaXaXaXaXaXfXsXaXpXsXaXpXdXd.j R.sXpXsXsXsXsXpX`.`.6.e.BXa.BXBXVXVXDX<X% u C.w r e L.sXJ G J J J pXJ pXpXG J pX5.pXuXJ ).`.`.5.6.).pXpXpXpXpXD pX7.pXpX6.).J pXpX6.G jXbXW.6.pXsXJ 5.pX^.6.pX).pX).pXiX`.J pXpXpX).pX6.J J 6.6.pX6.6.J J J 5.5.).yXIXI.W.>.R.sXaX(.7.pXfXD D 5.J uXuXsX5.6.6.6.pXJ 6.).6.H A 3.F 9.p.MXy.a.u.mX:X* g h e i i G.V.L.pXH ).H 6.6.J D 6.uXJ 5.5.jX!.pX`.`.).uX).uXpXpX6.J D J 6.dX(.D G G G 5.J 6.pXsXH J J G 6.6.6.pX6.).6.4.).).).6.D 5.).`.).pXG H tX0.fXW.V H ).7.J J aX).6.pXJ G sX).8.A H 6.J J 5.5.J J 6.5.J ).).J 5.J pXpX6.).4.N (.pXpXL L 9.y.t.BXNXi.i.CXZXVXz.B.G.H.r A.A.w B pX).).).pX).).).J 6.pXJ 6.pXpX).pXpXJ 6.pXpXD pXpXpX6.J pXpXpXpXJ pXpXJ J ).6.pXpX).).6.pXpX6.J J 6.pXJ J pX).6.6.J 5.J 6.pXpXkX9.1.L.^.6.uX_.pXpXpXJ J ).pXJ 6.).J 9.E.J sX).pXJ G J ).pXJ gXE.C E.v ,.<.}.).).J J J J ).).).(.9.u.CXt.NXBX",
"ZX<X- C.A.G.r i C.n 6.).).pXpXJ ).).).5.J 6.pXuX).pXpXpXpXpXpX).pX6.pXpXpX).gXyX~.6.6.pX).6.pX).6.pX).pXpXJ pXpXpXuX).).pX).J aXzXpX7.(.!.].pXq.~.).6.).).pX6.pXJ kXW.pXJ J pX6.6.6.pXaXsXaXaX6.aXaXdXaX2.2.pXaX7.6.6.7.eXXX~.aXsXpX).pXsXhXsX(.jXtXy.VXVXVXVXVXBX<Xj.G.w w A.e n 8.G `.(.).).6.J G J pX6.7.fXJ pX`.).pXpXpXpX6.5.pXpXpXaXJ 8.J pXpXpX6.J J 6.aX).J J 6.5.6.6.pXpX).pXpXpXpX).).6.).J ).6.pX).pXpX).J J 6.6.6.pXpXJ J pX6.(.).G iX/.dXyX4.z ).).pXJ 6.sXuXpXsX1.B 6.6.6.5.5.).aX6.J pXJ G pXF e.VXy.p.mXCXp.~ k.g P.V.a G.p C.R.J ).J G J ).aXS 6.J 6.pX`.`.^.^.J 5.6.5.5.G J pXsX6.D (.pX).aX>.S D J (.).pXD ).pXpX7.G J pXJ ).7.2.J _.pX6.5.5.J ).J G 5.5.6.G 8.jX{.!.^.J 5.).`.6.J 7.6.(.dX^.H 6.6.`.J J 5.6.8.S 7.K aXV H 6.).aX^.J 5.6.pXJ tXP.J ).6.J L 9.BXZXMXVXZXu.a.a.^ - B.i A.A.A.G.w Y.pX).).6.J ).6.J 6.6.J pXJ pXpX6.6.pX).).pXpXpXJ 7.J pX).6.6.5.D ).J pX6.J J 6.J pX5.5.J pXpXpXpX).pXpX6.>.K J pX).pXpX).J 6.6.dXnXXX].6.pXA J J ).pXpXD D 6.).).sXpXsXiX).).6.6.6.3.~.).7.J J gX'.7.G /.E.M J 6.J ).).).).J J 5.9.NXa.mXu.BX",
"i.1Xl.e r G.A.i C.B J ).6.J 6.D D H pX6.(.pXJ pX6.J pX).pXpXpXJ 6.pXpX).pXpX).pXpX6.).pX7.D ).pX).).pX6.pXpXJ pX5.J pXJ ).pX).aXzXsX7.F m H 6.hX`.6.pXJ J 6.pXpX6.`.^.6.pXJ 6.pXpXaX<.J aX7.8.7.>.6.aXgXq.V R.aXfXuXdX).[.[.aXsXsXhX).uXsX).sXuX].lXMXBXBXVXBXBXu.^ k.C.w w w e g <.R.(.).).J pXpXfXS ).sXpX).dXD pXpX`.pXpXpXsXpX6.J 6.6.<.'.sX6.pX6.pXpXJ J pXpXpXJ pX).pX).pXpX).pXpX6.pX).6.).pXpX).pX).pX6.pXpXJ ).pXpXJ 6.6.pX).).`.).6.sXJ J 9.N uXQ.H S 6.4.H 6.J J 6.hX[.6.6.pX6.uX>.N 6.3.C ).H 4.J e.VXmXVXCXa.( <X* g g V.G.G.L.u D J J J J Z 5.pX^.).sX`.).6.6.D G J pXpX).pXuX(.pX5.4.(.).6.).dXbX{.`.^.).5.7.^.pXJ 6.pXpXH ).pX).q.$.!.pX7.pX6.).`.).pXpX).).pX6.J J uXpXJ pX(.6.D 6.J pX`.J 5.pX(.7.).5.5.5.5.G ).(.pX4.F `.).J J ).).J pXJ J pXpX).6.).).`.~.aXSXCXBXBXt.BXBX( :Xz.y A.r r A.G.C.n 6.).pX).).5.J pXJ ).pXpXJ J 6.pX).pXpXJ 6.6.pXpXpX).pXpX6.6.fX(.J ).pXpX).).sXJ 5.7.H J 6.6.).pXpX6.6.6.rX/.!.jXpXJ ).pXpX6.pXJ `.).5.).pXuXJ ).J 6.6.pXJ 6.J J 5.6.J 6.pX6.pXJ sX{.(.6.6._.uXsX`.dXdXC ,.[ M pXJ ).J J ).).J ).gXNXa.u.mXVX",
"t.t.- Z.A.r A.G.w Y.).J 6.).pX`.`.J J pXH pXpX6.pX).pXpX).).pX).pXpXpX).pXpX6.6.).`.).6.aX^.).pX).J pXpX).pX6.J fXV pX^.).pXpX6.jXw.0.Z m v F ).J pX6.6.J J 6.6.J J 5.J pX).pX7.3.aXiXpX7.gXiXaXyX^.aX8.jXcXsXsXsXdXpX`.pXpXpXpXuX).sX).6.).^.hX].qXlXVXBXBXVXNXZX<X% w w w w w F.{.uXH 6.).).).J aX^.).6.pX6.pXpXpX`.6.pX6.6.6.pXpX4.D pXiX).6.pXpXpXpX).`.pX6.).pX`.pXpXpX).).pXpX5.J pXJ 6.pX).6.).).pXpX6.pXpXpX).J 5.pXpXpX).J ).J ).pXpXJ ).).fXQ.4.V `.(.pXiXJ J 6.J pX6.6.aX4.7.).).tXE.).gXQ.H J J 8.q.VXmXVXZXmX) ) * - l.V.i G.A.w B J J J ).J ).6.5.G J pXJ ).pX).4.H pXJ 5.6.).).pXsXsX6.F 5.3.G J ).pX6.6.6.).J J sXpXJ pXJ G 5.J gXyXZ 5.pXJ sX`.pX6.6.6.5.J 7.6.(.pXD 6.^.pX6.).).pXpX).pXpXJ ^.8.K J 7.D ).dX^.J J J 7.D D D ).).6.J J J 6.J J ).).J J ).(.~.dXd.mXBXMXy.SXa.( ~ : B.i A.A.A.A.C.n pXJ J pX6.pX(.pX).J pXpXpXJ pX).6.6.6.pXpXpXpX6.A J pXpX6.pXpXpX^.).6.pX).6.5.pXpX`.`.).6.).).6.pXpXsXpX(.aXK 3.aXpX6.D ).pXpXpXpX6.).).6.6.).).6.6.).pX).).6.pXpX).pX6.D ).aX).).5.5.6.J F J pXJ ).zX(.q.$.L.D ).J J J J J ).~.9.MXCXi.BXi.",
"mX^ l.% i r i i C.R.pXJ J J J ).).).(.pXpXpXpXpX6.6.J pX).pXJ 6.J 6.7.A ).pXpX).pX6.6.pX6.).6.).pX).).pXpXpXpX).sXpX).).pX).pXpXw.w.pX]._.E.~.J J J pXpX).6.6.J J 6.pX).J ).0.:.d ~.aXaXdXsXaXpXdX7.aXsXpXaXsXpX7.7.`.pXsX).sXsXsX`.).9.V _.`.).R.qXnXmXBXMXBXmXZX<Xh.C.C.w r e J.5.).).J H ).6.).8.S 6.).pXpXpX6.5.G pXpXpXpX).pX6.uX`.pX5.5.).pX).pXpX).J 6.pXJ 6.).pX).).).6.6.6.pX).pX6.(.pX6.pX).6.J 6.pX6.pX).6.pX).6.6.J pX).).).J J pX).J 6.6.5.dX/.6.5.G 6.pX).).6.J 6.2.J fX^.pX6.pXpXpXJ pXpX).7.6.zXCXBXBXa.BX) W k.l.- V.G.A.i w R.6.H ).(.).J 8.S 6.H pX).6.uXaXD (.6.6.6.^.J G 5.D pXuXpX8.^.^.^.).6.pXpX).J 6.(.7.7.).pX1.K ).pXJ `.`.J 7.5.Z 6.5.6.J ).sX`.pXpXJ 6.(.pX(.).`.pX5.6.).).6.pX).5.pX/.J ).sX6.6.6.H ).7.A _.).uXJ J pX).pX3.C ).).6.J pX(.J '.'.gXSXmXBXMXMXNXs.1X:X- B.i A.A.A.r C.R.5.J J 7.J ).).pXpX).).pXaXD (.pXpXpXpXpXpX7.J aXuXH 6.6.pXJ dX_.pXpXpX6.J 7.D ).pX6.J 6.).).).6.5.J 6.pXpXaXuXG 5.6.sXsX).pXpXpX8.3.(.7.6.`.6.J J `.pXuXpX8.A J sXJ 6.pX4.(.sX).6.).`.sXsX1.B 6.).pXjXpXtXI.].pXJ J J J J J H 6.9.s.a.MXNXMX",
"s.<Xz.& r G.G.i G.~.6.pXJ ).).J ).).).J ).pXpXpXsX).`.6.6.).1.M ).pXaX/.).pX6.D 6.pX6.J pXuX).).).pXJ ).pXpXpX5.G ).).).pXpX).pXzXzX{.].].].`.).pX`.^.pXJ 6.J 6.).).`.pX_.tX$.zXB R.dXaXpXpXdX7.aXdXsXaXpX4.2.7.8.).pXaX).sXpXpXpX).sXhXQ.`.).`.Y.eXeXmXBXBXNXBXDX<X% r C.C.r F.T.).).).).(.).pX).sX`.6.6.G 5.6.sXpXD J 6.6.pXpXaXaXJ ).7.7.(.pXJ pX6.6.6.6.J 6.).).).pXpX6.J 6.pXpX).6.5.).pX6.).pXJ pXpX6.6.6.).pXpX).pXpXpXpXJ ).6.5.J J J J 6.).pXpX).6.pX6.).5.G pXpX6.J 9.rX!.aX6.pX<.A pX6.6.J J 4.uXaXe.i.mXu.mXNX2X; * P.L.e G.A.i V.R.6.H (.J J 5./.`.).^.pX).).6.aX^.J 6.D ^.pX6.6.iXD J 6.6.^.`.6.J 7.5.D pX`.fX(.6.pX).pX).hX/.).pX`.6.G pXaXdXS A pXpX6.G D 6.6.pX`.sX(.J ).6.5.7.J H pX5.6.pX).uX`.pXsX).6.pXpXuXH ).sXrXS ,.z D D ).6.).tXR.J D 6.J J pXJ m iXgXSXmXa.u.y.NXVX2X<Xl.y w w A.A.G.w B 6.(.6.6.(.).).6.pX).6.6.pXsX).6.J pXpXpX6.aXJ pXsXJ J pXpX).).).pXpXpXpXpXpXsX).6.).pXpXD 8.F 6.sX5.D ).pX).pXdX3.~.pXpXpX6.6.pXrX'.pX6.^.6.pXpX6.G J 4.pXsX`.).pX6.J 6.`.(.pXpX^.pXJ 5.5.`.`.^.).W.0XzX].!.5.6.J J ).J J J J ^.zXVXCXi.NXlX",
"VX<X; j.r i i G.i Z 6.).`.J J ).J J J J J 6.).).sX).J 6.pXJ lXB Z 6.6.6.J ).pX).).pXpX).J ).pXpX).J ).pX6.pXpXgXE.).J G J 6.).7.w.0.!.T._.).pXpXpX).pX6.).pXpX).).).).pXJ uXyXnXXXR.aXaXaXpX9.>.C aXaXaXsX1.d z K ).pXsX[.pXsXsXsX`.`.`.).`.sX`.T.kXi.eXMXu.MXBXSX<X% A.C.C.A.u R.pX).).J J J 6.5.J ).sXpXpX^.).5.6.sX6.6.J J 5.6.7.~.pXpXsX).pX,.L sX).pXpXpX).).).pXpXpXpXpX8.D ).pXpXpX).pXpX).6.).).).pXpX).).pX).).6.pXpXpX).).7.).pX6.6.J J ).6.J 6.).J pXpX9.S 5.5.C J pXhXJ 6.6.D gXV J 6.6.6.6.D (.gXlXSXmXZXNXmX2X,Xh.f g V.i A.A.u J pXH F ).7.D H 6.).J J J J pXpXpXH pX`.J 6.5.(.J aXD D ).J G pXJ pX`.`.).6.pXJ J pX6.).).).pXpX).J aX(.J pXsX`.J 6.D pXpX(.6.).sX^.6.7.D 5.J pX(.pX).6.pX).).).pX).6.J pXJ pXD ).pXG 2.D pXxXQ._.`.J J 5.`.`.6.J ).).6.].yXS B w.zXmXmXNXNXy.i.a.<Xl.y G.C.C.A.i w B pX(.pX`.).J 6.J ).6.6.6.J ).sXpX6.).pX6.6.pX).J pX).pXpXpX7.C G G 6.6.pX6.J pXpXpX6.G 8.D sX1.N F iX^.J 6.,.b S hXJ 6.).pXpX).7.`.`.pXpXJ J 6.).pX`.J 5.H 5.5.J 6.pX^.).).6.J pX6.6.pXD ).J D J J M *.dX_.F J 6.).J J ).).J !./.gXi.CXMXNXp.",
"t.t.; h.A.A.G.A.F.~.).J 6.).J J J J J J ).).).pX6.6.5.J 6.J dXQ.).pXpX).pXJ ).pX).pXpXpX).).pXpXpX).J pXpXpXpXpXJ 6.aXE.).).pX<.w.sX!.T.).J J pXpXG ).sX).pXsX`.`.).pX).pXJ 5.iXjXE.6.aX7.6.dXjX0XA aXsXpXgXyXP.].).).).6.pX`.sXsXdX^.).`.`.sX_.Y.%.lXlXi.i.MXNXSX^ k.A.C.C.A.e n 6.F 5.6.D H ).pX^.J 6.`.sXsXpX1.R.pXpXsXuXpX).).sX`.7.6.5.).9.;.m J pX6.J ).).J 6.6.6.6.J 6.rX`.pXpXpXpX).).pXJ 6.J J G ).pXsXJ J pXpX6.6.J ).sX7.J J 5.).).).).6.6.6.J 6.J 5.5.uXpX5.9.S F 6.2.S 6.6.6.gX'.).pX6.6.5.`.`.gXzXBXCXCXi.u.2X,Xj.; J.A.G.A.G.w g pXJ J F 6._.(.).pXJ 5.J D ).sX4.K J 6.5.pX).).J pXdX^.(.).).).^.pX6.J ).6.6.6.D J 7.G 5.J 6.5.5.J sXpX5.5.5.5.J ).uXJ `.pXpX_.6.5.5.`.7.D D 6.6.G J ).).6.H 6.6.6.sX6.6.5.G uXD ).dXrXB J H A 5.).pX3.^.6.6.pX).J ).).T./.vX^.gXlXs.NXNXZXVXmX1X) - B.i A.A.r G.V.n ).).J J 6.J pX).J 6.).pXpXJ 6.pXsXpXpXpXpXJ 6.J J 6.6.5.5.aXyX_.J J pXpX6.<.V 6.6.pXuXuX`.).dXQ.!.pX6.pX,.Q.U.R.pXpXpX).6.).pX`.).6.6.pX).).pXpX6.J J iX`.pX/.sXJ ^.).).pXpX6.G ).).pX`.pX).`.).uX`.`.pX-.L H 6.).).).J J ).H C 8.ZXmXi.CXBX",
"a.t.z.% A.A.A.r u Z pX).pXJ ).pXJ J J J J ).6.6.6.pXpXD J ).).5.6.6.pXpX).).pX6.J 6.6.6.J J 6.6.).).).).pX6.pX7.>.Z ).`.pX).).gXzXpX!.!.pXpXpX).pXuX(.pXpXpX).).J pX).6.J ).).pXpXpX7.7.aXpX7.7.gX`.pX`.9.5.6.hXhXsX`.dX`.).`.`.sXsXsX(.8.K `.`.Z kXxXMXBXBXd.i.d.) k.A.C.C.A.e a aX6.!.sX`.(.J 6.pX`.).J 7.5.5.iX^.pXsXpXpXpX6.5.J pXpX6.6.H lXV T.`.6.).).).pXpX6.pXpXpX).).).).pXpXpXpX).).pXuX6.J gXh Z pXpXpXJ J pXaXsXpX5.C 6.J J ).J 6.J J J pX^.uX).6.7.`.6.6.6.pXsX).6.hX^.6.7.D sX`.pXpXpX7.A !.aXzXe.i.s.NXCXBX2X<X& z.- V.G.A.G.V.a 8.(.).).).).H J pXpX6.J _.).pXtXN F J `.`.pX6.5.3.G ).8.*.F ).5.D ).`.).pXuXpX1.M 8.~.).J 6.sXaXK G 7.).4.).uXD G J 4.S pX`.6.7.6.(.8.<.!.<.Z sX`.(.6.6.).).J 8.(.6.).sXsX^.^.fXS ).[.^.).1.$.Z J 7.<.H 6.J J 6.(.J H Y.`.2.3.5.y.mXu.i.MXNXt.( ! j.e i r r A.A.C.R.6.H pXJ 6.).).).pXpX).sXpXpXJ J 5.6.pXpXsXpXsX`.pX).pXaX^.).sX1.N (.J sXsXiX`.).pXpX6.J 6.C G ).pXpX).7.jX}.`.6.J pX).6.6.).pX6.6.pXpXpX6.J 6.6.uX).).J ).).7.6.sX).5.J 6.6.pX`.(.pX6.J pXJ G 4.(.pXJ gXtXN M H J J ).).J )._.hXaXNXZXNXBXmX",
"ZXZX0X% A.i A.G.w n pXJ pX).J pX).J J ).).).pXpXpXpXsX1.B J 6.J pXpX).6.6.).pXpXpXpXpX).pXpXpX).pX6.J 7.G pX7.pXyX`.pX5.6.).).9.zXsX].!.pXpXpXpXpX`.pXJ 6.pX).pXpXJ ).sX).).).pX6.6.pX7.aXdXuXdXsXpXaXA 9.pXpX).sXsX0.N `.`.`.6.).pXpX`.gXQ.H ^.!.jXSXNXBXNXi.y.u.^ h.C.C.C.A.C.g -.~.J J J (.pX).J ).6.6.6.pX6.5.D ).pXpX8.*.*.L (.J pXsXsXJ zXkXp 7.J ).pXpXJ 6.pXpXpXpX).pX).6.6.6.).pXpX6.6.5.pX).pX X_.J pXpXpX5.G 6.pX6.gX[.(.sX4.G J pXJ J J 5.J 6.J 7.J 6.6.pXpX6.J ).J J 7.5.D pXJ 6.6.pXpXpXsXK G 9.lXNXmXNXt.MX1X3Xl.; j.V.i A.G.V.L.`.(.).(.6.H ).J 5.8.D /.H 7.J gXyX!._.).6.5.8.D rXR.).gX0X'.).sXuXD 2.J J pX7.dX{.`.`.pX)._.pXsXsX8.H ).6.(.6.pX_.`.sX^.6.J 5.).).pXuXQ.~.hX`.J pX6.J ).7.H 7.uXJ 6.5.G pX/.J sXuXJ J 6.J gX XJ 6.6.^.pX).pXpX).).).4.j z 0.~.7.SXmXmXBXBXs.mX( :Xj.V.G.r r r G.w n pX(.pX).).).).).pXpX).pXpXJ pXJ pXJ pXpXsXJ pX6.uX).pXpX).pX5.gXQ.pX).J pX).).pX6.pX6.).dX$.M ).J 6.pXsXpX6.6.uX(.6.J pXpXJ J pXJ J pXpXsX).6.`.pXpX).pXJ 5.).).).pXpXJ J pX).D (.pXpXpXH aX<.`.G 5.J D jXnXW.Z 6.J J J J H ~.J gXMXa.i.i.t.",
"mXmX;X% A.A.A.G.C.m 2.H ).pXJ J ).pXJ J H J 6.J 6.).6.dXQ.).pXJ 6.pX6.5.).D 5.pXpX6.J ).pX).pXpX).uX).fXE.6.uX`.J 6.pXpXpX).pX9.gX`.T.).pXpX).).pXpXpXpX).).pX6.).pX).6.pX).pX6.6.6.pXsXaXaXaXaXsX7.pXrXaXsX).6.J pXjX}.`.`.sXsXuX:.h ).`.[.`._.~.9.d.mXNXBXmXy.s.<Xh.C.C.C.r F.Q.W.!.`.).J (.pX9.N H pXpXpXpX(.`.).5.J ).e.;.Y.].6.J 5.pX7.3.pXwXT.pXpXJ J 6.5.6.J 6.).pXpXJ 6.6.pX).).6.6.pXpXpX).pX).J 6.J 6.pX6.7.J J 0.2.Z aX^.`.fX`.).6.6.J 6.).J 6.6.pXpXD 6.8.C 7.).6.7.5.5.pX).G 6.pXpXpXaXpXpXH J 9.w.p.i.a.mXi./ 1X0X- l.t G.r G.V.Y.aXH ).J pXJ F 5.6.sX`.J J pX).sXhXJ H 5.5.7./.{.`.pX6.).).J J 6.).9.<.Z pX8.5.(.pX).pX).).5.J 6.8.^.`.pXpX).6.).).J J 7.3.7.D H 5.6.^.J J 5.6.J J ).).J 7.D J 7.D J dX).J ).pXJ 7.(.J J pX(.J 7.D pXH J J J J J J 5.6.!.V '.4.7.y.i.y.BXa.MXBX2X:Xj.V.i A.r G.A.C.Y.J J ).).).).).pX6.6.J 6.pXpX6.).pXpX6.).pXaXJ pXJ 6.6.J pX6.pX).6.pXpXpXJ pXJ J 6.pX).).pXcX{.).pXJ 5.5.pX6.).).sXpX).6.6.pXpX6.pXJ D 5.J 7.V (.pX).pXpXpX).).pXpX).pXuX).6.6.^.D 7.5.6.D J ).J $.n pX^.rX/.{.J ).J J J J H H 5.6.MX1XBXBXmX",
"t.VX;XZ.p i A.i C.a _.(.J pXpXJ J J 6.(.).J pX).pX6.pX6.(.).pXpX).).aXD pX%.b H pXpX).D pX6.).sXpXpXpX).sX).J 6.pX).).pXpX).pXgXdX`.!.).6.J pX).pXpXJ pX).pXpXpXJ ).pXD ).pX6.pXpX6.pXaX7.pXaXaXaXaX).4.aXsXpXsX).).`.sXpX6.).pXgXwXXX).`.).pX_.'.w.SXi.BXNXNXu.u.<Xh.r C.C.w J.{._.).J 6.J H 5.gXQ.(.6.pXpXuXpXG 7.`.).6.jXwX].sXdX`.pX5.gXE.H pXpX6.pXsXJ 9.A _.pX).).pX6.6.J pX6.).6.pX).pX).pX6.J pXpXJ 5.J 6.pXsX`.`.w.Z !.pX_.6.pXpXpX`.sX).).).6.6.6.).uXsXpXzXV ~.6.5.pX8.G F 6.<.M 6.6.6.pXpX6.G H w.e.i.BXa.mXBXa.CX0Xl.& C.G.G.A.C.R.pX(.).J G 6.(.).).).).pXJ 5.J 6.8.^.).5.J `.`.6.5.pX0.N ).).).).pXsX{.J 6.aX`.J 5.D (.6.3.G J 5.pXD 5.5.G J 6.).).6.J pXrXuX`.).5.J <.S pX/.`.6.6.A H pX7.J *.N `.pX).pX).J 7.6.J J J 6.J J J pX4.D ).J 6.).).J 6.D pXK Y.gX5.4.s.BXi.i.CXMXi.1X:Xj.e G.A.A.A.r C.Y.).).J J pX(.).pXpXpX).pX6.6.pX).pX).pX(.6.sXpX6.pX6.6.J 6.pX).6.).pX).sX5.>.A pXpX).pXJ ).J 5.6.6.pXuX).6.6.(.uXJ sXpXpX6.J ).pXsXsX).pXJ pX/.J 7.).).).).pX5.G ).pXpX6.J 7.E.pX6.).uXpX`.uXD ).yX'.J J 6.J J ).J ).).J ).J H 6.7.y.1XVXi.ZX",
"mXMX%.e H.G.i i r F.).).(.).pX).J 6.J ).J ).pX).pXpX6.pX).J 7.J J J pXpX6.xXU.n 6.).pX4.J pX0.N ).pXpXpX`.1.z m sXpXD J pX).aX9.aX_.!.6.pX).pXpXJ J ).).pXpX6.J pX6.6.J J pXpXpXsXsX).gX^.pXaXaXsXaX7.aXdXpXpXpX).pXpXsX7.).).).sX'.).).).4.!.W.jXzXlXt.BXNXNXNXNX^ h.A.C.A.V.g 5.).G J ).).J J [.sX6.J 6.6.6.6.`.`.pX6.pX).6.J ).6.pX7.7.J 9.V (.pXpX7.5.5.6.^.J 6.6.J 6.pXpXpX5.J ).J J 5.pXpX6.pXJ 6.6.6.J J J ).).6.6.,.W._.sXpX5.J ^.`.sXpXpXJ 5.6.J pX5.G 6.7.pX XJ 2.H pXdXsXJ G dXQ.D 6.J pX6.pX).G 9.lXMXNXmXmXBXCXt.0Xl.l.V.G.i r u (.).J J 6.J _.).J G J J 6.pXpX).6.`.).pXuX_.(.6.pX`.).kXE.F (.pX7.G H 7.pX).pX`.6.`.).G pXsX).J pX).sX`.pX1.N (.J 5.6.5.C J ).6.7.uX_.pX3.H pX6.sX`.dXS 7.6.:.f T.D 6.6.J 6.5.pX^.pXJ ).pX).).).J pX(.J pX6.).J 5.J J 3.H M 1.).,.i.SXBXNXu.BXNXCX,Xl.e G.i r A.r C.R.J ).J J ).`.J J pXsXsXaX6.6.J ).5.7.J pX7.5.7.J 6.pX).).pXpX).pXpX6.J aXe.#.h M 2.J J uXJ 6.5.J ).6.pXpXpXpXJ 7.J J 6.J pX).J J 6.pX).pX^.pX).pXpX(.).pX5.6.fX(.6.J 6.pXpXuX^.pXpXpXJ sX(.6.`.H J 6.).).^.`.).J J J ).).J J H (.dXMXCXt.i.mX",
"ZXmXQ h.A.i G.G.C.L.aX).).7.J 6.).sX).J J J ).pXpXpXpX^.).pXpXpX6.J 6.pXpXJ hX`.6.6.6.uX).J lXY.Z ).6.J ,.:.N a ).sXsXD A 6.0.7.pXZ Z pX).pX).pXpX).J 6.6.6.6.).pXpXsX).pX6.D 6.6.pXaXsXaX7.6.aXpX9.A J 7.aX).`.pX).).sXaX(.7.D ).pX`.).uXiX!.M 0.w.y.t.BXNXNXNXu.^ h.C.C.C.V.g v -.N !.pX).).(.).6.pX6.).pXpXaX>.H 7.6.5.7.<.!.pXpX).sXdXuXiX{.).6.6.dXuX_.q.@.Z J pX6.D pXpXpXpX).pXpX6.J ).pXpXpX6.J pXpX7.D ).).J pXpXkXR.6.5.6.pX).J J 7.5.6.pX`.sXJ pX6.J 5.aX).J e.M !.aXpXaXpXH pX`.uXpX8.*.>.C `.dXgXlXSXCXi.t.NX1Xr.d z.l.e i i r w B 5.J J 7.A F 6.J ).(.J 5.G ).pXuX_.6.).).pX5.5.J 6.5.pXpX'.).J sX`.J D pXJ pX`.`.).pX).D 5.3.J pXJ D 6.5.jXXX(.7.J pXdX).J J 6.).uX3.;.b Z 2.G H 5.3.~.pXpXtXXX{.(.6.6.J pX).pXpX6.).J 5.3.H pX).7.(.).6.pXJ 6.pX).).sXJ R.yXpXkXMXBXMXmXBXBXu.ZXVXz.y G.A.A.r A.w Z ).).).).J J ).).).7.3.J sXpX).5.6.pX).5.J pXuXpXpX).).pXpX).).pXpXpXpXpXxXIXU.n >.M D D pX).uX).J 6.).).6.6.6.J ).pXpX).pX5.J J 6.pX6.(.6.J pX6.(.).pXpX6.J sX(.aX).4.S ).).6.J 7.6.).pX).`.`.`.).pXJ J 7.C D ).4.S J J J J J F 6.lX1XBXBXp.",
"NXmX:Xh.G.H.A.r J.pXJ ).J 6.J J G 6.).J J 6.D J 6.).).pX).6.J pXuX`.pXpXpX).).6.pXpX).pXpX6.[.hX).J pX6.qXU.|.].pX6.sXpX~.7.9.).gXK L D J pX).pXpXpXpXpX6.6.3.S 6.).).).pXpXuXpXpX8.D aX7.pXuX7.7.dXyXpXpXsX).6.pX).).7.fXJ 6.^._.pX).).`.sX`.H ).zXp.i.NXBXNXBXZX3Xh.C.C.w i a P.yXW.F J ).).(.6.pX6.pXJ 5.G uX0XB 7.).sXpX[.).7.5.6.6.pXpX).5.pXpX6.5.pXJ gX|.'.7.>.^.pXJ pXpXpXJ 6.pXpX).).pXpX6.`.).pX6.pX~.6.6.5.G 5.`.`.pXpX^.pX(.sXJ 8.D ).`.pXpXpX5.pXJ 6.J pXaXjXXXJ 8.J pXsX).J 5.3.).tXQ.kXP.D pXgXq.SXCXu.t.i.1X3X- - - t i r r H.^.6.).).pXiXH 5.D F J ).pX`.J D ).pX5.J 5.D pX).6.6.J pX_.J 6.).).7.D D D 6.J J 6.6.6.6.7.uXsXH pX6.J 6.aXH ).0.M (.6.pXaXJ J pXJ (.lXe.L.V /.pX5.6./.uXA 8.Z 5.(.pX6.6.J J pXJ 7.D (.pXpXuXS G 5.6.G G 6.J J ).).).2.*.).Y.9.7.zXSXBXy.u.MXBXu.CXt.- Z.i G.A.A.G.C.R.J J ).).pX(.(.J aX8.uXJ ).aX3.J ).sXpXsX).J pXpXpX/.pXpXpXpXJ J pX5.).pXsXjXjXW.jXW.J H G pX).pXpX(.sXpX6.J pX).).6.pXpXpXsX6.J J pXpXJ 6.D J pX).J 5.5.aXD ).6.pX).`.fXK 6.6.).pX).6.).).J J 6.6.).,.b ~.rX~.).`.`.).).J J _.].sXlXZXMXmXmX",
"mXu.qXh.i G.i r a pX).pX6.).).pXA H pXJ J J pX).pXJ pX).pXpXpX).).).6.pX).).pXpX4.J ).pX).`.0.z ).6.pX).[.{.^.6.pXpX).sXpX9.6.pXpXhX!.^.^.).).pXpXpXpXpXpX).`.).).pXJ pXpX).pXpXpXdX^.6.sXsXaXaXpXpX7.aXsX7.5.6.6.).J 7.sXsXpX(.).).).`.).).6.(.`.kXy.BXBXNXBXVXZX<Xh.C.C.C.i F.R.dXhX^.(.J ).J J pXpXpXpX`.`.J 7.<.!.pXpXpX5.J 6.uX).pXpX6.).pX).pXaXpX).pX(.J 6.gXMXm 6.H 6.6.5.).).6.6.).6.pX).`.pX6.5.6._.).pXpXaXpXH J 6.6.^.6.).pX6.pXsXuXJ J 6.7.5.7.J ).).6.5.6.`.5.8.D ).6.pXpXpXaXE.(.pXpXjXQ.D [.kXtXy.p.t.i.NXCXAX;X; l.V.G.i A.a 6.).J 6.J 5.).).uXH H ).6.6.).6.H 6.aXD (.pXpXpXpXsXJ (.7.D J 6.J sX`.4.(.6.(.pXJ 8.D pX`.`.pXuX5.6.H 5.).sX6.kXT.(.7.J pXsX).6.6.H gXwXQ.Q.~.aXsX(.5.6.pXpX~.dXS 6.pXpXpX).6.6.pX`.D J pX8.*.B J pX<.Z 6.6.J ).6.7.#.h (.m <.uXtXBXu.NXu.MXu.mXNXa.- e G.G.r G.A.G.^.).).).J ).).5.G 7.fX^.6.J 7.^.pXH ).sXsXsX7.A J ).6.6.pX).sXsX).pX).J 6.).gXQ./.hX'.iX<.z Z 5.6.pX).).pXpX).pX).6.6.J pXpXJ aX).).).pXpX1.B ).J pXpX4.J pX/.J pXJ 5.>.`.uXH pX).J 6.pXJ pXpXJ 4.J J kXW.!.pXuX).8.2 M pX).(.].(.6.e.p.u.i.VX",
"mXZX$.Z.G.G.G.A.J.pX).6.).).J ,.h Z pX`.).J ).6.6.).pX).6.J 6.pXpX).6.pX5.C pX7.uX).pXpX).5.kXP.uXpX).pX).J 6.J pXpX5.D pX9.C J (.~.hX).).).pX5.6.5.J ).pX).).).).aXJ J ).pXpX6.6.6.pXpX6.7.aXaXpXaXpXaXpXsXpXpX).9.N pXpXsX[._.pX^.).).).7.`._.6.r.e.lXNXNXBXmXZX<Xh.C.C.C.C.a b F J J (.).J J ).6.).pXpX).pXpXpXiX).6.7.5.).pXD ).pX6.6.pXD J 5.6.6.pXJ ).J 6.6.6.nXW.(.pX6.pXpXD D pX6.J J 6.7.*.x -.C (.).2.C 8.F uX).).pX`.6.6.).pXpX6.J 7.).J 7.7.7.5.J (.pXpXpX`.aXuX/.`.6.J pX3.J ).sX).pXJ J aX_.A zXe.y.MXVXBXMXCXu.%.- L.V.G.G.A.u B 6.J J 6.J _.pXpX`.(.D pX).pXpX6.G J `.J 5.).pX).).sXJ aX(.6.J `.6.6._.pXpXJ 6.6.uX(.J J 6.5.7.5.).).).).J 7.{.).2.A H ).pXpXpX).J 6.G ).`.7.G 8.^.sX`.pXuXJ ).`.6.J 6.6.J 6.).J 6.D J (.e.0X'.sXJ iX`.J pX).pX).aXwXXX(.!.S fX1.SXZXi.NXBXi.NXs.CXl.w A.r G.G.r w R.).(.).).).6.6.).J pXaXpX6.).pXpX(.J 6.pXpXdX/.).pX5.).pX6.5.).pXpXpXJ ).pX6.6.J pXpXsXyXyX(.6.).).).).pX).6.6.6.pX6.6.5.6.6.uX).pX(.6.6.fX'.6.).pX6.`.`.pX6.6.pX<.V 0XZ pX_.sX6.J D ).J J pXpXuX).pXdXQ.J ).J (.%.e.s ~.).~.Z J 4.%.p.u.mXNX",
"NXt.Q e i A.G.A.a 6.).pX).).pXyX{.>.K A J ).J 6.).).pX6.6.).).6.J pXpX).tXh J pX).6.).).pX6._.sX7.pX).).).).pX).).aXrX^.aXgXsX!.dX'.H pXJ 6.6.6.6.iX(.6.).pXJ ).pXpXpX).pX6.).sXsXpXpXsXpXpXaXaXaXaXpXaXpXpXpXsX).tXQ.).pXJ ).).).).J ).<.E.(.(.yXVX0XqXZXBXBXNXNX2Xj.e C.C.V.L.Q.~.G (.H J `.).J pXJ 6.).pX7.5.J 6.6.pXpX).J pXsX).6.pXpXpXsX6.5.G 6.pX).pX).).sXpX^.hX6.6.6.J sXiX`.J 6.6.G 6.fXq.Y.`._.Z aXkXm 6.(.H ).pX6.J sX).`.aXpX).pXpXD J pX7.uXpXJ H 6.pXpX6.5.pX7.A 6.J 3.fX_.6.5.5.J aXJ pXpX~.1.MXxXDXt.BXy.CXs.~ l.J.w i i G.e L.pX).).pX_.H 6.6.J J (.pX).).).aXD ~.).aX^.).J 6.J J pXpXD 5.(.6.pX`.J 5.).pX).).`.aXH ).6.7.5.).J ).6.6.pX^.pX6.uX_.J J pX5.6.pXJ ).sXJ 6.pX7.J ^.6.5.5.J `.pX8.D pX5.J J pXJ J pX).).5.dX].5.).uXJ 6.).).J J J pX).7.Y.Q.<.4.9.d.a.t.y.NXi.NXmXa.l.V.i G.r r A.G.~.).).J J ).pX).).).6.pX).pXpX5.).J 6.6.J pXpXpXpX6.sX3.A pXpXJ pX6.).pXpX6.pXpX9.f Z ).pX6.pXJ J pX).).pX6.6.6.).pXpXpXdX).7.G D ).pX6.6.6.6.S J 6.pXJ J pX`.pX).hX[.pXpXG 3.C uXE.pX).uXJ J J 5.J J ).J ).6.;.2 :.zXL.n pXS ~.(.7.SXCXBXNXu.",
"a.t.0XZ.G.A.G.A.p J J J ).).pX(.e.N T.rX~.pXpXJ J ).pX6.J 6.4.J pX6.6.5.).sX).).pXJ J ).sX`.7.5.pX).pXJ 6.pX).).).pX).pXpXdXfXZ _.`.pX5.5.J pXpX).pXsX`.pXsX).J 6.6.J 6.6.J 6.5.C J pX8.A pXpXaXpXaXsXaXaXpXpX).pX`.`.uX7./.).J 8.K _.pX/._.`.'.].qXlXq.ZXBXNXNXNX/ j.V.C.C.Z.g (.dX<.Z ).(.J ).pX7.J ).6.6.sXiX^.pX).pXpXpX6.).J 6.pXpXpX).pXsXsXuX).).pX6.J 7.*.H pX5.pX`.pX).J 6.pX6.6.7.(.).J hX XjX`.(.J hX{.`._.pX6.J ).6.D J 5.).sXpXpX9.D H 7.4.(.aX).D 5.C G 7.).sXpX`.sXaX6.!.pX7.5.6.2.K sX6.J 8.8.lXlXBXa.mXBXr.) Q & a C.G.A.G.C.R.).).).).pX6.D 3.(._.H pX6.J 5.8.D ~.pXpX).6.7.D ).5.G 5.pX(.J pXJ ).pX).).pX6.).6.6.J J pXaXD J (.).pX`.`.).6.uX6.D 6.H 8.8.(.pXpXJ 5.).J 7.^._.pXaXpX6.F G 5.aX(.6.pX).J J pXJ 6.D 6.6.F J J J pX).J pX).pX(.J ).pX`.S z V 6.gXy.i.BXBXMXBXNXmXa.- V.i r r G.r F.!.pXJ ).J ).pX).pX6.6.).pX6.pX`.).).6.).`.J pX6.pXpX).tX'.6.6.).5.6.).6.pXpX6.J kX$.g J J 6.6.6.H pX).pX6.6.6.pXpX6.pX;.9 C pX/.uXH 6.).pX`.sX`.pXD ).pX).).6.).pXJ 6.).gX4.fXE.).pXJ J 6.).6.).).).).).).).0.r.K C `.K.Y.J _.!.pX8.y.a.i.BXmX",
"CXVX;XZ.i A.i r J.^.pX6.J ).).6.q.I.!.).pXJ J ).pXJ 5.pX).).`.).pXpXpXpX).pX).pXpX).).).6.6.pX).).pXpX).).).).).pXpXpX6.pXsXkXM Z pX6.pX).).3.(.pX).).6.6.).pX6.J 6.).6.pXJ 7.tXR.J 6.gXE.5.pXaXpX7.7.6.aX6.).pXpXpXJ uX`.).sX`.dXQ.).).).).~.D !.lXeXqXu.BXNXNXu./ j.V.C.C.S.u V 5.sX(.H J F J 8.`.).5.5.J 6.pX6.6.J pX7.G ).pX5.G J 6.6.pX6.pX6.pXsX6.pX6.).w.$.n aX).pX).6.pX6.G 5.pXpXpX`.pXpXJ G aXaXD (.6.6.).J 6.).aX;.M ).6.(.J 8.C pXdX`.).aXuXpX6.`.).pXsX(.uX`.pXpX).pXsXfXK J pX6.7.rXR.7.pX6.~.yXkXnXmXa.NXa.) s.; & a e G.i r J.`.).).).6.J sX7.~.!.sX`.J 6.6.7.6.`.H J pX(.sX`.sX^.pXdX).(.sXD G pXJ 6.(.D pX`.pXpX8.A H 6.8.~.sXJ D 5.G J 7.D pXpX^.).5.3.'.`.6.).pX).).).sXuXG 5.J sXaXJ D D J 6.3.G J 6.J pXpXD ).6.pX`.).J ).6.8.A J J ^.pX6.J S P.gX(.K J q.y.i.i.i.y.NXi.mX1Xl.e G.r A.A.A.u K J ).).J J 5.J 6.sX).pX5.6.6.6.J ).`.).6.6.6.6.6.pX).pX).pX).pXsX).pXJ ).aX7.).pXwXQ.(.pXJ pX).`.).pXpXpXpXpXpXpXpX6.qX*.g _.pX7.K J J J 6.J ).aX).J pX6.5.G J J ).).J pXsX`.pXJ pXpX6.J J 6.J 6.J ).).pX7.1.kXsX].}.}.!._.'.J pXgXMXCXNXy.NX",
"mXy.Q Z.G.A.a F.J.6.6.6.).).J 7.Q.'.pXpX6.4.D J 6.pX).).).pXpX6.6.6.).pXJ pXpXJ 7.J ).pX).pX).6.J J pX6.).pX).J 5.6.6.pX).pXjXXX!.6.6.J ).8.rXH 6.J 6.J pX6.J pXJ ).pXpXpXpXpXsXpX6.5.pXsXsXpXaXpXaXuXpXaXpXpX6.6.pX).).sX).).pXuX6.G (.).^.(.J n kXeXAXu.NXNXt.NX^ & V.C.C.w F.uX(.6.(.).).(.).sXD 0.D 7.*.B 5.J pXpX6.dX`.J pXsXpX6.5.5.J 6.6.pXJ 7.pX6.pXJ aXbX!.5.pX).pXpX).gX8.S ).sXpX6.).pXpX).9.-.~.).6.J J 6.pX).9.eX}.J ).pX6.fX/.H 7.5.G 5.6.6.sX).).6.6.6.5.G 6.pXpX6.5.8.P.).aX).sX_.sXpX6.6.Z 2.kXw.a.u.i.a./ f.; j.J.e i H.C.a G H F J pX).6.pXS A F pX6.6.5.6.(.J ).F 5.3.K pX6.).7.6.).J 7.pXJ *.C J 5.J (.7.5.pXfX`.(.aXsXJ J sX).pX6.G 6._.pXpX).pXdXuXF 5.6.G J J J 6.3.D uX^.(.7.pXpXpX`.5.3.4.^.(.pXJ J pX(.).).pX).pXJ J ).gXE.).).J 7.6.J ).C ^.hX!.iXw.i.i.BXBXi.BXi.ZX1XJ.V.i A.r r A.w n ).J ).).).8.H J pXpXpXpXJ uX`.`.).6.7.J pX6.pXpXpX6.D pXpXJ 5.J 6.pXpXJ pXsX).).J pX6.6.J pXJ ).pX6.J pXpXpXpXpX6.6.uXwX}.J 6.dXE.(.pX).).).5.6.uX^.).pXdX^.).).).pX6.pX).pX6.J 6.5.).`.pXpX6.J ).).6.S gX,.xXjX}.W.F Z H H ^.5.sXlXZXNXu.BX",
"CX^ - C.G.r G.A.p J pXJ ).J pX^.H H pXpXpX^./.).pX).pX).6.pXpX6.).).).pXpX6.pXq.M (.J J pXpX).pXpX).6.).).J ).6.6.J ).pXJ pX).J 6.pXpX).pXrX_.pX).pXpX).pXpXJ pX`.).6.pX6.).pX<.S aXpXpX5.7.7.pXaX6.sX6.aX8.D aXV ).).pX).).pXpXpXpX'.).).(.`.).R.fXxXmXNXBXu.t.t.) % C.C.C.C.u ^.pX).(.J ).(.).pXzX0XY.gXyX_.`.).pXpXpX5.pX).6.7.pXpX4.).6.5.).6.6.J 6.pX).pX).pXsX(.6.6.6.5.7.5.dX^.J pXpXsX).).pX).e.W B 5.6.J pXJ 6.7.).{.^.dXJ J ).6.7.J pXiX/.sXpX6.5.(.).7.pX5.6.(.J J pXpXdXuX~.6.7.(.pXpX6.aXpXuXG iXjXSXCXmXt.CX2X( : & L.e G.C.A.i S J H H pX).pXpX(._.^.D 6.^.`.pX).J J J pXpX~.J pX6.6.pXJ ).sX_.w.%.n J ).(.5.9.K J pXJ J 7.J ).`.pXpXpXuX`.).J pXpX6.J 5.1.V ).aX^.).J J pX/.^.pXuX6.5.6.8.A ).aX/.iX^.).6.).J 6.).6.J 6.J 6.).J 5.(.).6.J J 6.).pXJ pXB 1.!.uXzXBXMXBXBXBXi.u.MX/ & e A.A.r A.G.e n sX_.).pX).`.).5.J 6.6.pXsX).).pXpXpXpXJ pXpXpXpXpXpX).6.6.6.`.pXpX).6.J 7.6.pX5.4.D 6.J ).6.).J 5.pX).6.6.J pX5.6.).pXuXuX6.J J pX).).pX).6.).pX6.uXD 4.H sX).).).pX).).6.6.).pX).pX).J 6.).pX).`.).sX^.0.9.cXLXM 0 L Z H !.8.J (.d.t.BXNXBX",
"NX1Xz.Z.r G.i r u S 6.6.J ).).sX).).6.6.).pXpX).`.pX).).pX6.5.uX).6.6.5.J pX6.jXQ.pX).pXpX).J ).pX6.).).pX6.6.6.pX).J 6.6.J ).6.).).pXpX).).pX).).6.pX6.J 6.).).5.5.J 6.pXpXJ pXpX6.pXaX<.pXpXpXpXsXpXpXaXjX_.sX/.`.6.D pX).).pXpX).).J ).J )._.R.gXjXmXu.i.u.u./ ^ % C.C.C.A.u H pX).6.H (.J J pXsXhXsX;.L sXJ ).6.6.7.<.J 6.J pXpXpX4.J 6.`.).6.J pXD pXJ 6.6.6.).).6.pXpXpXsX8.K ).).6.J 6.6.J 6.pXfX0X_.sX`.).).pXpXpXpXJ `.6.aX).6.8.D J F 6.).pX7.pXsX^.pXsX`.dX4.J J pXaXJ 5.6.J 0.v Z 6.6.J pXpXaXJ B e.y.i.mXZXa.2X2X: j.J.r p C.r F.'.(.(.J J 6.).pX_.(.6.pXpXD G 7.).6.5.(.).).(.D J pX).6.J J 7.5.aXXX{.uXH J ).sX`.J 6.pX).).pXD G 7.6.7.G 5.5.J J ).pXpX6.4.'.6.aX(.pX).J ).9.N H ).dX8.C 8.'.pXuX).7.~.J 6.).pX).6.).).4.).).).J ).).J 6.J ).).).).).).6.~.R.8.zXi.d.p.i.NXu.NXy.1X& e G.r A.r A.w g J ).).).pX).pXpX).pXpX6.6.).6.).pX5.pX).).pX5.6.6.pXpX6.6.J ).pX).pXpX6.).pX6.sXsX`.pX).).pXpXJ ).J pXpXpX6.3.pX).6.).pXpXpXpX).).pX).pXpX).pX6.J 6.).sXH J pXpXJ pXpX7.^.).6.6.6.pXpXpX8.L J G J J 3.0.8.Q.W.yX1.m H.!.(.F D '.`.SXa.i.NXi.",
"i./ P.V.i A.G.A.J.^.5.J J J ).6.J J J ).6.J ).`.pXpX).6.pX6.).).pXpXpXpXpXJ pX6.5.pXJ ).sXpXpX>.N ).6.6.J ).pX).6.6.J 5.).).J ).).pXpX6.).pX6.pX6.6.).pXpXpX).pX).).pXpXpX).pX8.A pX7.7.hXpXpXaXpX8.6.pX7.6.J J pXpXdX_.).).pX).pX).).).).).H W.~._.e.p.NXu.BXa.CX:X% w w w A.C.!.7.J 6.(.J ).(.6.7.G 9.kXY.).pXpX6.pX6.`.sXsX(.6.).aX4.fXV ).6.pX).aX^.).pXpX).pX).pX5.J pX).pXfX/.).).pXpXpXpXpX5.2.J ).J 6.pX).pX6.D J aXS 5.7.J 8.A sX`.sXpXJ 6.6.7.(.pXpXpXaXF 8.^.J J J pXpXfX^.pXzXQ.!.6.6.pX>.J aX`.3.e.i.BXi.mXmXCX( c.l.L.A.H.w A.u Z J F H ).pX).^.(.D 6.).sXsXpXD J uXsXJ G _.pXaXG 5.J 6.6.D pXpX(.J D sXpXJ J 8.A G (.sX`.sXpXuX).(.6.pX`.sXD J ).6.5.J pXpXJ 2.C H 6.pXJ J tXQ.).J pXq.z B J 5.D 7.J J D ).pX).6.6.D 6.).).pXJ pXJ J ).pX).).).pXD 6.J 6.Z ^.aXq.NXBXBXy.y.NXi.i.1Xl.e G.A.r A.r C.Y.G (.pXJ J 6.6.pXD G 5.5.pX).pX6.6.6.H 6.J 6.pX).6.pX6.6.J ).J J 6.).pXpX).pX6.).pX).pXpXJ pXpXJ J J 6.6.J gXV H pX6.J 6.4.D ).pXJ J J pX).J pXpXsXD J 7.D J J ).).pX7.(.).6.pX).pX6.6.pXyXW.8.Z ).).gXgXW.].J 0.eXI.}.!.J (.~.K `.lXCXi.u.NX",
"BXmXh e G.G.G.C.a 6.uX).5.(.(.pX).J ).6.uX(.J J 6.J ).).pXpX).8.N J 6.D pXpXJ pXuX).pXH J 6.pXlXB (.pXpX).pXpXpX6.pX6.<.(.pXpX).6.J 6.pX).pXpXpXpXpX6.).pXpXpX).pXJ pXpX).pXpXsXiX5.aX^.6.7.6.pXpXdXpX6.gXJ pX).J pX).pX).).6.J ).).).).).).(.B ^.0.r.u.u.u.i.t.NX<Xj.G.G.w A.w f B ).`.(.(.J F pXpX).pXsXsX(.pXJ pXpXpX).pX).6.J ).pXsXpXsXpXpX7.2.).sX).pX).pX).6.6.pXJ J pX6.J J 6.J pXpXpXpX`.e.f !.).).pX).pXpXpX`.pX6.pX(.sXpXfX'.pX6.J 7.(.6.6.pX).6.).6.pXpXpX6.(.6.G G J sXsXpXdXQ.`.pX6.pXrX~.aX).9.e.e.a.mXNXZXCX2Xl.- a V.r r r C.Z J (.(.J J J ).pX(.6.3.G pXpX).(.J 7.uX^.G 6.pXpX6.5.G pXJ (.sXdXS pXG pX6.5.sX/.`.D G J 5.6.(.pX6.pXpXH 9.E.).H ).pXuX4.D 6.w.M B 5.6.H pX).).pX).8.tXbXR.sXsX4.6.J 6.5.F J 7.J pX(.6.3.J 6.).pXpXJ J 6.).J J 5.D D J 6.Z K 8.w.MXBXMXu.y.i.NXy.a.- V.i G.G.r A.w B ^.H ).).).pX(.).zXz L `.).pX6.pXpXpX).6.J 6.).pX).pXpXpX`.).pXpX).pX6.5.J 6.pX).pXpXJ pXpX).pXJ ).pX6.6.6.6.pXJ 6.pXpXpXpX^.6.J pXJ pXG J J J pX).4.(.pXfXV ).6.3.D fXH J pXpX).pXpX`.pX).aXhX{.D A dXhXR.7.2.5.~.Q.`.pXD S G !.F lXa.BXNXmX",
"y.mXQ B.i G.G.r J.H (.pX`._.).).pXpX).6.H pX).J pX).).6.6.pX6.fXhX).sX).7.4.pXJ ).).).).6.pX6.hXhXJ pX).J pXpXpXpX6.pX`.).6.6.6.J pX6.).).6.pX).pXpXpX6.6.6.pX6.J ).pXpX6.6.pX5.pX6.J pXpXsXpXpXaXpXaXpXaXpX(.pXsX).pXpX).pXpX).).).).).J ).).H L e.y.i.u.BXNXNXu.^ j.A.G.C.C.i a Y.J J ).J ).).5.6.J 7.,.Z pXJ pX).pXpX6.).pXpX).5.5.6.6.6.pXpXaXyX(.6.6.pX).).6.J 6.6.pX).).pXsX).).6.C pX6.J J tX}.`.F ).pX).pX).pX6.pXpX).).7.J ).pXpXpX6.uX).5.).).).sXpXpXpX6.aX^.^.sX9.>.L 3.5.sX6.(.pXpX5.J sXpXJ `.gXlX%.qXeXZXCX/ ZXl.l.L.V.G.r r u H ).H J 5.J J H (.).aXiX(.J uX).pX7.D `.aX6.D 5.5.J uXD J pXH 5.6.(.D uX).rX~.pX).).pX(.pX6.pXJ 5.).6.pXJ 7.6.D ).G J J sXsXpXjXXX'.pX7.H J 6.(.).5.9.A 5.(.J 7.4.pX,.M pXJ G D ).pX).aXE.).).G J pXJ J ).6.J pXuX(.6.H `.^.'.dX9.MXi.i.u.y.i.i.NXa.- V.i r A.r r C.L.pX(.(.pX).pXpXJ dX0Xh J ).pXpX7.G ).5.pXpX6.J J 6.6.pXpX).pXpX).).pXpXsXuXpX8.H pXpX).pXpXpXpX).J 6.6.6.pXpX`.).pX6.J pX).pX6.J 6.J pXuX(.6.J pXpXuX_.pXdXE.J pXiX_.`.sXJ 5.J pX).).).6.pX7.J 6.e.b M aXS 2.3.F F F J ).iX(.(.].).e.mXBXNXNX",
"u.t.z.u A.G.G.A.J.pXJ J ).).).).).).).sXD G ).pXJ J pXpX).pXpX).pXpX6.pXdX^.pXpX).7.*.B pX5.J 6.6.pXJ pXpX6.6.pXpXpX).pXpXpX).pX).).sX).pX).pX6.6.J pX).pXJ ).sX).J pXpXpXpXpX1.B aX).sX0.A pX6.pXpXpXsXaX7.H pX).).).pXpXJ pX).).).).).6.S ).).J w.SXNXNXi.u.NXa.<Xj.S.C.C.r C.I.m J ).J J H J sX).pXaXyX'.pX6.G 6.7.7.6.).6.6.5.).pXpXpXpX6.J pX).pXpX6.J ).6.6.1.B sXpX).6.J J 6.J gX$.J aX6.G pX).sX).).6.J ).6.5.6.).pX).5.pX`.6.pXpXpXpX).pXpX).6.G G pXpX).pXuXpXJ pXe._.E.B ^.pX6.D D aX;.j 5.sX^.A 9.xXVXfX%.p.a./ s.z.- L.e i r r H.(.).(.6.(.`.J J G F J pX6.J J 6.6.dX_.J 5.pXpX).`.`.pXsX).(.).aX`.).).6.J sX`.6.pX5.4.J 5.J ).uX`.pXpX).pX6.4.^.6.5.C F 5.6.6.).).pX7.8.Z G ).D J pXsXdX^.S J uXiX7.lXn D pX8.K H J pXJ J J 7.1.Z 6.6.2.K ).).J ).pX`.`.R.tXR.gX9.MXBXMXNXi.y.i.i.a.l.V.G.r r A.r G.'.).).J J ).6.pXpX).sXyX).J ).pX9.L H sXJ 6.pXpXH aX).).pXpX6.pXpXpXpXJ 6.6.7.uX/.pXpX).pXpXpXpX6.6.6.pXpX6.pX).pXpXpXJ 6.J 6.7.).).).).pX).pX^.(.6.J J 6.).pXpXuX).pXJ 6.pXsX).J 6.D ).pX6.uX(.6.xXU.R.).6.aXpXJ (.!.`.`.).`.H B aXd.a.BXi.mX",
"mX/ ; F.i i G.C.a 5.).).).).J ).).).).).w.B _.pXpX).pX).pX6.).pXpX7.rXJ 6.pXJ 6.).q.P.S ;.Z ).).pXsX).J 6.pXpXpXpXpX).pX).`.pXpX6.J 6.6.J pX6.).pXJ ).sXpXpXJ J sX).J pX).aX6.iX`.6.6.7.tX'.aXpXpXpXpXpXaXdXZ ).).pXJ ).aX<.H ).).).).).iX^.)._.iXw.kXVXNXBXNXu.CX^ % C.C.C.w J.cX`.F C J J J H 6.6.5.).).pXpXaX4.D pX2.Z 6.pXpXuX(.pXpXpXpXsXpXpX).pXpXpX).6.6.pXhX'.J pXD pXsXJ pX).).sXpXpX7.^.pXJ ).).6.pX).pXpXpXpX).).7.2.K uXpX6.6.J 8.F 7.J `.sX7.J 7.6.).pX4.J `.0.<.XXyX_.).6.pX^._.w.jX].B 6.J 6.aXe.y.w.r.t.CX1XAXU.- g V.i r r J.).J J J (.6.5.H `.sXH 5.6.H D 6.pX).pX6.J 6.(.^.pX6.6.6.6.A F pXpXJ G 7.(.J 6.).pXpX`.pXpXJ 6.J pX6.6.pXpXpX).J sXe.A M K H pXJ D 5.6.dXuXZ 6.(.J 5.5.9.2.H (.6.pX7.jX2.b ^.sX'.).J 6.pX).8.D iX^.6.aXkXn J pX).).pX(.).L 2.R.dXzXSXu.y.u.i.BXNXi.CXl.y G.r A.r A.e B ).).).).).pX6.pX).6.pXsX).).pXw.Z (.6.pX).pXsX).pXuXJ 6.6.6.6.J pX6.J pX6.).).J pX6.5.J J 5.6.).pX6.pXpXpXJ ).).pXpXpXpXpX6.pX).J 6.6.6.).6.^.).<.Z ).uX).6.J pXJ pX).).pXpXpXpX).).A 5.6.^.`.sX[.iX).`.6.7.7.(.].'.^.5.^.`.sX!.pXMX/ i.BXNX",
"NX<X& V.H.H.A.G.e n 6.J ).J J J J ).).).jXW.J 6.pX).6.J 6.6.J ).6.).pXpXpX).pXuX).jXXXw.$.B aX).).pXpXJ 6.).6.6.J J ).).pXJ 6.pXpX(.pXpX).pXpXpXJ pXG G pX6.6.J J 6.6.2.>.K pX5.6.pXpXuXpXaX6.6.6.aXpX7.7.aX_.).pX).aXG ).iX).).).pX).).).`./.!.8.xXcXeXVXi.NXt.a.^ h.i u C.V.g 0.S pXA Z 7.G H 6.6.`.^.pX6.pXpXsX).9.1.L J ).8.D ).5.7.).pX6.pX).).6.6.).pXpXpX).pXpXpXpX).).pX).).pX6.5.6.6.dX/.sX).J 6.J ).).).pXpX).6.;.V fXR.(.aX6.`.aXiXsX6.).J 5.4.^.dX4.G 3.pX^.0.:.P.H 7.4.H `.pXpX5.dXcXcX~.6.).).9.d.nXVXZXNXVX( d.; - a C.i i r J.7.A J (.(.pXuXS H aX^.sXuX).D 3.H pX6.pXpXD ^.J 6.J pX).sXpXH D pX6.5.J ).J ).5.J 5.G 6.).).pX5.G 6.pX).pX4.pX(.9.1.XXyX].`.6.6.4.~.).pXpXJ ).J J pX`.gXtX!.(.aXpXpXhXnXW.`.6.;.f ~.6.J pXsX).J ).7.G dXQ.H J ).6.).).H 6.H Z 2.w.SXmXi.u.BXNXi.BXZXL.w G.A.A.A.r F.'.`.(.).).pXpXpX).pX8.D pXpXJ J zX'.H pX6.).pXpXpXpXpXpXJ pXpX).).pXsX).6.pX).pX).J pXpX(.pXpXpX).pX).pXpXpXpXJ 5.7.6.6.6.).pXpXpX).).).).).gXV J sX`.H sXpX).).pXpX6.J pX6.J J 6.).pX^.D ).`.J sX5.G (.7.7.6.sX!.!.6.6.6.F Z E.!.5.SXmXBXBXNX",
"NX^ j.w G.A.A.G.e Y.pX).).).).J ).).6.J (.pXpX).).6.).).pXpX).pXsX).6.).pXpX).pXpX).7.w.qXR.7.6.J 6.).).pXpX6.pX).J J 6.6.).pXpXpX).6.J J ).pXpX8.H aX^.J pX4.J 6.J 7.%.P.Y.aXpX`.pXpXpXpXpX6.6.pXpXpXaXaXpX).J pXJ aX/.(.6.J ).J ).).).pXH J ).uXtX2.e.mXNXu.t.u.:Xh.J.F.w V.a h ].fX{.iX3.S Z J pXJ 6.5.pXJ 6.8.J aXkXR.).J gXE.).sXsX).6.).pX6.6.pX6.J J pXpXpX).).sX,.H ).pXpX6.J 6.6.pXpX).6.6.).).pX).J ).pXpXpX).w.%.Y.pX`.J pX`.D aX).aX`.`.sXgXE.S 5.hXdXuXH 7.tXQ.[.aXD {.uX4.J 7.^.(.aXsX`.).pX6.w.lXjXVXmXu.i.1X( = & J.w i G.C.p 3.'.).(.G J pX).H 5.J D sX).7.3.Z 7.J pXpXuXH J pXpXpX).6.pX_.).*.3.<.B `.pX5.`.pXuXJ 5.J D 7.uX^.7.C D 7.fX(.5.:.R.{.dXA D uXsX`.6.3.<.).J J 6.J J 7.,.R.(.D ).aX6.J _.pX6.tX#.P.H 5.3.K J ).pX>.b K K F 5.J J 6.).).6.6.J Z 9.8.lXmXi.BXi.t.y.i.u.Y.V.i G.r r A.u S ).).J J 6.pXpX6.7.pX^.6.pXpXJ aX`.).6.).).6.6.pXpX6.pXpXpXJ ).).J pXpXpX6.).pXpXpX).sX).pXpXpXpXpXJ 6.pX).pXpXpXpXpXpX).).pX).pXpX).).).J dXyX(.7.4._.J pX6.J 6.pXsX^.6.`.sX4.S J ).pXuX~.pX6.J fX~.A _.hXsX[.{.(.).6.).`.Z A S sXSXCXi.i.NX",
"a.1Xj.C.G.A.i r J.R.J (.pX5.F J J 6.).(.J J ).).J pXJ J 7.6.).).pX).sXpX6.6.J pXpXpXaXyXXX_.pX).).).pXJ 6.J pX).).pX).pX).pXpXpXpX).pX).).pXpXpXiX/.pXsX).6.uX).pXpXpXhX{.pXpXpX).6.J 8.>.).aXpXpXpXaXpXsXsXpX).pX).J ).6.pX`.).6.(.).).).).J ^./.zXkXe.p.NXu.t.s.^ & C.F.w r Z.T.pXsX(.sX{._.).H ).sX6.3.G ).5.).pX6.hX`.pX).6.6.J 6.6.6.).).7.).pX6.6.`.(.6.J ).pXpX).qXN F pX6.pX).9.N J pXpXpX).).pXpXpXpX).pX).pXpXgXbX~.(.6.).6.5.D uXpXpX`.aXpXsX`.6.5.C pXsXpX).`.).5.8.'.J pXsX).sXsX).6.pX).pX6.pXzXq.0.p.CXBXt.2X2X! * u C.G.G.i w Y.J 4.H ).J 5.D J J 6.H 5.6.7.tXM J ).6.).pX6.J G G 6.6.pXpXJ e.#.Y.hX'.D 7.^.).aX`.aX`.).pX8.A H aXhX4.A H aX1.0XQ.J 7.'.^.D J 0.N ^.Q.`.sXJ 0.B 6.4.cX{.iX^.H pXgX3.C J 4.(.hX/.sX_.sX^.J J fXyXY.'.`.G G H 6.J ).).).pX`.].tXdXlXmXBXNXi.NXNXi.SXW.e G.r r r r V.R.).).J J J J pXpX6.pXJ ).).pXpXpX6.J 6.).5.6.).pXpX6.J pXpXpX).pXpX6.J sXpX6.6.pXpXpXpXJ 6.).pXpXpXpXJ ).pX6.J pXpXpXpX).pXpXpX6.J ).J ).7.J pX).fX~.pX).J 6.J ).pX).pX^.).pXsXuXpXJ pXpXG 5.pX_.pXuX'._.4.gXZ !.pX).sX(.^.).H !.dXSXa.BXBXBX",
"a./ J.V.G.G.G.V.R.aX8.-.v uX>.L J J J J H ).pX6.6.5.).6.pXpXJ 6.pXD J 6.pXpX7.C ).pXpX).6.pX).6.pXJ pX).pXpXJ J 7.J J 6.5.G pX).pX).,.*.F 6.6.6.^.pXpX6.6.pX).pXpX).pXJ J pX5.6.J aX>.D rXpXpXpXpXpXsXsXpXpXpX7.J ).pX).pX).).pXuX(.).).J 3.H Z D gXjXMXt.NXCXmXa.%.Z.w w C.G.Z.Z 6.pX`.(.).J ).`.).pXpXdX^.H aXJ 6.pXpX6.J 6.J aXA J pXpX6.5.6.pX).sXpX).pXpXpXJ J J J jXAXz L pX6.J dXyXD J pXpX).J ).pXpX).6.J J 6.pXpXpX^._.sXJ pXsX_.pXpX6.C 6.pXpXdXuX`.iXH 6.pX`.).sXpX`.).pX).pXpX6.6.6.pX).pX).dX).zXlXxXmXBXBXVX1X2X:Xk.u r i G.i C.~.).^.(.).sXuX^.H ).pXG D 6.6./.[.(.pX).6.J pXpXpXD J ).pXpX6.lXwXZ J J J pXG D ).6.pX`.pX6.dX/.6.F J dXhXJ 6.hX_.6.7.~.).aXuX).gXQ.!.pXpX6.7.rX!.7.(.J 5.6.uXG G pXjX'.(.dX^.J ^.pX5.2.^.).).).iXiXsX).).).H pXpXH J 5.6.Z V 9.iXnXVXi.i.i.p.BXu.%.M V.G.r A.r G.e Y.pX5.C C G D 6.7.).pX`.).5.5.6.6.pX6.).pX5.).J J 6.pXpX6.J pXpXJ pXpX6.6.pX).pXpX6.J sXpXpXpX).pX).pX).).pXpXpX6.pXpXpXJ 6.6.pXsXJ 5.J J <.(.pXJ uX).(.pX).sX`.J J 6.D ).6.6.6.J 7.).J pXpX).).6.D ).F 7.`.iX{.(.pX).).7.C (.'.!.5.MXCXBXNXi.",
"t./ - V.G.G.G.A.d A aXyXW.[.yX].).).pX).(.).6.6.J pX).).pXpX).pX6.^.).).pXJ aXE.(.pX6.).pXpX6.).pX).pX).6.).1.@.m `.6.G 1.$.`.sX).4.%.yXR.6.6.6.J 6.6.pX6.G J 6.J ).pX`.).6.pXpXpXpXsX).pXaXpXpX6.6.6.pXpXsXpXrX/.5.A 8.C _.pXpX).).J 6.4.E.(.(.~.dXq.p.t.NXt.u.CXQ e C.C.C.i e R.pXpX).).).).H 6.5.J 6.7.).aX2.J pX6.6.uXpXpX).uXsXJ 6.6.pXpXJ 6.J ).pXpX).pXpXJ J 9.K F xXIXg N `.pXJ pX`.).pX).).pX).pX).9.z Z pX).pX6.pX`.G 7.4.H pX6.J ).dX`.H 6.J 6.pX6.G `.sXuX7.K `.pX4.4.J J 6.pXpXpXpX).pXaXJ 6.).gXlXlXCXNXBXBXZX/ c.K.a w i i w J.J ).J H J J 6.6.'.pXpX`.(.uXsX~.^.6.6.J ).).pX6.5.6.(.5.D 6.pXhXhX~.(.).H 7.uX(.pX).J G 7.).pX6.5.sXD H 7.pX).).pX7.^.`.6.).pXpXpXuX(.6.>.K pX_.6.pX^.).pX).9.V _.6.pXuXJ ).pX7.,.K 1.R.).pXJ 6.6._.sXsX`.`.`.J pX).).).uXD Z gX5.w.p.i.i.CXMXy.s.y.n V.G.i r A.r V.B 0.4./.^.~.(.).pX).pX).6.pXJ pXpX6.pX).aXsX).pXpX6.J pXpX).6.).pXpXpXpXpXpX).J pX6.).6.pX).sX6.).6.).pXJ 6.pXpXpX).pXpXJ pX6.J 7.pX6.J 5.F 5.G ).).pXJ pXJ ).pX).).sX^.J ).sX).pXsX).pX).pX^.pXpX(.6.D (.).).8.N ).pX).dX/.H Z A 8.%.a.i.u.NX",
"CX1Xl.e G.G.A.A.p m `._.).5.J ).(.).pX).).J pXsX`.J pX5.J pXJ 6.pX`.6.6.7.pX).sXJ 6.pXS 6.pXpXJ ).pX6.6.6.J d.$.p pXsX`.dXrXG 6.pXq.E.}.'.pXpXpX7.H pX6.gXP.(.aX^.6.).).6.5.D pXpXpXpXpX6.6.pXaXpX6.pXpXpXpX).).sXtXg gX].(.pXuXJ D J ^.`.)._.J Z pXlX/ u.u.a.i.CX;XB.C.C.C.C.J.A J ).`.).).).J 6.^.6.6.).(.aXkXM J sX).).pX).pX5.6.pXJ pXpXpXpXpXpXJ pXpX6.J pXpX).dX/.J pXeXU.Y.(.pXpXpX).pXpX6.pXJ 6.).J tXwXY.7.J pXpXpXpXsX`.`.`.6.6.pXJ J `.sX7.J aX>.4.uXH pX7.iX{.7.6.^.sX).sXpXpXsXpX).6.6.pXpX6.J aXxXy.i.i.u.BXCX<X; - j.A.G.i C.g J ).).J J J pX^.F 5.5.5.H D 8.D 5.J 6.D J J 6.pXpXpXJ <.S 7.J 5.6.~.D 7.A (.pXJ J pX7.G D 6.J pXsX).uX^.pX).7.F pXpXJ G J G J 7.G ).F 9.P._.^.J J ).).6.J 7.6./.J 6.).pXpX5.G gX0X!.sX`.D ).).).pXD J pXsX`.pXpX).).).).pX`.B 9.7.#.s.i.i.i.mXp.s.d.g e r J.F.r G.w g E.!.pXsX).).J pX`.pXpXpX7.J J pX>.K 6.J pX).6.6.7.H pX6.G ).pXJ 6.6.).pX6.J ).6.uX).pXpX6.5.pXpX6.J 6.6.J pX6.6.6.).pXpXpXpXpXpXJ fXJ dX6.D F H 6.J ).pXpXJ 6.4.H 6.7.J J J pX).6.6.J J pX(.5.).4.A _.).pX).dXW.).J pXG (.).D A iXBXmXi.i.u.",
"a.CXP.B.G.G.A.G.F.L.(.).).).(.).J J ).).).pX).6.6.6.J sX(.pXpXpXJ 6.4.uX^.).).pXpXpXpX1.V 6.pXpXJ 6.pXpXpX6.qX&XY.Z 0.*.H ).pXJ 5.xXyXj F ).6.pXsX`.6.5.pX`.6.J ).).pXJ pXpX^.pXpXpX6.6.pXpXpXpX7.pXuXpXpX).pX6.5.`./.sXsXJ J 6.D ^.).J J J J ).!.[.%.a.u.i.a.i.s.z.V.C.C.C.V.g ~._.).6.J (.).`.pX6.6.sXpX).pXhX{._.7.pX).pX6.5.(.).pXpXJ 6.J pX).pXpXJ pXsXpX5.6.6.pXJ 6.J 4.yX_.J pXpXpXpXpXpXpXpX6.J 6.4.).hX/.J ).).6.pX(.J pX6.J dX`.pX8.F 5.5.aXS sXjX'.dX_.sXdXH 8.6.D D J ).pXpXpX6.pX6.pX).pX6.pX).aXlXSXBXBXBXNXCX( z.l.u r G.G.A.w B J 6.J pX5.G J J J ).).J 7.`.6.D H 6.pXJ J 6.5.5.6.^.`.pXpXpXpX(.pX6.)./.(.6.6.J J pX[.).7.J 7.C 8.K G 6.5.fX'.J 7.).uX).pX6.6./.J pXuX^.J ).pX).pXJ 6.).9.K J ).pXpXJ pXgXK H sXpXJ pX).J J J ).uX4.K J J J 6.).).J ).).).D 6.w.p.u.BXBXi.t.u.i.p.h w C.G.G.r r C.R.sX).).).pX6.J pXJ pXpXpXsX`.pXJ hX'.pXJ ).6.6.6.pX_.J aX~.).pXpXpXpX6.5.pX(.6.).).J 6.J 9.<.H 6.pX).).pX).J ).6.).pX).pXpX).pXpXaX6.J H dXsXuXZ ).pXD ).sXsXpX`.`.pXsX^.pX).).sXpX`.sXE.`.pX).).iX/.~.).pXpXA H 6.J 7.E.D N ~.].4.MXZXu.i.i.",
"u.t.; e G.G.G.r J.sX).).pX).(.).).).).J J 5.J pX).pX).).5.6.J pX6.J sXsX`.pXJ 6.6.).6.sXsXJ pXpXpXpX5.J pXpX[.hXcX(.lX0X!.6.7.J J fXlXY.R.pX).).6.6.6.7._.`.sXuX6.,.K 8.K pXpXpXpXpXpX6.pXpXpXpXaX).sXpXdX>.C pX).9.l B pXJ 5.pX(.J 6.pXJ pX(.H Z A MXa.u.u.s.NXa.0Xe C.C.C.A.Z.R.J ).sX).).G J aXJ ).).pX).6.5.5.7.<.Z 6.5.pXsX^.6.6.pXpXaXD ).pXpX6.1.Z 6.6.4.~.).pXuXuXpXpX).J J 6.6.pXpXpX6.6.pXpX).uXsX).5.6.J ).6.pXpXpX^.J aX(.).aX6.gXK G sX`.sXS `.aXpX8.z J 6.`.gX<.!.sX).pX6.6.pXpXpX).5.5.J 6.S gXe.e.BXmXi.t.CX( - - J.C.A.i r J.K F J J J pX`.J J J 5.5.D G (.hXsX`.J 6.8.K G ).pXJ ).J J 5.7.J 6.(.sX`.J ).pXJ pX7.D D 7.8.F aX$.R.sX(.sX6.(.8.5.J D 6.J ).sX).pXpXpX6.6.H J 6.J 6.J pX2.,.h (.J J ).6.J aX1.N J pX).J J pX(.).6.J sX`.J pXpXD H 6.J J ).pXpX6.zXMXi.y.i.y.y.VXmXs.g C.r r r r r F.H 6.).).).pXpX).pX6.J ).pXpXpXsXpXJ pX).).6.6.sXsX).pXJ ).`.6.J J 6.6.pX6.).).).pXpXpX).pX6.`.).pXsXpX).pXpXpXpX).).pX6.6.6.J 6.6.pXuXhX5.2.2.Z (.J pX^.J 6.J pX).6.J pXpXJ J 6.6.).pX7.N D pX4.(.sXA (.).pXsXiXH ).pX`.).).Q.Z K gXSXt.u.i.i.",
"u.t.z.Z.i G.G.C.J.6.D J J 7.H ).).).5.J J ).).).pXpXpX).pXpX4.H pX^.C 5.6.6.).6.).).pXJ pX).).pXpXpXpX).J 6.J 5.J ).sXQ.).6.6.J ).).yX X`.).6.5.7.pX7.(._.7.6.).aXjXR.rX'.7.J sXpXpXpXsXpXpXpXpXpXJ 6.6.aXxXT.).).tXI.R.pXfX^.).1.N D D ).(.)._.~.8.%.a.u.u.u.NX/ Q V.w C.C.A.e g G Z pX).5.(.(.sXpXJ 6.J 6.6.pX`.pXiXuX6.^.pXJ pXpX).6.J sXiX).6.pXpXhX`.pXsXsX).5.6.5.J ).sXpX).).pXpXJ pXpXpXpX).pXpXpX6.pXpXpXpXC G pXpXpXJ pX6.(.5.5.uXsXjX~.J (.sXsX(.aXpXw.#.M _.pXdX{.(.pXpXpXpXpX6.6.6.6.7.<.S pX'.9.lXlXu.u.u.u.mX2X= & F.C.r G.V.R.`.!.J J 6.D 5.5.(.).6.J ).pX!.3.G J 7.F gX/.`.D 5.6.J J 6.6.6.).).J A J pXH sXsX5.9.F 6.6.sX^.(.hXpX7.F C sXD 6.7.N ^.^.).5.5.G 6.J 6.aX(.(.J 6.).6.).7.yXtX>.Z ).).6.6.J 6.tXR.(.6.7.D J ).).J pXJ J pXJ ).pX`.`.6.).^.).6.).pXzXMXBXy.i.BXBXy.u.VXL.e G.r r r r u Z 6.).J J J 6.).6.).uX(.pX6.pXpXpXpXpXJ 6.6.J 6.6.pX3.G ).6.).).pX6.pXpXpXH 6.J 6.).pX).9.S ).5.J pXpX6.5.J 6.).6.J J pXpXpXpXaX).fX~.7.w.G J Z (.J pX).J pX6.).).uXD J pXpX).).pX).).gX0X~.pXiX(.pXrXK G J ).pXJ J J 6.).(.).).!.`.MXmXBXBXNX",
"a.t.P.Z.G.G.G.C.W.pXiX`.7.(._.J J ).).).).).).6.6.J ).).6.6.uX).pXsXrXZ 6.).J 6.).).pXpXJ J 6.6.pX6.).pXpXpX).J ).pX6.6.pXpX).).6.A H J J 6.7.6.(.).sX).G 5.pX).sX`.9.b L pX6.J pXpXpX6.pX6.pXpXaX5.).uXpXhX{.pXaX>.E.3.).pX`.pXjX/.(.).J (._.W.fX8.y.CXu.NXNXBX2X0XB.C.A.w A.V.J._.(.).).iX~.J J aX).pXpX6.6.6.pX6.J sXsX).aX(.6.pXpXpXpXJ 6.pXpX).6.J ).pX6.6.pXpXpXpXpX3.>.).).6.J pXpXpX).pXpXpX6.6.6.).6.pX).gX$.n pXsXpX6.).sX(.pXpXD 5.6.sX^.).6.).6.7.).tXAXj k M sXpXpX6.6.6.6.6.J 6.pXpXpXsXsX~.<.7.w.d.MXNXNXu.i.2X:X* a w r G.C.g J J J J 5.J ).).Z 6.6._.sXsX6.6.J G 6.H J ).sX6.J J pXJ J J pXJ J J ^.J 6.(.J 7.6.dXrXK pX).dXD D 7.).w.@.F ^.).gXE.!.sX).dXuXJ ).6.G ).pXF ).pXJ 6.6.6.J zX0Xn 4.S pX6.J pXsX`.6.pXpX`.J J ).D J pXH pX).J J ).6.aX<.Z 6.D Q.dXkXi.i.NXs.BXNXNXmXqXL.e i r r r r F.'.).).pX).J pX).pXJ J ).).sXpX7.D ).pX).pXpX6.5.G 7.1.n ).pXpX6.6.6.pXpXsX).6.).pX6.J 6.fXE.).dX^.6.pXpXuX(.pX).pX).pX).pXJ pX7.).).sX).jXsXD !.F J J ).^.pXpXJ J `.[.aXH sX).).pXpX).4.`.pXJ ).).).).gXR.).6.pX).).4.).).).J _.!.4.p.a.i.i.u.",
"u.mX; B.G.A.G.w B 6.pX2.5.(.).).).J ).6.J ).pXpXpXpX).pX).pX6.J J ).sXpX).pX<.Z pX).pXpXpX6.).pXJ pXJ pXpX).pXD J pXpXpXpXsXpXJ sX/.J J J J pXuX).pXaX6.).pXA 6.J fX$.n W.6.6.4.D pXpXpX7.5.5.7.7.6.(.pXpXpXJ ).pXyX,.N (.pX6.5.J `.pX).7.L ~.N 4.aXMXa.BXNXs.y.CXQ e w C.G.w D.XX`.(.).J pX).J ).pX).pXpXpXpXuX).pX).6.6.6.pX).pXpX6.J pXpXJ 6.6.5.6.^.J J pXpXpX6.pXpX`.q.$.!.pXpXpX6.pXpX).pX).pXpXpXpX5.J pX6.6.cX!.J pXpXpXJ pXG 3.6.6.6.^.pXD ).6.6.8.`._.sXnXnXP.W.6.6.).pXpX6.).pX6.J pXpX).pX).pX6.7.lXy.q.NXNXNXmX1X3X* F.C.r G.A.a H G (.`.pX(.J pXC H pXS 7.7.J ).uX6.D J J G 5.6.).6.J ).).6.J sX).).J ).pXJ 6.D ).6.dX`.J (.6.`.).7.J kXqXj v A sXsX(.6.J 7.uX8.N sXdXJ pX^.G 5.D J J pXJ pXyX_.4.H 6.8.H J 7.J 6.J pXJ uXG G pXJ 5.(.6.).pX(.J J pXdXZ 6.^.V D q.u.y.i.mXBXNXu.s.q.n e r r r A.r u J ).).pX).).6.pX).pX).J J pXsXaX(.).6.).6.6.5.7.,.M hXQ.6.).).pXpXpX).).pX6.6.J pXpX).pX).pX6.).pXpXpX7.).pXJ ).pXpXpX).pX`.pXsX(.6.pXpXuXxXuXZ C H J G J 6.pX7.A F G dX`.J pX6.J J 7.pXJ ).).^.).).6.`.`.pXuX(.6.(.pX(.).).`.Z !.gXt.t.i.BXmX",
"mXa.; B.i A.G.V.h z z 2.Z (.J J J pXJ 6.J J ).pX).pX).pXpXpXpXpXJ J 6.6.J 6.iX(.J J 6.pXpXpX).pX).pXpXpXpX6.6.`.J 5.J 6.J J dX`.).pXpX).6.J 7.).).6.pXsX(.w.N Z pX7.yX[.sXpXJ pX/.7.J 7.7.5.5.C 5.aXJ 5.pXpXpXpXJ pXq.Y.).pXiXiX/.(.sX`.dXQ.K H A 4.MXCXi.u.CXi.( Q u u C.C.V.L.pX).).5.6.J ).J D pXpX6.pXpXpXpXpX6.6.5.J ).pX6.6.6.pXpXJ pXpXpX).pXpXJ pX5.H pX6.pX6.H 6.sXsX).6.J pXpXpXpX).6.).pXpXpXsXsX).).pX`.).).).6.pX7.J 6.7.D (.pX^.uX8.D H aXuX/.[.6.6.dXcX{.pXpXpXJ pXpXuX).6.pX).pXpX).pXpXuXpXaXe.VXxXNXu.u.u.2X3Xl.% A.G.G.A.J.(.J F G pX6.G G uXS 5.J G sX/.).7.4.~.(.pX).4.(.).pXpX6.J ).^.J pXpX).).pXJ 7.J 5.5.J pXH 6.J 5.8.6.^.gXeX<.f Y.5.D ).7.J 6.(.zX0XF 6.sX).6.5.F (.6.6.6.6.G 5.>.D J 6.sXsX).pX(.6.).6.).6.pX(.).).<.S 6.J ).).J pX).`.`.).pXS 9.;.y.NXMXu.MXt.i.s.:.g V.i A.A.r A.w B pX).pX).6.6.).).J pX).6.).pXaXpX6.pX6.8.G pX7.yX{.D J pX6.J pXpX^.pX6.6.pXpX^.J pXJ 6.pXJ pX5.).pX7.rX~.sX).J J pXpX).).pX6.6.8.N (.sX_.gXhX[.{.K J >.L pX6.dX{.iXS J pX6.J pX).).6.pX`.`.).pX).).(.).>.D uXJ D ).pX).(.G (.pXm gXt.t.BXi.t.",
"mX/ - Z.G.A.G.t P.9.b b n sX6.D J 6.pX).).).).pXJ J pXpXpX).pXpXpXpX6.).pX).J pXJ J ).pXpXpX).sX5.6.6.pXpXsX6.J 6.).pX).`.pX>.K sXJ 6.6.).pX6._.pX6.6.6.5.gXQ.(.6.J C 5.6.pX).J 6.pX).aXdXaX7.^.5.5.).).6.pXpX).pXpX0XT.pX).).`.pXpX).pX`.`.`.).(.hXt.a.u.i.CXmXa.;XD.C.C.w C.a J J J ).).).).`.^.5.5.J pX6.6.7.5.J pXpX^.pXpXpXpXpXpXpXpXJ ).sXpX6.pX).pXsXH 5.6.v ).`.6.pX).J sX).pXpXpX6.pX).).pXpX).J 5.pXJ pX).).).).6.5.7.5.J sXsXJ pXuXJ dX'.).).).J 6.pXsX).5.6.J J 6.pX6.6.pXpX8.D J pXpXpXJ 6.J ).9.w.lXMXt.NXNXBX1X<Xj.Z.G.A.G.r p J J (.).J pX/.`._.aXH J ~.^.7.7.).`.pX5.J `.sX`.5.D J uXpXJ 5.3.F (.J J 6.3.A ).pX^.`.8.D (.7.4.uX[.pX7.gXbXXX/.pX).5.7.).`.H `.hX`.(.6.pXdXfX(.D 6.).pX7.D pX0XV J J J D 4.6.6.J 5.6.J ).pX).>.N `.uXS pXJ J 6.J ^.6.J J pXD fXxXlXu.i.i.p.p.BX1Xe.H.Z.G.r r A.i V.Y.6.H ).6.6.6.(.pX6.6.).).).pXpXpX).w.z 8.E.).pX).pXsX).6.pX).5.6.J 6.).pXpX).sX6.J ).).pXpX8.J J 6.uXsXpX).pXpX(.pXpXpXJ 5.7.4.dXQ.(.6.J gXuX_.sXE.J yXR.2.H 6.C 5.`.).7.5.J J J 6.pX`.).6.J J ).`.).5.rX~.pX).^.H pX).pX/.!.).H N y.t.i.NXNX",
"u./ l.w i G.i S.yXSXC L j b L ).).).pX).).).J 6.6.J J J pX6.J pXJ pXsX).6.pXpX).6.J J J pX).6.7.pX).).6.5.3.pX`.`.J J pXJ 1.#.m pX6.7.(.).pX).).6.pXsXpXsXpXpXJ 6.e.} M sX).).pXpXpXpXpX8.8.8.J 6.6.2.-.L J pX).pX6.`.sX).).J J ).).).).pXJ J ).!.fXCXu.u.NXu.mXa.;Xy C.C.C.C.u A J ).).pXJ ).).6.pX6.G J 6.pXpX`.).).pX6.6.J pX6.J 6.6.pXpX3.K pXpX7.K ).sXpX).zX$.!.pX).7.6.).).pXpXpX6.pXpX).J pX).pX,.M ).pX).pX).pX6.6.sXpX6.H 5.6.6.6.J J 6.`.6.5.5.H pX6.6.6.J 6.6.pXpXpXpXpX6.6.pXuXJ J pXsXpXJ H 6.9.e.%.y.s.BXt.y.CX^ - F.A.G.r G.u B _.).).).).).).5.C _.sXH 5.8.~.pX5.6.pXZ H pXaX2.(.J J pX).).sX(.F 6.H 6.iX/.H pXV 6.8.~.D pX).`.pXaXpX_.).7.G ).pXaX6.J J (.5.6.pXA 6.5.5.sX/.6.).G 5.6.sX(.pX`.`.).pX).J pX6.6.6.G H J 5.6.q.n /.pX(.4.).6.).).D uX).).6.^.^.xXqXmXNXNXu.y.i./ q.p e i r A.A.r F.pX).J J pXpX(.(.pXpXpX6.J ).5.7.J 6.gXbX!.sXsX<.~.pX).pXJ ).pXsXuX).pX).6.pXJ J sX).6.5.J pXsX`.pX).7.6.6.).).pX).J pXpXpX6.pXsXpX).pXpX).pXdX(.pXsX`._.gX4.F 8.4.L F 6.pXsX5.J 6.S ).J 6.).`.<.M 8.A iXS pXuX`.).E.).).).).(.^.uXE.MXmXBXi.t.",
"a.CXP.a C.G.A.J.).nXGX&XhXW.R.(.).6.).).6.J J pX).pX).6.J pXpXpX6.J 6.6.).).pXpXpXJ 6.J J 6.6.6.5.6.J aX,.M (.pX).pX).6.).w.nXT.G pXuX_.7.D ).6.pX).J 6.6.6.J pXJ jXxXE.).pXpX6.pXpX).aXw.;.&.k L 9.0.B !.D D ).pX).).).pXpX>.S 6.).).J pXJ ).D K 8.CXCXNXNXa.p.mX0Xe C.C.C.e L./.H ).).sXpXF pXpXJ aX^.).pX6.pXJ sX6.6.6.6.6.J pX5.J pX6.5.tXR.7.6.7./.J J J 6.aXyXJ G G 6.`.).pXpX6.pXpXJ 5.J pX).).9.yXXXK pXJ J pXpXpX).pXaX8.K J aX`.sX`.6.S G 5.8.S D J 6.6.6.).aXuX).pXpXpX6.7.6.6.6.7.C H sXsX9.K J w.%.%.y.VXBXmXMXCX~ & F.A.G.r A.u g ).J J 6.).5.J 8.R.H 5.pX5.(.J 5.J ).sX`.H J 9.E.(.pXJ J ).).J pXpX5.G H 6.pX6.6.).J sX/.pXpX5.F pXpXsX7.G 5.J H 6.pXpXpX(.6.^.(.aX4.S aX4.H 7.J ).pX).).aX3.K ).5.G G J 6.J pX^.dX`.D D ).).hX'.V 6.J 6.G pXS J ).J pXJ ).).(.q.d.mXCXNXNXi.BX/ lXJ.y i A.r r A.u B pX).).J pX).(.pX).).aXJ J pXsXpX6.pX).uX).pXiX(.6.J 6.^.).).pXpXpXpXpX6.sX`.).pXpX6.).).J 6.pXpXpXpX).6.J J 6.pXpX).pXpXpXpX6.J J pXpX).pXpXsX(.dXJ H gXdX6.H _.{.(.J ).7.V (.`.`.6.6.^.D J iX'.gXE.`.uXJ ).).J ).).).J ).(.D (.`.mXmXi.NXCX",
"CXa.h D.G.A.A.a J J `.jXwXB sXH J 6.).).).`.pX).).6.J pX`.).pXpXsX4.J pXpX6.).pX6.).).6.J ).pXpXpX).).aXjXXX).).).pXpX6.J 7.bX'.J ).).pX6.'.pXpXpXpXpX6.6.sX).).).).).sXpXpXpXpX6.6.<.-.e.0.0.L m pXvXXXR.sX^.J pXJ pX).).sX%.n ).H pX).pXpXH pXZ fXs.t.i.u.CXBXCX~ y C.C.A.Z.B aX_.).J ).sX).6.6.pX6.6.J 7.J J 4.C 6.6.).pXpX).pXpXpXJ pX`.pX0.L pX).).pXpXJ ).pX6.pX`.pXJ ).7.G pXpXpXpXsXpX).6.6.6.sX{.sX`.J 6.J D 6.6.5.6.pXiX`.J (.pX6.pXpX`.J 6.`.`.pX).J pXuXJ 5.).pXpXpXpXpXsXpX6.6.dX<.m 5.8.,.~.J e.qXtXlX%.i.y.y.CX:Xj.F.A.i A.i D.T.J ).J J J 6.)._.`.6.D J pX).pXpXD (.).pX6.J 6.`.).).).`.).pXpXJ 7.5.^.S J 6.).pXJ 5.F 6.5.5.4.S 5.6.5.7._.9.>.Z J pXpXpXJ J pX6.6.sX).7.).).J uX6.(.`.7.4.tX!.8.3.~.).J J J D J 7.6.(.J J ).).`.6.).).pX/.S `.J J J 5.J ).(./.xXSXu.t.BXCXy.p.a.e.g V.i A.r w i B.T.sX).J ).pX).J J pX5.pXpX6.J 6.6.).pXaX(.pXpX).pX).pXpX).pX6.J pXpXpX6.pX6.).J 5.5.6.).pXpXpX).pXpXpXpX8.J ).pXpX).pXpX6.6.pXpXpX).).uXH pX).).).7.`.(.sXhXdX`.S 5.F ).).aX/.).J J pX^.aXE.(.pX).sX/.J ).aXA 6.J (.).).pX(.(.J H D MXCXBXi.a.",
"CX^ j.V.G.i A.u B sXpXJ hX!.J ).).pX).J ).J 6.).6.pX6.D J pX6.).6.uX).6.6.pX).pXpX).J pX).J 6.).pXpX).J 6.G ).pX6.J 6.pX).uXJ ).sX).pXpX).).6.).6.pXpXpXpXpXpX).).6.6.J J pX).pXpXpXgXw.0.w.'.cXT.Z '.hXiXpX8.D pX4.J ).).6.jXW.J (.J 6.6.pX).J S 8.a.t.u.u.CXmXCX! h.C.C.C.V.g B pX5.).J pX6.6.J 6.pX).).sX`.pXdX/.).).).pXpX).6.5.6.5.).pX7.yX{.J ).pX).aX`.J pXpX).).sX`.6.1.D J 6.).pXpXsXD 6.).).pX6.J 7.D pX).6.A J pX).sXpXJ pXpX5.J 6.6.D 7.V J 6.pX6.D J 6.pXpXJ pX4.J 6.pXpXaXsX`.pXjXA ,.@.R.D D w.SXe.q.VXBXmXMXu.:X- u A.G.i e I._.H J pXH J 6.(.).J 6.J G J J ).sXsX^.).6.6.5.J ).6.J ).J 6.6.5.7.8.S _.pXD ^./.sXsXdX^.6.pXpX^.6.H pXpXsX`.aXyX'.pX5.J pXpXJ J ).pXpX).aXJ `.uXJ sXJ 5.7._.hX^.8.E.`.pXpX5.5.5.2.G `.uXJ D J 3.;.l L 6.J J ).J 6.H pX6.J 6.Z ~.tXVXVXmXi.NXZXi.t.SXL.y i r A.A.G.V.d C 7.J ).).).pXJ J sX).pXpX6.J pX6.J uX`.pX6.pX).pX6.pX8.H pX).5.5.pX).aXE.).uX8.J J ).).).6.pX6.pX).9.2.Z ).pXpXpXJ pXpXpX).pXpXpX).pX^.6.sXJ 6.).).).).pX9.G 2.J H L J 9.Z ).`.0.z 6.uX'.6.).`.`.pX(.2.3.rXD ).J ).J 6.H H J H pXBXa.NXu.NX",
"mX<Xa V.G.G.A.C.R.6.pX).6.(.).).J pX).).6.6.).pXpXpXpXuX).pX).J ).).pXJ pXpXJ 6.6.6.J F pXsX).pXpXpX).aXD ^.H 6.pXpXpX6.).pXpXJ 6.6.3.J J pX6.J 6.J pX6.pXpX).pX6.8.D pXJ J pXpX).6.8.jXxX8.!.Z ].).Z G 6.pXuX`.pXuX).J ).).).sX).).).J 6.).J J (.9.t.a.u.u.NXu.a.:XB.C.C.C.r j.'.6.).).).).).pX).).pXpXJ pX5.D 6.6.6.J J pXpXpXpXpX7.J (.pXpX).4.).pX6.6.).sX).).pXpXJ 6.6.6.`.sXpXpXJ J pXpX`.pXpX6.6.6.pXsX`.J pX7./.).pXpXJ sX`.).pXsXpX).pX`.pX`.J pX).pX^.J 9.K ).pX6.rX8.F 5.5.6.pX7.J 9.h yXyXpX).D w.SXlXjXZXmXVXVXCX! - F.A.G.i F./.).(.H 6.5.F J (.).J pX6.J !.`.).7.D J 5.6.6.pXD F pX).D pXJ pX6.`.hX[.J ).`.J 2.J 5.5.5.K pXpX6.^.J J 6.).sXpX).6.5.7.H 5.6.pXJ J 6.^.pXpX`.J 8.*.L 6.G J J 7.8.`._.5.5.5.`.`.fXuX(.5.J pX^.iX} { L.P.S ,.M E.`.6.J J pX).6.Z <.9.xXp.u.NXi.a.u.mXq.g y i r r r G.e L.h M K H ).pX6.).).pXpX).aX6._.sXpXpX6.6.pXpXpXJ 6.7.J uXJ J pXpX`.).6.pX`.).pXsX`.pXJ ).6.<.(.pXJ J tXrXT.).pXpX).pX).J pX).pX6.).).6.(.sX).sXpX6.J J J 5.gXfX).L 8.v M dX!.H 0.:.T.~.).pXD (.).5.D 8.1.Y.sX`.).`.).pXpX(.H D Z 6.BXa.u.u.i.",
"y.^ & V.G.A.A.F.B pX).J pX(.J pXJ J J J pX).J 6.6.pX).pXJ J pXpXJ pXpX).pX6.pX).pX).sX(.J 6.).).pXpXpX6.uXD ).pXpXpXpX).).J 6.5.J pXiX_.`.J pXpXpX8.D pX6.pXJ 7.6.sX`.).pX8.A pX5.7.iX6.SXkXn '.!.).D S pXdX^.J aXE.J J J pX).J pX).).pX6.).).J !.kXt.NXNXi.u.u.CX0XB.C.C.C.C.F.C 7.D ).).pXJ J `.sX6.`.pX6.pX^.pXpXpXpXJ J 5.).pXpXsX`.A 5.3.5.^.).pXpX`.sX).pX6.).pXpX6.5.J 6.G 5.pXpXJ 6.J 6.J 6.6.pX6.).pXpXpXpXpX).pX).pXpX6.pX).pXpXpXpXpXpXpX).6.J pXpXpX5.sX`.J 6.J 7.dXD D ).sXsXsXpXsXyXJ 7.pXpX5.gXlXlXq.u.VXmXmXCX^ * h.A.G.A.g 7.).J 6.C D _.J H pX).5.(._.^.5.J aX).5.D (.sXpXuX_.J sX).6.5.D pXH J 6.).J J 7.4.G 7.^.iX^.5.6.uX^.pXpX5.G 5.5.J 6.pXuX).4.~.6.6.).pX6.5.D pX2.#.f Y.`.9.K J 5.pXH G pXpX`.J 3.8.4.J sX).J J ^.#.j g sX_.yX'.B 1.6.).).).).pXR.dX9.q.t.u.u.y.u.BXt.#.a e i r A.A.G.V.L.jX].{.(.).pXpXJ J 6.pXpXaX`.(.6.6.).`.sX).pXpXsXpXpX).pX3.F 5.).pXpX).).).6.6.pXpXpXuXJ pX`.G 6.6.(.sXyX_.5.J pXJ ).sX6.J J 6.`.).pX`.^.7.).pXaX4.H pX`.pXdXdXjXgXA {.].!.).).zXQ.].pX).).uXS pXpXuXJ {.[.).sXJ H pX6.J H J `.(.`.MXCXi.u.t.",
"t.^ j.C.G.A.A.G.Y.pXJ J (.pXJ ).).pX).).).).6.J J 6.J pX6.).pX).).pX6.J pX).pX6.J ).pX).J 6.J J pXpXaX4.).^.).pXpXpXpXpXJ J 6.uXJ J pX).J 6.J pXpXfXD J pX`.9.S pXpX6.J 7.uX/.6.pX).9.0.w.jX'.Y.sX(.{.D (.pXpXD 6./.).sX).).6.6.J ).J pXpXJ D 6.L q.ZXt.s.i.u.t.s.%.e A.C.C.V.g @.K S J H pXuX^.D 6.pXpX6.pX).6.pX6.).pXpXpX6.J pXpX).aX$.D iX`.(.pX).`.pX6.6.5.pX).6.6.pXpXG 6.).).).sX6.6.).6.6.).).pXsX6.6.J 6.pXpXpXpX5.C J pX).).6.pX).6.pXpX).pX6.J J 6.pXfXJ pXJ 6.6.6.pXsX).J J 7.7.8.H 7.dX6.6.7.7.6.d.,.kXNXi.MXmXCX2X& % G.i A.g 6.pX4.).fX!.J ).H J 7.<.Z J J ).6.pXaX).(.G G 7.J 6.G J J ).uX^.5.7.F 6.(.).6.).sXpX(.).8.N J J D 5.6.5.pXpX8.H G G ).6.5.^.).6.J J 6.pX).J J e.d.P.!.5.pX`.G ^.6.J J G 6.6.6.pX`.uXJ J ).).J <.,.-.q M J J ).G G 6.J J J J 6.B D gXp.t.u.NXt.p.NX/ q.J.V.i A.r A.i V.Y.9.T.`.pX).pX7.G J `.).sXpXsX6.6.pXJ 5.6.pXpXpX6.pXpXpX6.sXD H J J pX).pX6.6.).).pXpXpXpX6.sX@.h sX).J pXaXiX(.pXpX).6.).pXpXpX6.D J pX6.uX).5.pXhX^.J ).7.0.;.v 0.H F L F Z J pXiXJ ).).J sX4.H J pXD F J ).pX).(.pX6.).).!./.(.~.SXCXu.i.u.",
"qX:X& C.H.A.G.C.Y.sX`.pX>.C J H pX).).pX).pXpXpX6.J ).5.).).6.6.6.6.pXpXJ 5.5.`.).).).).).pXpXJ 5.J pXsX).).J 6.J 6.6.pXpX).6.).pX).6.6.J 5.J 6.6.).fX(.J 5.dX).6.6.6.7.6.).6.J 6.J gXgXw.K .XQ.dX!.6.9.N J 6.`.`.).6.F J 6.J pX^.).).pXpXpXJ pXZ 9.CXCXu.i.i.t.ZX%.Z.C.C.C.e J.XX'._.).).).).pX).pX5.6.5.5.3.J pXpX6.).pX).9.V ).pXpXaXyX`.).).J ).pX5.6.6.6.6.J J 6.6.J 6.uX).pXJ J pXdX(.6.6.J ).pX6.6.pXpXpXpX6.J pX6.pX`.(.6.pXpXpXpXpXpXpXpXpXpXpX).).).J sXpXpXpX6.6.J pX).pX6.J 7.7.pXpX5.6.7.A pX7.7.e.kX1.CXu.y.mXa.2X- h.G.G.A.u A J `.).aX^.).).J 3.G `._.J ).5.6.A J 6.G `.pXD ).pX(.pXJ 5.5.J 7.(.^.).J 6.pX).6.`.sXpXtXW.`.^.6.5.A 8.A A uX^.).`.J 7.).).5.pX6.J J ).8.A pXlXwXW.H aXJ 7.E.pXuX(.9.@.B pX).G ).).).uX2.C ).kXtXgXZ g m uXJ ).6.6.J J J J 6.R.3.,.NXt.i.NXCXBXNXmX,.a V.G.r A.w i V.T.tXR.pX).).sX9.!._.J 6.6.pXpXuX).pXpX6.J ).pXaX6.pXpXpX).sXrX_.`.pXpX6.6.6.7.H pX6.6.pX7.).).rX/.6.6.J pX).pXpXpXpXpXpXJ 6.J pXpXpXJ 6.uX(.6.^.pX).pXpX2.2.0.0.2.2.F D !.].J C D D ).J pXpXA `.pXJ H w.z !.6.J J ).pXpX).J Z A F ^.e.t.u.NXa.",
"r.%.a Z.G.A.A.F.~.).6.pXjXrXS F J ).J ).pX).pX).pX).pXpX).D 6.J pX).6.pXpX4.(.pXpXJ ).).).).pXsXpX6.J 7.D J pX6.).pXpXJ pXJ 6.J J 6.).pX).pX6.D pX).pXsX6.6.J 6.pXpXD pX_.pXpX6.J 6.8.zXxX}.T.gX2.C C sXQ.).pX).4.D fX$.L pX).).).).).6.6.6.6.D D 9.a.a.NXNXu.BXs.%.Z.C.i C.A.u ~.D H ).J J ).).7.6.pX6.8.0.V !.pX6.).pXpX).fX{.J 6.6.pXJ pX).pXpXJ 5.pXpX5.pXpXpX).pX).pX6.J J pXJ ,.f D pXpXpX).J 6.pX6.6.pXpX6.6.J 5.).8.z K pXD J 6.6.pXJ pXpX6.J pX6.J 6.J J 6.6.6.pXaX(.J 6.pXsX6.7.pX).pXpX6.aX{.6.aX9.zXeXqXNXmXNXt.a.2Xl.y G.A.G.w g pXS pXpX_.(.G 7.`.].6.).J 6.pXpX/.uX4.^.H sX`.sX8.K J pX6.pXS pX`.J 6.5.A (.6.^.).6.6.pX).5.7.J aXJ 6.sX~.6.pXH ).6.6.J 5.J 5.6.J 5.J sX`.6.dX/./.~.9.A )._.6.6.6.dXyX'.pX7.uXD 6.D 6.e.h F fXeXyXQ.I.L.J ).8.N ).pXJ 6.J ).K <.9.y.mXBXi.BXi.i.CX#.& Z.G.r A.A.r C.!.gX~.6.).).0.8.!.5.J pX).pXpXpX).pXsXsXsX).6.).pXpXpXpXpX).pXpXJ J pX6.pX6.sX^.J pXsXpXsX^.pX).pXpXsX`.pX).J pXpXpX).1.M ).pX).pX).sX).).6.^.J 7.6.J pXgX].nX1.2.C !.].].H 9.~.D (.J 6.J pX`.).6.).(.jXQ.Z 6.4.S J J 6.).).(.).!.4.p.s.u.i.a.",
"( %.C.e G.G.A.J.`.pXpX).J sXsX).(.).).).pX).pX6.J ).pX).pX).pX).J 6.6.).pXsX(.6.6.J ).6.C 0.@.z 2.D pX6.`.).pXpX).6.pX).pXpXJ ).pX).6.6.).6.uX).J 6.J 6.pXpXpXJ C 7.pX).D 5.pXpX).pXdXdX XfXZ gXq.B (.B ).pX).7.D ).7.bX!.J ).6.pXJ J 5.7.pXpX6.J 7.CXa.u.i.NXBXCX0XZ.C.C.C.C.F.pXdX~.(.).(.).6.pX^.7.6.uXyX].).6.pXJ 6.7.J ).pXpXpXpXpX(.pXJ 6.6.).pXJ pXpX).pXJ 6.pXpXpXpX5.J D q.:.b m 8.2.G J ).pXpXpX).).pX6.).<._.).tX0Xn ).pXJ pXpXpXpXJ pXpXpX6.4.D 6.).).6.6.).pXsX).8.J J 8.8.pXpXJ pXpXaXsXaX7.7.aXsXlXSXCXmXmXZXZX2Xl.B.i r i A.a ^.^.(.pXJ 1.@.m _.5.6.).6.J ).).J 6.sXpXJ D 5.5.7.5.Z pX6.).).H 6.7.).dX`.H 6.J 7.6.6.pX).6.6.5.4.J pX).6.5.D (.J 6.pX).pX6.).pX6.6.J 5.3.G 8.A _.6.uXiXJ G 5.J 7.G G 7.3.D J 6.).).0.E.{.D S uX/.`.iXpXJ J dX/.H pXpXJ ).pX).^.q.BXi.u.MXMXt.p.s.i.& V.G.A.r r w J.6.sX).).).pXw.B `.pXH ).6.J pXpXpX6.J 6.pXpXsX).6.pXpXpX).).6.6.).6.D pX6.).).pXpX5.D sX).pX6.6.pX7.J J pXpX5.J 5.6.6.dX'.J pXpXJ 6.J ).uX(.6.6.J pXD pXiX].lXzX{.Q.T.!.5.Z sX^.uX(.J 6.).).5.N (.).pX(.`.).pXsX).J ).pX).).J J F 6.u.a.i.VX/ ",
"1X:X& g i A.C.J.8.K ).pX6.J 6.).).J ).pXpX6.A ).J 6.pX6.6.6.J ).6.pX).pX).pXpXpXsX).J gX<.2.p.h f m pX(.sX3.J 7.J pXpXpXpX6.J J 6.J 6.J ).sXpXJ J 6.5.5.5.6.).9.h !.pXJ pX).).pXpX6.pXgX2.w.L D jX[.!.'.pXJ 6.fXE.).`.).pX).pX6.J 6.pX,.S pXpXpXH aXmXa.u.u.i.u.CX$.Z.C.C.C.V.a z H `.).J (.pX6.J 7.<.(.pX).pX`.sXpXsXJ sX0.z ).pXpXpXpX).6.pXJ 6.5.G sX).pXpXsXfXV ).pXpXaX`.`.pXnXnXjXL.gX$.n sX^.6.pX6.6.6.7.).6.`.pX7.pXcX'.6.6.6.J pXpXpXpXpX6.J pXsX).6.J 6.5.J pX6.pXpXuXuX6.pX`.sX1.Z pX6.7.5.aXaXpXdXgXxXSXCXt.i.t.CX2Xl.B.i i i A.i (.J J 7.H gXwXK.F J ).J J ).H `.sX).7.A H G 7.6.5._.(.6.8.A 4.K 5.6.D J 6.D J 6.J 7.6._.pXpXpXuX`.).`.pX4.uX(.J J ).pX6.6.J J 6.).6.3.J pXJ fXQ.).J J 7.6.D `.).sX/.pXpXiX/.6.H 8.*././.).`.).pXpXJ G J (.).J ~.rX6.J ).J (.^.^.xXMXNXNXi.p.CXp.t.MXj.V.G.A.i i V.a ^.).).).pX5.,.Y.F sX^.6.6.).pXpXpXsX6.6.J 6.pX6.(.pXpXpX).pX).`.pXpX`.pXpXpX5.6.pXfX!.6.6.6.pX).6.uX).7.H sXsXpXpX6.6.pXJ ).).aX4.H pXJ ).pXpXpXJ 6.D J (.J zXbX/.Q.'.H D Y.1.z !.pXJ pX).pXgX].6.A H ).J J 6.6.6.J J J ).).).5.Z /.mXa.i.e./ ",
"CXCX- J.G.A.S.a >.n 5.J pX).pX).5.).).).).9.>.H pX).).pXpXpX).J 6.).J 6.).).pXpXpXpXJ dXq.-.eXKXQ.W.).).9.E.(.sX).pX).5.G 5.J ).pX6.pXpXD J 6.pX6.A pXpXpX).pXaXQ.J 7.pXD J 6.J 6.pX).gXyXgX{.~.aXaX!.J pX8.V pXfXS pXJ ).J 6.).uXuX8.$.R.pXpXsX_.pXmXCXt.i.NXi.CX;XZ.C.C.i V.j.P._.(.).).J 6.uXpXpXsX).pX).pXpX5.).pX`.).lXR.!.pX).pX).pX6.J 7.D gXS 6.pX).).pXsXsXpX).6.).).pXpX`.jXbX/.6.yX].6.7.J pXpXpXpX6.J ).).pXsX).6.J pXpXpX6.J J 6.5.6.pX7.>.S pX6.pX6.6.D J pX6.5.J pXpX`.pXaXyX`.6.pXsXpX).gXpXsXdXjXVXs.a.i.u.s.( - Z.r G.G.r F.H J J 6.J F iX/.).(.pX6.5.G H D 7.J fXQ.`.pXJ pX`._.6.G 1.rX).`.).uX6.J pX_.).pXpXpX`.G 5.7.7.J 6.).6.6.uX`.aXG D J 6.6.4.(.6.J 7.7.sXJ pXpX_.).6.6.D 7.6.J J J J 5.5.J pX7.6.pX%.P.).).).).J 5.pX).J ).J J 6.A >.6.J D ).W.yXD w.u.BXu.BXZXZXp.p.} * V.i r G.G.A.u S pXJ J J e.rXn !.).).aX2.Z sXpX6.pXpX).pX).pXsX).6.pX6.).pX).pX).).pXpX).aX).).pXsX`.4.A ).).pXpX).pXsX6.G pXpXsXpXpXpXD ).6.pXsXJ G pX6.D J pXfXD 6.).).4.sXgXjX{.`.).).Z gXwXZ 6.^.).3.K `.).pX/.).J J D J pX6.J J J J D 7.pXZ K mXCXu.p./ ",
"/ s.; B.G.G.A.J. X'.H ).).pX6.H sX).).pXH zX%.n ).).pX6.6.).).).).).6.pXJ 6.6.pX).pX).pXxXXXW.hX{.sX).5.uX`.).).5.).pXaX8.G (.).6.).).pXsX,.M ).aXE.J 6.pXpXpX9.*.z Z 3.D ).6.J 6.6.).pXgXhXcXsXsXhX_.).pXpX^.J pX^.fXV J pX).J J ).dXyX^.pXpX).^.`.DX3XCXi.i.i.t.$.Z.C.C.G.C.Z.~.sX).6.J ).).6.pXaX>.H sX6.D pXpXJ 5.6.5.hX X).pXpXpXpXpXpX6.6.pX6.J J ).).5.5.5.J pXpX).pX6.pX).6.6.5.aX).).7.$.S J J 6.).9.-.Z pXJ pX).7.J ).6.6.6.pXpX6.7.5.(.).aXyX^.pX`.pXpX`.uX`.6.6.).J ).pX6.6.).6.7.pXsXsXsXpXdX{.hXgXgXMXmXu.BXu.a.2Xl.y G.A.G.C.g J J ).pX).pX,.z Z J 5.5.).).H D pXpX).).6.aX`.(.).).sX`.[.hXpX(.pXpXuX).).J 5.5.6.6.6.6.D 7.5.J G J 5.).).J dXsXJ G D pXsXJ pXJ pXuX7.(.6.6.J 5.G ).pXpXuX).^.8.J uX_.pX5.7.V 0.kXY.5.J J ).pX).pX8.S ).pX`.pXpX).).pX^.(.B 0.2.0.i.t.NXBXp.s.VXr.p.% C.A.A.A.C.A.Z.B 5.).).9.fX.X].(.).).dX0XY.pXpXpXpX).pX).6.J pXpXpXpXuX).pXJ pXD J sXpX6.pXpX7.J ).).sXiXpX).).pX).pX).gXS H J 7.pX`.aX).pX4.~.6.9.S J pXuX4.6.6.).`.(.`.).pX7.`.hXdX6.!._.).iX/.).).6.fX'.G J ).J 6.6.D J 5.D pX6.J (.^.).sX).(.J t.a.NXu.a.",
"( s.l.V.G.G.C.L.sXuX).J ).pXsX(.7.D (.pXpX:.$.!.pX6.J sXuX).pXpX).6.).pX).J pX).pXpX).pXhX{.5.).J 6.pXpX).pX).6.fX~.pX7.gX!.(.pX).J 6.pX6.jXW.J 6.pX6.J 5.6.pXgXjX{.C 2.N ~.sXpXpXpXC 5.sX_.7.gX`.gX>.~.6.J 7.3.H pXpXsX).6.J ).).6.J ).sXpXpX).`.S %.<Xt.NXi.i.s.$.y C.w C.r Z.Z 7.G H ).J J ).pXaX{.6.C ).`.pXpXpX6.J pXJ 5.).pXpXpX6.5.J 0.>.(.`.).).).6.<.G (.`.pXpXpXpXpXpXpXpXpXsX6.H 6.6.yX'.pXJ pX).w.7.m ).pXJ 6.uX`.pXpX6.6.6.6.6.pX).J 5.6.J 6.).5.5.).).).pXpXpX8.C J 6.6.pX7.5.6.pX`.sXaXsXsX4.4.hXjXMX/ i.BXu.ZXCXh h.G.G.r A.u J ).J J ).pXjXE.n pXuX(.J ).).J 6.5.J 7.3.J 6.J 2.l Z pXF 5.6.5.J ).).pX6.J J `.pX).pX).sXpXpXJ ).J ).J J `.).sXsX).J D pXpX6.6.5.5.).pXpX`.J 8.S J 5.J 6.pXG pX_.pXJ 6.pXJ gX9.<.R.`.(.J 6.).pXpXuX`.J 6.D 5.6.,.b J ^.5.C D '.lX%.MXy.mXMXp.ZXa.qXj.e G.r A.A.r w E.iX).3.fX{.uXJ ).).pXpXsXuXJ pX6.).pX6.pX6.).pXpXpXpXpXpXpXpX).dXG G 6.6.(.pXsX).).6.).pXsX).6.).6.J ).aXhX).6.6.(.7.4.).pXsXD pXdX_.pXJ 8.D pXJ ^.).).J ).pXdX`.sX9.).!.(.7.J ).6.6.7.S ).pX).).J ).pX).pX).^.6.).).H ).J 6.).H ^.VXCXu.NXCX",
"1X:Xj.w G.G.Z.B 7.(.).(.J 6.J pX`.[.).J 7.qXW.J ).pX).J 6.J pXpXpXpX).pX).).pX).6.pX).pXpX6.J ).pXpXpX).pXpXpXpX`.pXJ gXdX].).).pX4.(.pXpXsX).pXpX6.).9.*.Z pX).gX0.2.F R.^.6.6.).gXtX!.6.5.pXdX).sXyX^.6.pXsXyX_.pXpXaXA <.E.J J uX`.J pXpXsX).H gX%.p.u.u.NXt.s.$.e C.C.w C.K.S 6.).Z ).).).J 6.pXF gX^.H 5.6.5.pXsX`.).pXpXJ pXpX6.pXuX9.:.Y.`.pXpX).pXpXhXiX(.6.D J pXpX6.6.6.6.6.6.aXH 7.5.2.G pX`.).6.9.dX!.H 6.pXJ 6.6.pX6.6.pXpXpX6.).pXJ ).pXpXJ 6.4.^.pXpXJ 6.6.9.$.Y.6.6.>.J sXpXpXF J pXaXsXaX`.'.sXhXwXp.i.p.u.t.1X- B.i r r A.u Z 5.J (.pX6.5.{._.5.J ).J J J J J pXpXpXsX).).1.#.h j 5.J J J `.^.J 6.7.<.~.pXJ 6.D 6.5.5.7.5.J J (.).sXJ 2.G 6.2.2.6.J J pXpX`.aX`.J pXpX6.5.J (.6.).6.V ^.aXF C 5.J J pX8.A gXQ.'.).6.J J J J 6.4.H J ).uXJ J jXW.).J ).`.!.iXq.lXmXt.i.VXVXi.mX%.j.e G.r A.A.G.e g J aXrXS C ).uX).J J pX6.J J 6.pX5.J pXpXpXJ ).sXpX).pXpXpXpX6.7.;.L pX).).J pX6.).).).pX).pXpXpXpX^.pX7.J 6.pX`.pXfX^.).6.6./.J sX4.J `.sXsXuX3.Z pX).).).).pX6.0.gX).!.(.7.F J 6.).uX~.J ).uX).uX6.6.G J ).6.).pX).(.J pXpX3.R._.i.t.u.u.CX",
"VXeXl.V.G.G.C.s V `.).pX).uX).J 5.F J ).pX`.).).).pXpX).pX^.6.).pX).6.6.pX).).pX6.6.J G J sX).).pX6.J ).pX).pXpX5.J 6.pXsXpXJ pX7.D 6.6.6.pXpXpX6.pX).tXQ.(.6.J gXxXiXR.R.J pX6.5.6.[.pX6.).J 7.`.pXpXpX7.D ).J 6.4.^.sXhX`.`.uX`.uX`.).).).pXpX).H mXt.i.mXu.mXs.W B.w C.w K.].F 4.S (.(.6.).).pXpXpX6.pX`.`.sXdX).).pX).pX7.(.).pX).6.6.gXnXY.F 6.pX6.J pXpX`.pXpXpX(.pXsXpXpXpX).J 7.<.H 7.0.Z _.).pXpX7.0.F H J J pX6.J pX6.pXpX6.pX).pXJ pXuXJ pXsXpXJ ).).pXpX).pXpXpXcX`.6.pXyX!.aXpXpX0.M (.pXsXdX_.sXsX{.kXi.i.NXi.u.( l.B.G.A.r A.i n N J F 5.).uXD 5.).).H ).).J J G G J ).).sX).kXwXLXP.S ).uX).J 6.J 6.pX/.^.6.pX).pX).pXpXdXiX).(.(.3.C e.z m aX#.# M J (.J pX6.8.J uX6.6.7.pX~.7.D ).dX/.D sXq.f Z J J pXgX0.R.(.J 6.pX).).).J ).`.).).J 5.6.J J ).).J J 5.K 3.q.e.f.mXu.t.mXBX2Xp.& V.i A.w A.r Z.W.,.z '.jX'.(.pX`.sX6.).aX8.*.C 6.).^.pXpXpX).J G sX).6.pX6.7.(.fXyX].sX).).,.z ).).).J pX6.6.6.5.).).6.pX).).pXJ pXpXsXaX^.6.5.).pXuX_.J 5.J sXhX!.).pXJ 8.2.>.>.C H aX!.5.5.(.J D 6.^.^.).).6.J 4.S sXsXuXD ).J J ).(.).).6.iXY.6.t.s.i.NXt.",
"mXr.- V.G.A.A.Z.Y.pXsX).).5.6.5.4.~.J J 6.).).pXpX).pX).).pXpX).pXpXpXpX).).pXpXpXpX).aX>.M 6.6.J pXpX).pX).J pXuX).pX).6.pX).).tXR.6.).pX).pXpXpX).pXsX`.6.6.6.pXiXcX{.pX(.pXpXpX).6.pXpX).0.V `.pXpXpXsXsX).pX^.`.).).).pXpX`.).6.D `.`.).sX`.[.9./ y.i.i.u.mX/ $.B.C.C.V.J.[.'.dX^.(.6.J (.6.pXpXpX<.~.pX).pXpXpX6.J pXpX^.).7.J pX6.).aXyXQ.S ).).pXpXpX).6.pXpX6.6.J pXpXpXpXpX6.pXiX).aXtX!.J J ).7.9.gX(.Z F ).pXpXpX6.5.6.6.).pX).pXpXD 6.).J J 6.pXJ 5.D pXpXJ sXsX5.7.^.).J 6.pXpXpXjXXX).pXpXsXpXH _.`.y.u.y.y.BXu.1Xl.e r r A.r S.T._.S ).).J J `.pXJ J ).J pXJ J ).pXJ J J 5.7.sXyXQ.{.sX(.J pX).J pX6.^.pX6.6.6.J pXpX6.6.6.pXsXpX8.V <.jX|.W.J xXU.W.'.uX6.3.A uX).D 6.pXpX^.).sX^.J 6.).6.J fXbX_.6.5.C 9.rXR.aXJ J pXpX).pX^.J J 2.z J J ).).).H ).pXJ ).pXF lXBXp.i.CXu.mXu./ qXj.e G.C.r C.r F.^.nX0Xn aX).pX).).7.pX).7.gX0XR.(.).pX6.D ).).7.C H aXpX6.pX).).6.`.pXpX).).y.f j pX6.pX6.6.pXaX).).pXpXpX6.2.N 6.J 5.J sX`.gXE.sXaXpXJ 6.pXpXD J 6.C ).6.7.hX XcX{.(.pX3.C (.G A ).).).J ).pX6.(.sX`.J pXpXsXJ 6.).`.).).pXpX`.S 6.VX1XBXNXmX",
"1XqXL.V.G.G.A.F.~.6.6.pX).pXpXfX'.`.).).).).pXJ pXpXpX).).pXpX).6.J J pX).J 6.pX4.H ).9.%.a j 3.,.L pX).).pXpXpXpXpX5.).pXpX).pXsXsXpXJ J ).6.6.pXpXV 8.J pXpX).pX6.J 7.).J 5.5.5.pXpXpX).7.tX].pXuXpXpXpXpXsX).).pX).).pXpX).pX^.sX{.).).pX_.`.`.xX1Xt.i.NXNXa./ Q B.G.C.A.u S J 8.E.H J ).).6.pXpXpXrX~.5.J 6.pX6.pX).J sX6.pXsX`.pXpX).pXsXpX`.`.6.5.J pXJ J ).pXpXpXpXG 5.5.).,.B sX7.pXpXyX_.sX`.6.5.7.7.8.x m J 5.5.6.pXpXpX).).pXpX6.pXsX).5.7.,.B ).pXsXJ J pX6.2.3.pXsX`.7.4.(.pXpXpX).;.z H sX`.pX(.(.).t.i.BXp.y.i.p.; u A.G.r J.=XW.^.(.J J ).).6.^.`.).).).).pX(.J 6.J J J pX6.J 6.(.J J 6.D (.6.J ).pXG J pXpX6.J 5.5.5.6.pX).).aXiX{.sX{./.`.sXsXsX`.G 5.6.fX^.J pXpXpX5.6.J 7.A 3.5.(.).pXpX).F 7.8.pX6.`.{.J 5.).J 5.J J 5.N H aXtXW.Z 6.J J J J J 5.).J 6.H fXVXCXu.i.MXmXt./ #.& V.i A.A.A.C.J.H 7.<.!.6.6.).).6.).sX6.^.).hXdXuXH 6.aX`.).).9.G Z 6.sXpXuXpX).pXpX6.J 6.J xXqXn ).).6.pXpX6.6.pX5.6.6.6.pXtXW.).9.S ).).pXsXD 7.7.6.7.H J pXiX`.fXE.G 5.pX`.(.gXiX(.gX3.F F rXR.).).(.pXG J pX(.J 6.).pXpX).pXpX(.).J ).6.).).F H d./ BXu.t.",
"/ d.L.V.G.G.S.w n aX).).).pX).sX^.).).pX).pXpX).).pX6.).J 6.pXpXpXpX(.pXJ pX).6.sX`.).tXVXL j 6 ;.j M sX5.G ).pXpXsXpXJ 6.).J 6.5.J ).pX).pXpXpXJ pX5.5.).pXpXD J pXpX).).6.pX6.^.).pX).).gXV (.6.6.pXpXpXpXpX).).).pX4.D ).).pXsX).).sX).).).J 5.7.VXmXi.i.NXt.( ; B.G.C.C.Z.B pX6.D G (.).).6.pXpX6.pX).).).6.7.pX).aX6.5.).).pX6.6.).).pX6.`.).6.6.^.pXpXpX).).6.pXpXpXpX6.6.5.uX~.6.aX).).dX3.Z 7.9.7.6.7.w.4.m 2.Z pX).pX6.6.pXJ 6.pX).).pX7.6.).yX{.).6.6.pX).J pXrXE.).pX6.pX`.).6.J aXe.*.a '.).sXsX).(.9.s.i.MXVXMXCXy.h Z.r G.w J.6.6.`.).(.).).6.)._.pXJ J ).pX).pXpX`.(.pX(.).pX).).`.pX7.J _.).pXJ 6.6.`.J J pX6.J pXuX).D ).pX).sXsX5.D 3.F J 5.6.6.pXpXJ G J pX(.pX).7.4.H J ).iXuX^.).7.J ).6.5.7.uX(.`.).6.8.S J J 6.<.H gXrXH J `.sX).6.J ).J ).pXJ J J (.{.4.%.BXmXNXy.s.BX( ~ % V.A.A.A.r C.J.).dXyX!.pXpX).).`.pX6.`.`.6.J 6.pX).pXpX).pXpX9.H R.J pXpX).pX6.).sXsXpX(.pX).sXsX).pXpXpXJ 7.6.(.sX`.pXpX).pXsXpXiX~.7.J J 6.3.G sXaXsX_.pXJ J pXsXsXdX_.uX^.).pXdXpXdXjX).!.!.(.pX).).).fXS pX^.pXV ).5.J ).pXpX`.^.(.J ^.pXJ (.(.i.a.NXCXCX",
"1X%.l.V.G.S.G.Z.g aXpX).).`.`.).`.).).pX).).pX).).pXpXJ ).).).).pXsX).pXpX).pXpXJ 6.6.).nXnXB V A z f L aX~.).pXpXpXsXpX).pX).).pX).pXpX).).pXpX6.J pX).6.6.7.E.).pXpX).pXpXpX).J pX).pXJ aXhX(.9.V D pXpXpX).).pXpXpXiX`.).).pX).).).pX).).6.J 6.5.e.t.i.u.i.a.mXx.e A.C.C.u 0 L sXsX_.(.(.pX).pX6.).uX).).7.*.K _.dXsXsXE.).5.).pXpX).6.pX`.).6.J pX).pXpXpX).).pXpXpXpXpXpX`.pXpX^.sXaX^.).pXiX(.9.iXdX5.pXhXjXN L !.5.pXJ uX(.pXpXD ).6.6.6.pX`.).J 5.5.J pXpX).pX).).sX6.pXpX).6.pXpX).gXBXdXd M pX6.).).H e.s.BXy.p.BXZXVXL.Z.G.A.A.J.6.J ).).H J J ).).F pX).).J 6.J 6.).pX).).).J 6.).6.J 5.pX^.(.6.G 6.5.).J (.).6.pX).).).pX).J J J pX6.sXpXsX`.5.5.G 5.J pXpX`.^.(.).6.7.6.pX).pXJ 5.uX(.6.pXsXD D J 6.6.H J 6.6.uX).J 5.6.`.).).).pX8.K J 6.).6.J J J J J J 6.!.Q.xXMXu.y.CXs.p.r.( Q % C.w r A.A.C.u ).6.J ).J pX).(.6.7./.).0.C ).).).pXJ pXpX6.7.w.Z B aXG pXpXpXpXJ pXsX`.`.pXpXpX).).6.5.6.6.7.^._.pXsXpXsXpX).pXpXpX8.K pXJ sXrX~.6.pX).).pXpX).6.J J 6.(.sXJ J J J dX_.zX[._.G G H ).J J uX`.J ).pX^.6.).).J 6.J J J J pXD 6.).(.(.MX/ i.u.CX",
"a.eXl.V.G.A.A.C.g pX`.).`.).pX).).pX).pXJ ).pX).pXpXsX).).pXpX6.).J J pXpX).pX5.).aX<.(.).jXbXLXnXjX<.a D (.pX6.pXpXpXpX6.pX).).pXpXpXpX).6.6.pXpX6.J pXpXpXuX(.pXpX6.6.5.5.).pX).pXpX2.S ).).pXdX{.`.pXpXpX).).pXpX).).pX).J 5.).).).sXD uXJ ).pXgXp.u.u.i.i.CXp.m Z.C.V.C.C.s g ).).`.).J ).6.6.pX`.sXpX).w.;.n J 7.7.6.uX4.^.8.N ).pXpX).pX6.).).pX6.J 6.J ).pXpX6.J 6.J pX6.pX^.J 6.dX).J 7.uX5.6.aXw.G D 0.0.,.j b L J ).pXpX).).pXpX5.pXpX`.pXpXpXpXiX_.pXuX).pX).J G pX8.N ).6.).pX).gXDXjX0.n pX).).pX9.e.mXMXi.i.d.u.BXh e A.i V.n pX`.J ).).).J ).J ).J ).).pXJ pXJ ).pXJ 5.J pXpX6.J J 6.G G H aX4.A J D `.pXJ ).pXpX6.J 6.J pXpXG 3.D ).pX3.*.V sX`.pX).7.J `.).).6.4.pXuXpX_.].gX3.N D 6.G 6.`.sXpXpXpX(.J ).).pX6.;.z (.5.J J J 8.V `.D J J pX).J J J J J pXB B jXVXCXi.t.mXZX%.( wXh.w A.w A.r A.w S 7.~.).pX).).).6.pXJ 6.kXW.).J ).sX6.J pXpXaXzX].].pXsX).sX^.sX`.pX).pXpXpX).pXuX6.pXpX6.6.uX^.D D 6.pXpXpXG 5.pXpXjX/.J 8.*.K pX).).pX).pXuX).pXpX6.).(.).aX>.K ).pX(.dXhXpX`.~.(.).).).J 6.^.).).).).).).pX).).pXpXD J J (.).(._.y.s.i.i.a.",
"a.%.- V.G.A.G.C.a C A 4.).pX).pXpX).pXpX`.).pXpXpXpX5.).pX).).pX).9.V ).pX(.9.V !.sXsX^.pX6.pXdXnXnXU.L.`.).).pXpXpXpX7.D ).pX3.D pXpXpX6.6.6.pXpXpXJ 5.J 5.6.6.C 6.).9.z Z sXpX).).aXyX_.6.J 5.6.D pXpXpX6.pX).pXpX4.H 4.H gXE.(.6.J pX/.).sXpX7.8.t.u.i.i.i.a.mXB e C.V.V.C.Z.J.pXD F J J J ).).).6.7.pX).kXtXR.6.J 7.D ).pXpXjXQ.pXpXpX6.6.pX).6.pXpX).pX).J 6.6.pX3.J pXJ pXpXpX7.D ).6.pXpX6.6.).7.jXiXgX9.:.>.T.].(.!.6.J ).).6.6.6.^.).6.6.pXpXpX).).pXJ 6.6.pX).gX>.L tXW.J pXpX).pX6.nXeXwXT.pX).J pXzXkXt.i.MXBXSXu.p.P.F.A.G.C.a S pX).).J J ).pX^.J J J J 6.).pXpXJ 7.4.^.(.J 6.pX).`.8.>.Z H 5.sXsX^.`.H pXpX6.J 6.pX`.sXD J aXpXiX~.J 9.#.h R.J 6.).pXpX).J 6.J pX`.pX6.pX3.;.@.l N M 6.pX^.J J 6.pXJ ).6.J J 6.fXrXQ.J pXJ J J uX'.pX^.pX6.J 6.J pXD J J J ).m 8.y.mXmXs.u.t.ZX<XwX& e G.A.C.A.A.Z.B uX`.).pX).).).pXsXuXJ [.sX6.).J 6.pX`.pX).9.iX].pX6.sXJ D ).6.).pX6.pXpXpX6.J pXuX).6.pX^.).pXpX).J pXpXpXpXS ).pX6.pX).gX0X'.).4.J 4.(.pXpXpXpXpXuX(.pX3.7.rXT.pX6.).).aXpX7.>.L J J J J ).J 6.J pX).J J J pXJ J 6.^.).).S J W.hXBX1Xi.u.u.",
"a.! j.C.G.A.H.C.L.,.g Y.`.`.).).).).pX`.3.C pXpX).aXuXA 6.).J pX).sXQ.).pXJ dXQ.).pX).pXpXpXpX).sXyX|.].6.).pXpXpX6.6.fX^.6.pXrX~.6.J pX6.).pXpXsXpXpXpXpXpX).aX<.(.5.gXXX!.7.).J 6.).).).pX).pX`.pXpX).pX`.pX).pXpX`.`.iX^.pX/.).pX(.J 6.D ^.dXaX9.t.u.i.u.i.CXa.h B.A.C.C.w C.a 6.uX(.).).).).6.).7.^.).).fXQ.).sX).sX/.).pX).J 7.5.6.6.6.J J pXpX).pXpX6.6.6.6.6.6.tXR.pX).pXpX6.aX).5.J ).7.4.(.pX8.5.0.J lXw.}.}._.{._.pXpX).pXpX).pX).6.4.).6.J ).pXpXpXpX>.K pX).6.jX].).pX).).pX).6.).).nX+XT.pX).).6.zXe.t.BXy.y.SXNX<Xl.F.C.C.G.C.R.pX).J 7.H (.pX).6.).6.(.J ^.6.pX).).`.).).J 7.6.H (.tXrXR.pXJ (.pX).pX5.F sXpXpXpX(.).aXpXJ J `.pX).6.gXwX{.pXJ J 6.6.6.J pX6.6.5.5.G 7.7.0.kX%.g _.B S pX).pX6.J 6.6.J pX6.D J 6.(.6.pXJ ^.).J J J J J A /.6.J J ).sX).J J H R.gXy.t.s.i.s.MXt.%.0Xk.y C.A.C.A.w J.iX(.pXpXpX).J ).pXpXpXpXJ ).sXpXpXpX(.).sX8.D {.pX6.6.pXq.*.L J 6.6.6.pX7.5.sX`.6.6.6.uX`.sX3.S 6.).6.6.6.sX4.^.J 6.pXpXuX).`.pXpXuX).`.).6.6.J ).pXpXJ 7.iX^.hX^.7.J J J 7.pX9.fXB J J J ).7.D ).8.K ).).8.N A pX6.H ).6.).).(.B S MXmXNXNXCX",
"a.! % C.G.A.G.Z.rXzXK.T.).pX).pX).).sX,., d J ^.pXsX,.*.z B (.).pX).J ).6.pX).7.).).6.pXpX4.D pX).6.G 6.pX).pXG 5.pX6.J 6.).).sXpXpX).).sX).pXpXpXpX6.6.pXpXpXpX[.,.2 m 6.5.pXpXpX`.6.J J ).).pXpXpX7.A ).pXJ pXpX`.).6.J ).pXpX).sX^.).).sX_.aXdXlX1Xu.u.i.BXa.mXP.Z.C.C.C.w C.T.aX(.).).).pXpX).pX8.(.pX).0.K ).J pXpX).pXpXpXuXpX).).pXJ 6.J ).6.6.5.J ).pXpX).pXpXpXpXpXJ 6.6.pXsX).).`.6.pXpXG ;.z 9.0.L jXnXp L F Z 9.>.(.pXJ pXpX).0.>.'.pXsX).6.J J pX6.jXQ.H 5.6.J pXpXpX).).pXpX7.A ).).`.).).).pXJ gXqXCXi.NXMXy.u.p.g u A.C.G.F.n 6.J 6.pX(.H J 6.).pXJ (.).J 7.).).).J 6.J ).pXuX).F 4.[.`.`.`.J 5.7.6.^.'.5.).pXuX6.5.5.6.(.6.3.7.J J `.`.aXaXD D ).6.J J 5.J 6.sX`.pX).e.} { #.a l j ~.J J pXuX6.6.6.(.).pXpXJ (.).6.6.).7.C (.pX).J ~.rXA pXJ 6.J 6.).).).).m 9.BXa.t.t.f.r./ ! }.l.y G.A.C.A.V.g 9.N J ).pXJ J J pXpXpX6.J J pXpXpX).).J 6.iX`.).pXsXpX6.xXnXY.H 6.pXpX).sX`.).).sXsX).pXpXuXiX^.pX).).).pXpXiX`.6.6.pX).pX6.J 6.pXpXpX).6.J sX`.).).pXpXiX).J ).7.C (.pXpXsXpXsX X{.pXJ H ).sX`.J dX_.pX).tXR.'.).iX_.6.6.).).(.!.K p.t.u.i.t.",
"/ VXj.V.G.G.G.e d '.}.^.J ).).pX).J J qXN C.T.pXJ `.%.;.f R.pXJ pXpX).6.J ).pXsX).).6.6.6.`.).).pXpXpXJ pX6.6.,.B pXpX8.K ).8.z J pX).pX).pX6.pXpXpXpX6.J pXpX).,.#.}.W.8.Z 6.6.pX6.uX).pXD ).6.pXpXdXiX).8.V ).).pXpXuX(.).J 6.J ).uX).).pXJ aX9.gXVXNXu.i.y.CXp.g Z.C.C.C.w D.T.pX`.).).(.pX).pXpXiXH pXpX1.Y.pXpX5.J pXpX7.D 5.6.pXG pXpXpX).6.6.pXpXJ J sXsX).6.pX5.J 6.pXJ ).pXpX).).pX`.sX:.{ [ p jXzX!.aXlXZ M Z !.aXyX(.6.).pXpX).tXE.J 6.).pXpX).6.).pX).pXaX<.D J ).pXpX).pX).pX).iX).pXJ J ).J pXpX7.jXZXi.BXBXBXNXmXh C.A.A.G.Z.Y.8.L (.).).).J ).(.pX).J 6.D (.).6.J ).pX).).pXpX).8.V J S pXJ 6.7.S pXH 5.D H 6.5.J pXpXuXJ 8.rX!.sX).D J pX7.^.^.6.pX`.pXpXJ J J J aX;.} qX%.;.I.wXR.).6.5.N ;.M (.pX).).6.).`.J G J 4.H gXE.Z 6.J ).S 8.(.).).pX{.dXJ ).H `.].5.i.a.CXs.mXp.qXUX; & V.w w w r r a @.n !.pX6.).(.).).pXpXpX).`.pXpXpXpXpXpXpXpXJ ).pX6.pXpXsXyXQ.).).pXpX6.J pXpX6.5.6.5.J pXJ 6.6.J ).sX5.5.J pXpXpXpXpX).pXiXsXuX^.pX7.G uX).6.J 6.).J 6.5.8.~.).gXQ.(.6.J pXaX6.Z ).pX6.J H J 6.7.H pX).).`.sXJ J pX).J ).).).~.S F t.CXu.u.mX",
"a.VXj.e G.A.G.S.L.m Y.pX).).).6.6.6.G gXLXI.'.7.).G tXlXL.Y.sXpXpX).pX).pX(.pX6.6.).pXpXpX).3.*.D sXpX).pXpXpXyX{.3.pXdX'.).gX0XZ pX).pXpX6.).pXpX).pXpXpX6.6.pXqXP.!.aXsXpXpXJ J <.~.).pX^.J J ).pX).J 7.sXsX).6.6.J ).).).6.pXJ J D ).).pXJ 6.gX9.q.CXNXu.i.a./ g Z.C.C.C.Z.W.sXJ J pX).).pXpXpXpXpXpXJ pXiX'.).aX9.K ).).sXsX4.H 7.<.H 8.G `.pXpXJ 6.uX~.6.pXpXpXpXsX<.D pX).).pXpX`.<.A 5.,.p.9.'.J.zXe.Z ^.nX}.U.{.(.6.6.pXpXJ ).6.pXpX).pX6.J 6.sXpX).4.A 5.J pXiX`.^.).pXpX6.).pXpX).).pX).).).).).6.6.7.9.MXMXBXBXNXy.a.- B.G.A.A.V.N pX{.(.).J J `.).J ).pX(.pX`.J J pX).).6.J J 6.).7.^.[.pX(.5.6.J J sXJ iX).).G J pX6.5.J uXsXuXsXS 5.pX).J 6.sX(.).pX6.6.6.6.uXJ 6.(.q.r.J.}.UXwXL.[.sXJ aXtX0X#.m ).J J J pX).pXpXpXD pXJ ).`.pX).D ).).).).6.6.~.h 9.).).).Z !.gXBXa.t.a.#.mXlXVX:Xk.w i A.r r r F.J.T._.6.5.(.pX(.pXsXpXpX).pXpXpX).pXpXpXJ 6.pXJ 6.7.(.sXsX6.5.pXpXD J pX).).6.6.pX5.).pX).pXpXpXuX`.pXfXE.D ).pX).pXpX).pXpXpX).9.A gXS (.sXdX,.B pXJ pXtXP._.6.).pX6.pXpXpXaX`._.).dX^.^.).J J pX^.J J J J 8.(.(.J pX).).pX(.S ~./.mXCXi.u.u.",
"CX%.& C.G.C.A.G.+XI./.D J (.pXpXpXpXpX).(.sX6.pXpXpXG rXXX_.6.pX).pXpX).).).pXsX).).pX6.pX).p.#.m aX).6.pX6.6.D 7.iX).).).pX).hX/.pXJ J pXpXJ pXpXpXpXpXpXpX).pXhX{.).J 6.pXpXpXJ uX^.).).).pX).6.D pX1.B pXJ J pXpX).6.J ).).).).pX).J J 6.).pXaXzXe.t.MXmXi.s.1Xl.Z.C.C.A.Z.B 6.).6.H ).pX).).pX6.7.).6.D 6.J ).6.sX'.6.3.K pXpXpXsXhX).tXR.6.pXpXpX).).6.6.6.).pXpXpXsX).pXpX).).pX).1.j 1.:.%.LX|.g ;.0.m 5.^.T.).sXpX).pXpXpXpX6.6.J 6.6.6.pX8.S 7.pXpXfX^.uX_.pX5.D ).J 6.pX).J 6.).).).pXpX).).).8.A aX8.w.p.ZXBXNXi.y.p.- B.G.A.A.V.d j H ).J J H ).6.).J pXJ 6.).pX).6.J 6.J ).pX^.).sX^.2.G pX`.D 5.~.pX_.).gX$.L H J sXsX^.J ).sX6.D D 6.).).6.pXpXJ J pXpX6.J pXpXpX).tXwXU.!.jXU.~.G ).).pXuX_.VXE._.pX6.H pXJ 6.pXpX`.J 6.G D G 6.A J J ).6.).).pXG ).).).).(.L 5.t.t.t.CXqXBXr.p.:X& V.G.w C.A.C.C.m Y.J 2.J H J (.5.).pXpX).).).pXpXpXpXJ ).pX).pXJ sX).pXpXsX`.pXpXsXpX).6.3.).pXpXuX(.pXpX).).pXpX6.pXpXsX`.).pXpX).sXpXpXpXpXJ gXQ.sXiXJ 3.5.yX'.pX).J hX{.).J ).6.pX6.6.).aX(.J J 5.J J J J pXJ ).pX).pX).).).J ).).).).).).H Z ~.mXa.i.NXa.",
"CX:Xj.C.G.C.A.V.L.[.aXuX).).6.pXpXpXpX`.).J pXpXpXpX).).6.pX6.).pXpX).pXJ 6.5.G 6.2.D pXpX).u.0XT.6.).pXpXpXpX).`.pXJ `.8.K ).6.pXpXpX).).pX).pXpXpXpXpXpXpXpX).6.J pXpXpXpXpX).pXuXJ 7.D J 6.5.J pX5.hX].pX).pX).pX).pX).pX8.J 5.J J pXJ 6.5.5.9.e.p.NXy.p.NXmXa.- B.C.C.C.Z.B J J (.`.).pXpXJ 6.pXsX).uX`.pXpX).pX).7.D fXE.pXpX6.6.J ).`.sX6.).pX).pXpX).pXpXpX).pXpXpXpX).pXpX5.J G tXE.#.#.g h xXN B bXW.dXW.Z J 5.J pX6.6.6.6.).pX).pXpXpXpXsXuX4.J 6.pXsX`.sXpXfX~.pX6.J pXpX8.S J ).).pXpX).).).dX/.aXgXzXVXf.y.t.y.VX1Xl.B.G.A.C.A.G.W.~.J ).).J J pX).).).).J G pXJ 6.J ).`.).).pX5.).9.rXR.J 8.:.B (.pXD J 7.0X].sXS 5.6.5.3.C 5.aX).).).).5.6.6.pX^.).pXaX).pX7.J J 5.aX`.sXhX].J aX^.).).pX<.F xXU.K pXsX^.J 6.6.5.J 6.,.S rXR. XsX/.).6.C J 6.J ).).5.J ).(.pXZ 5.a.t.t.mXSXmX^ #.) & V.C.C.C.A.C.i T.Y.w.h !.pX).J ).J 6.).pXpXJ 6.J J pXuX).8.D pX).).pX).pXpXpXpX).6.pXpXaXE.).pX7.J pX6.J ).).pX6.).).pXpXpX).pXpXJ 5.pXpX6.).sX).pX).7.D iX_.J pX).pXpX).pX6.J J pX6.pX).).sX(.pX7.4.~.J J D D ).J ).pXJ J ).7.V ).6.J ).).).).!.4.p.a.i.i.mX",
"s.qXj.V.A.A.A.C.g 6.pX).).).6.pXpX).pXJ 7.^.).pX6.).).pXpXpXuX^.pXpXpX6.(.pXsXpXuXrX~.6.pX).fX+X'.6.).J 6.6.pX6.6.pX).5.fX!.J 6.pX6.6.J 6.).7.-.C 6.6.6.pX>.K pXpXpXpXJ 6.pXpX5.J sX).uXsX,.Z dXJ 6.6.J 3.C 6.J ).pX).pX).9.N Z fX(.).).pXD pX7.7.lX/ u.u.u.i.i.2Xh B.C.C.C.Z.R.`.pX(.(.pXpXpX).pXpXpXpX).).pXpXpXpX).sXsX).pXpXaXpXpX6.J J 6.pXJ ).pX).5.6.pX6.pXpXpXpXpX).pXpX6.).pXJ gXkXVXqXs b &.E.T.Q. X{.XXsXpXuXH pXpX).pXpXJ pXJ J pXpXpXJ ).sXpX).pX).6.6.).pXpX7.S ).6.).fX^.J G C ).uX).4.K pXsXsXjXbXnXi.d.u.BXy.t.l.B.G.C.A.C.Z._.pX(.).pX).).).J J ).).gXN (.sX).pX^.).).5.6.pXJ sX[.).6.e.Q.W.J 6.D ).7.J pXuXiX).7.6.1.h H 6.).pX).pXpX).pX`.sX6.5.).7.5.6.6.5.G ).).J pX`.6.pX^.).).6.sX`.J pXrX(.J pXpXpX).).pX7.iX/.aXR.V 7.6.H gX$.M pX(.J 6.J (.).J uX].aXBXmXZXNXy.p.) : :Xk.w C.A.A.C.C.i K.].jXbXZ pX).J ).pX).).).pX).pX).).pX8.).fX/.).).pXpXpX6.pX6.).pXpXpXpX).sXpX6.pX`.6.pX).8.*.M ).sXpX6.pXpXJ J pXpXJ ).pXsXpX6.6.J 6.uX^.J pXpX3.H pXpX).pXuX).D J pX).pXJ pX(.pXsX`.).).).).uXS ).>.K <.B ).pX`.J J ~.uX).).J Z 3.CXCXi.NXt.",
"CX%.& V.G.A.C.C.Y.pX).pX).).pXpXpXpX).`.pX).pXpX).).pX).pX).pX).pXpXpX`.).pX6.J ).sXdX^.pXpX`.).sXsX6.pXpXpX).).).pX).pX).pX).pXpXpXpX).pXJ gXtXM H 6.pXaX%.g pX6.pX6.6.D ).5.uX^.pX).).6.iX_.6.pX6.pX).kXV (.).).pXpX).).gXQ.H J 5.C C C /.).dX9.p.mXBXu.NXu.i.t.l.y G.C.C.V.a A D _.J ).pXpXpXpXpXpXpX).).pXpXpXpX5.J pXJ ).sX9.J pXsXJ ).pXpX6.).pX7.>.n pXpXJ J pXpXpXpX6.7.6.J ).pXpXxXxXVXI.wXwXT.}.].gXV (.6.pXpXpXJ 5.J ).sXsXpXpX).pXpXpXpX6.5.).).pXpXpX).6.6.).pX`.6.pXJ pXsX).tXh L J (.kXE.(.`.`.`.hXqXmXy.i.u.BX/ g Z.i A.C.C.u Z ).).).pX).).).pX).J 5.pX[.D J 9.z Z 6.`.sX).7.~.).6.).aXcX{.`.J 6.`.6.pX_.).pX).pXpXsXjXQ.J uX(.pXJ pXpXJ 5.J J pXsX7.uX`.pX6.pX).H ).).6.).pX`.).pX).6.).6.pXpXiXH 5.J 6.6.6.J J uXD 5.H (.2.F sX`.6.yX'.).).5.J `.).D J !.V 9.e.t.NXBXVX<XIX>X3Xj.e r r A.A.r e J.sX).dX_.).pX).).).).8.C pX).pX).).sXiX(.pXpX).pXpXpXpXpXpXpX).).sXpXsX6.).sXpXpX7.J pXJ %.R s n pXpXpX).6.).pXpXpX).6.G J 6.pX`.sXpX`.pXD J 8.E.(.6.8.C J sXpX6.H pXpX).pX).).pX6.pX).pX).).).(.J fX'.uX~.J J ).).8.N G J J J Z 8.mXmXi.i.u.",
"a.%.j.V.A.S.A.V.g pXpXpX).).pXpX).`.`.).pX).pX).pXpX).).pX).pXpX).pXpXJ pXpXsX`.).pX).pX).pXJ 6.6.7.<.).pX).pX6.6.pX9.N J ).).pXpXpXpX6.6.pX).hXcX).6.pXpXjXW.pXpXpXpXpX^.pXrX!.pX).).pXpX).pXpXJ 6.J J aXQ.H pXJ 6.6.).J pX'.sXpXq.,.d B ).J uXzXBXnXBXi.u.MXZXt.n B.C.C.C.A.Z.Q.E.!.).).pXpX).pXpX).pX).J sXpXpXpXaX(.pX`.).1.h (.J pXpX).5.J pXF J aXyX].6.pXpXJ 6.6.pX6.pXsXpX).J 5.5.rXQ.yX{.yXeXyXn sXsXiX).pXpXpXpXsXpX).5.k L pXpX4.3.).6.pXsX).).6.pXpXpX6.pX`.pX6.6.J J 8.z K ).sX XrX!.).sX X).).).).9.p.u.y.u.BXBX1X- B.G.C.C.C.J.'.(.`.J J ^.(.pXJ `.sX(.).).sX).gXXX(.4.D 6.pX/._.6.uX(.`.`.`.).pX).).sX).6.J J 6.6.6.J pX).).^.pXpX6.).pXpX).`.5.J aX6.J 6.uXiX`.sXuXD 6.).J G 5.J J 6.6.6.6.6.).pX6.).).pX6.pX).J J sXiX,.@.V E.C D ).).).).pX).).pX).).(.J K 7.p.y.NXBXCXVXDX) ) h.e i i C.A.G.Z.L.aX).pX`.pXpX(.).pXJ tXE.).).).).).pX`.sX).sXpX).pXpXpXpXpXpX6.J pXpX6.pX).6.pXpXpX`.pXpXrX>Xa s 6.pXpX).7.J pX6.pX).aXrX).sX).J 6.6.7.6./.`.sX`.pXpXgX<.Z pXaX^.pXD ).J 6.).).pXpX).).pX).).pXJ ).).J pXJ ).6.J 6.dX/.H ).J 5.!.fXt.t.i.BXu.",
"a.%.j.C.C.A.A.C.w S sX).).`.sXsX`.).pXpX).`.pX).6.6.`.).pXpXpXpXpXpXpX(.pX).).pXpXpXpX).).pXuX).sXpXsXD ).pXpXpXpX).zX>.L ^.pX6.6.pXpXpXpXpXpXJ 6.pXpXpX).).sXpXpXpXpX7.V ).sX8.N ).).pX).pXJ pXpXpX4.J pXfX(.pXJ 6.`.).6.J J 5.J xXAXI.R.6.).6.w.bXAXmXi.i.d.a.) & V.C.C.C.C.J.F sX(.).).pX).).pXsXpXpXpXH pX6.6.7.5.J 6.J 6.<.yXsXpX).pXpXgXS sXe.b H 6.pXpXpXpXpX6.J 5.).).sXsXpX).pXpX`.J 6.6.J pXSXn pX6.6.J 5.6.pX).6.pX`.kXW.T.6.6.rXE.J 6.J pXpXD pXpX6.pXpX).pX6.pXpXpXJ dXyXR.).).J sX_.).).6.pX).(.sXw./ NXd.BXt.i.a.l.B.G.G.C.V.J.J H ).).).J ).6.1.z K ).).).pXpX).).pXsX).).^.pX5.J `.`.).).pXJ ).).pX6.6.).pX6.J pXsX).pXpX).).6.6.).J pX`.pX8.).J 6.pX`.pX`.1.N J 6.).uX6.6.`.pX6.D ).pX6.6.pX).pX).).5.6.pX).pXpXH J 1.#.,.L.aX/._.).5.G ).pX).J ).).J H J (.fXqXy.NXBXmXp.f.^ Q & e G.C.C.C.r C.'.pXpXpX).pX`.`.pX`.`.pXsX).).).pX).sX:.l (.).sXpXpXpXpXpXpXaXpXJ J pXsXpXpXpXpXpXpXpXpX6.).fXwX$.f H pXpX6.H pX7.D ).pXsX3.J pXpXpXpXpX).).pX6.6.).pXpXjXB J pXsXuX`.pX).).`.6.pXD ).pXpX).).pX`.J ).).pXpXJ ).8.V J 5.J J J (.R.e./ t.i.BXu.",
"i.qXh.C.G.C.A.C.e Y.pX).).J ).pXpXpXpX).9.*.S sXaX^.).pX6.).pXpXpXpX).).6.).pX).pXpXpX).).pXpX6.J pXpX/.J 6.6.6.J J pXq.j ^.6.pXpX).pX6.D ).pXpX6.pX6.pX5.H 6.pX6.5.6.).hXpXJ tXQ.).).pXpXpX6.J 6.pXuXJ 6.sX`.pX8.K ).pX6.J J ).).gXeX}.pX).).pXgX9.MXmXVXu.i.i.3Xj.e C.C.C.Z.g b v !.).).J 6.2.K pX6.6.pX`.pXpXpXgX$.H J ).6.uXG pXpXpXpXpXpX`.6.bXbXJ J J 6.6.pXpXpX6.6.).pX6.pXsXsXpX).J pXpXpXpXpXnXP.6.pXpXsX).pX6.pX6.J 6.yXXXsX6.6.sXsX).pX).).aX`.J pXpX).).).pX).pXpXpX).).`.pX).).6.D (.).(.).pX).(.pXzX/ u.BXBXZXi.( & B.G.C.G.V.L.(.(.).J ).`.).pXyXbXW.(.).pX).pXpX^.).).pX^.pX6.uX!.).6.D ).6.J J 6.J pX^.6.5.J 6.J 6.pXpX`.).6.6.pXJ 7.J 6.6.sX4.J 7.S 6.6.,.} b K 8.K ).sX).pXpXpX^.).pXpXpXpXpX6.G J 6.J 6.7.J 6.J 6.J rXXX_.pXJ 5.D uX'.7.C J ).J J ).J F H H p.CXy.i.s./ f.:X:X& V.r w w i e J.pXpXpXpX).pX).J ).).pXpX`.`.pXpX).).sXqXV !.sXpXpXpXpXpXpX8.D sX).).).sXsXpXsXpX).sXpXpXpX).H gXeXI.~.pX).1.l K pXpX6.).pXrXJ pXpXpX6.).6.6.5.6.).).uX).sXiXJ J pXpXpXpXpXD J pXpX`.J J ).).6.J pX`.).2.A pX).J pX/.J fXA J H J F e./ mXMXi.mX",
"CX:Xh.C.A.A.A.p s j pXpXpXJ J ).pX).pX).kXrXn pX).sX).pXpX).pXpXpXsX).pXpX).pX).pXpXpXpX6.6.pXpX).).pXpXpX).<.S pX6.).jXQ.6.pXsXpXpX6.aX^.).pX4.).sXpXpXdX(.6.).fX^.sX<.K pX6.).5.G J pXpX6.pXpX5.6.6.).).6.J 7.fXR.J pXsXpX).6.2.J hX(.pX).).J gXgXp.i.y.mXBXZX^ & V.C.C.C.V.a Z T.!.6.6.J pXgXR.J pXpX).5.pXpX6.aXwX'.).pX7.pX4.D J pXpXpXpX6.).).pXsX).6.7.6.6.6.6.pX).).6.6.).8.N ).6.J 6.J 6.).6.pXpXJ J 7.D pX6.uX).pX).).).5.6.6.6.6.6.J pXJ J pXpX).).sXpX).6.).6.pXpXpX).).J J 6.J ).^.(.pXD G J ).J 0.:.( u.lXy.CXu.1Xj.y G.C.A.C.n (.).5.6.H D ).pX).A ).J J pX).sX^.).).).).J J sX`.).pXpX/.).pXJ D J J ).pXsXpX).).6.D J pXD 5.G J J pXpXJ D 5.5.4.H `.`.sXsXMXxX}.R.[.`.<.*.D ).`.pX^.).pXpXpXpXJ 7.>.N A ).).sXpXpX).pX).(.).5.G G J `.pXA pXrX~.6.).(.J pX(.(.7.) t.y.p.s.ZXZXVX^ j.e C.A.C.r F.W.aXpXpXuXsX).9.B (.).sX).7.N pX`.sX^.).sXhX`.6.pX6.pX).pXpXdXpX6.pX6.(.6.7.7.2.).).6.pXpXsX).).6.yX{.aXpXJ kX0X~.4.(.pX8.V ).pXJ 6.pXpXJ pXpXpXsXpX).pX^.pX).sXJ ).6.).pXuXuXJ 6.).pXpX).6.J ).pX).J 7.rX'.pX(.).).6.pXpXE.!.).).!.lXmXi.MXBXt.",
"a.%.h.C.A.S.r p j P M 5.).rX~.6.H ).pX<.S yX{.).).pXpXpXpXpXpX).pXpXpXpX).pX6.6.6.6.6.pXpX).pX6.pXJ 6.pXpXpXfXE.pXpX).(.).pXJ 3.z M pXpXpXJ 6.uX).pXpX6.pX).J 6.pX`.6.dXE.>.S aXE.uX>.S 6.pXpXpXpX).pX4.A ).pX6.0.-.l H pXpX).aXiX~.).).).J 6.J fXkXy.u.p.i.BXa.<Xj.Z.C.C.C.C.i }.].).pXuX^.).sXsX).pX).pXuX(.pX).sX`.pX).sXsXpXsXpXpXpXpX).6.pX).).pXsXpX).sXuXuXpXpXpXpX).pX).`.kXE._.sX).pX`.sXpXpXpXpXsX).sX/.).`.`.`.sXpX6.pXpXpXpXpX`.sXpXJ fX~.pX).pXpXpXpXpXsXpX`.sXpXpX`.pX).`.sX`.).).).uXiXuX(.pX).zXy./ NXd.i.t.i.1X& B.G.A.A.C.W._.).).).`.(.).).sXQ._.`.).J ).).pXpX).pX).sX).(.sX6._.pXpXuX).sX`.8.S J 6.).pXpXJ 6.).5.J aXpX`.).5.G ).pXuXsXpXdXD ~.8.G 5.sXbXQ._.).6.zXQ.!.).5.6.).6.5.6.D 6.6.6.hXyXE._.5.8.>.(.).pX).J 5.J 9.B ).G 7.^.H J 6.6.J J J F ).!.gX1Xy.t.NXmXBXZX^ ! j.V.i w G.e J.dXiX`.sX`.sXsXhXQ.`.`.sXpXe.m !.pX`.`.pXpXpX).pXpXsX`.sXpXsXpXsXuX).pXJ 7.^.dXiX!.pXpXpX).6.6.).pX).6.6.pXpX`.sXpX`.).6.dX/.pX6.J 6.).pX).pX).6.5.pX).pXJ J ).7.).J 6.D J pXpXE.).6.J 6.5.pX).J J 6.pXpX^.J ).).).5.J pX).).).).(.(.d.a.VXMXi.BX",
"CX~ % C.G.p r p L d s v v ~.`.sX'.).sXhX{.pXpXsX`.sXsX`.sXsXsX`.sXsXsXpXsX).sXpXpXpXpX).pXpX).sXpX`.`.pXpXsX`.sXsXsXpXJ ,.*.,.;.g W.6.pXpXpXpX).).pXpXpXpXpX6.pX6.6.7.H aX{.`.pX).sXyX`.6.).pXpX).pXJ pXrX6.H gXuXbXQ.V S ).pX`.).pX).).).).`.).).lXp.f.i.i.i.s.<Xj.Z.C.C.C.C.e g J ).).`.`.`.sXsXsXsXsX`.sXsXuXuXG sXsX[.sXsXsXsXsXsXsXsXsX`.sXpX6.D `.dX/.sXsXsXsXsXsXsXhXsXsXsX`.{.sXsXsX`.sXsXsXsXD sXsXsXsXhXdX;.B sX).sXsX`.sXsXsX[.[.sXsXsXsXE.`.`.sXsXsX`.`.sXsX`.sXiX`.`.aX(.7.J sX`.sXD `.).`.`.`.[.gXBXmXmXNXBXa.y./ & B.G.C.G.w n sX).`.`.`.).).`./.`.rX~.sX`.`.`.`.[.iXE.`.`.[.).6.dXH pX).sX`.`.`.hX{.sX).7.J sXpX^.pXsXD J J 6.7.uX'.`.pX5.D sX7.^.J dX`.sX6.5.6.H 6.7.sX{.).sXpX6.6.5.J ).pXJ 6.pXJ pX^.G pXpX/.(.7.).pXJ ).).hX/.).).^.`.5.:.M pX).).).(.F Z w./ i.NXVXVXu.s.) z.j.y C.C.r V.a aXpXpXpX6.).`.`.pXpX_.`.dXjXXX'.`.`.sXhXpX).`.sXsXsX`.sXsXsXsXhXsXsX).hXhXhXsX`.sXpXsXpX6.`.[.sX`.`.uXsXsXsX5.6.sX`.pXsXpX).pXiXsXpX).sXsX`.sX6.^.`.6.J uX).J `.sXiXuXuX<.K `.`.pX`.pX).Q.dX).sX4.(.).9.V (.pX).).gXN (.pXpX).).H Z SXp.%.p.%.NX",
"s.:Xh.C.G.J.i p ~.].H.j R.].sX<.F (.`.`.sX[.sX`.`.sXsX`.sXdXD `.sXsXsXsXsXsXsXsXsXsXsX`.`.sX`.sX`.`.sXsX`.sXsX`.aX2.<._.xXlX9.XXI.[.`.sX`.sX4.^.pXpXpX5.J pX`.sXsXsX[.[.sX`.sXpX`.`.).pX[.`.sXsX`.sXdXH `.hX_.dXrXK iXD '.sXD ).sXpX).`.).).).pX7.d.1XBXSXNXi.CX^ & V.C.C.C.C.e a L F G G J G J 6.6.6.6.8.H 7.uXgXh Z sX).sXpX8.J 3.G ).pXpXsX6.pXpX[.J pXuXpX).pX).pXpX).pXaX6.pX).5.6.).pX5.6.5.J 9.V H 6.8.S (.q.kXT.7.).).pXpX6.).pXJ 5.6.pXpX).uX).pXpXJ pXpX6.pX6.6.J 5.6.J ).8.<.R.pXJ 6.^.J 6.H J J H zXy.s.i.i.i.t.mXa.j.% G.C.i V.d v C C C C C F F 5.A D ~.4.^.6.J G 5.3.H J J J 1.M fXE._.pX^.`.pXpX).pX`.dXiX{._.hX`.`.sXiX`.sX`.hX[.`.pXsXhX/.pXhX/.`.`.uX5.sXsX{./.4.`.`.`.pX).pX).).sX^.`.sXsX).sXsXsX[._.sXiX`.pX`.).`.[.sX3.>.K J 8.2.N #.0XT.K `.).).pX`.H e.a.BXNXp.t.CX1X<X; j.V.C.C.p C.u f A C 5.3.F C F 5.D J G 5.5.<.z N G J 5.9.S J J pXuXpXpX).sXpXpXsXdX`.(.sXsXdXuX`.sXsXhX[.`.`.sXsX).pXpX`.gXrX].sX`.`.pXfX/.sX).sXsX`.sXsXsXsXhX/.pXhX[.sXaX).C H sXfX'.jXV !.sXsX`.sX_.V gX`.pX[.`.dXrXQ.uX_.sX).sXyX_.sXpX`.`.`.].lX/ r.y.q.s.",
"VX%.h.C.C.H.H.p T.].T.m m C -.N <.L C C C 2.5.5.C 2.5.C C 8.<.L 5.5.G 5.6.6.G J 6.J 6.pX).).6.6.).J 5.pXJ J 6.J kXE.].).iXeXwX}.n (.pX).pXaXrX(.pXJ gX^.(.(.`.sXsX`.sXpX).).pX).J `.9.*.Z aXsXpXsXsXhXhX_.pXpX).xXW.7.E.(.sXiX/.sX`.`.pXpX).).pXaXy.1XVXMXu.i.NXAXJ.Z.C.C.C.C.D.T.L c c c c v v v v -.-.2.C v C 2.uXC C C 2.2.3.5.8.A -.@.l l C C ~.8.C C C 2.C 2.2.2.C C 2.2.C 2.2.2.C 2.-.2.C 2.2.C C C -.2.2.C 8.yXC 2.C C 2.2.2.-.v C 2.2.-.2.-.C 2.C 2.C 2.2.C 2.2.2.>.N 2.C C 5.5.C C C C C C C 2.C C C 0.t.a.NXi.i.NXt.1Xj.B.G.A.G.C.J.d k =.x x k x x c v v c c -.v -.v 2.3.v v C C 1.B 2.D G 5.5.C 2.G 5.G A 2.G 5.G C 3.5.3.S 5.A 5.2.G 5.G 8.A 4.D G 6.6.G 7.4.S pXH 8.^.J D 7.J 6.J pX).pX).D A aXpX).`.[.`.`.pXsX`.`.sXpXJ J 4.qXXX0Xh 2.1.#.h U.Q.R.).).pX).).pXe.s.BXNXt.u.mXAX3Xc.j.y C.w G.w V.u x x =.c x x c -.c c -.c >.#.@.h M c v C C -.C C 2.2.2.C 2.2.2.2.G 5.5.2.5.5.5.5.5.G 7.5.G G 5.5.G G 5.G 7./.3.<.J 5.6.).7.J 7.G pX5.5.J 6.6.J uX4.D 6.7.6.6.rXB 3.pXH 0.E.(.J pX).pX6.6.).pX`.pX).`.[.6.<.(.pX).).sXpXpXpX_.).(.D r.1XNXlXkXa.",
"mX:Xh.A.A.S.K.K.a Y.L L j z *.b ;.z c c =.x c c c -.v v v v C C C 2.C C C 2.,.l z 2.2.C 2.2.2.C C :.d v 2.2.C C 5.4.C C 2.4.yXjXE.C 5.C 5.C 5.5.2.C 6.aX6.H G 2.C 2.2.5.5.2.C 5.C L e.e.j L 5.F 5.5.5.5.5.C C C 5.sXpX_.C G G G 5.J G 5.J J J 7.7.y.s.i.i.BXNXs.%.g V.C.C.C.C.u l 8 k k k k x c =.=.-.c =.c =.x x =.=.v c -.-.-.-.=.v :.&.x f b z B 9.2.-.=.&.c c =.c =.=.c -.-.-.-.-.v -.-.c c c -.-.-.*.&.l b c c =.=.c -.c c -.-.-.>.z c -.v -.v v -.v -.v -.v =.c -.-.2.v -.c c c ;.N v v v v v v v v v v 0.s.a.i.u.i.i.NXCXl.y G.C.i Z.V l 9 7 x l l k k l l l k k k x x =.x c =.x x c 2.v c c c =.-.-.c c -.v -.-.c c -.-.-.C ;.7 z -.v -.2.-.C -.N v -.v -.-.v v 3.2.*.z v -.-.v C 2.2.C C C 2.2.,.%.M C C C C 2.2.C 2.2.C C 2.C C -.fXhXE.W.gX1.U.R.2.5.G C 2.C 5.C C d.CXi.y.CXu.CXp.t.:X& V.w r r C.J.a 0 X.k X.7 l 7 &.x x =.x x q. X X,.f x c c =.z -.=.c c -.-.-.-.v -.c -.-.v c -.-.-.v -.-.v -.-.C 2.-.-.v -.-.>.N C 2.C -.-.v 2.2.&.c v v v -.2.v 2.v v -.2.2.C 2.C C 2.A C -.N C 2.C 2.C C 2.C 2.C C 2.2.A C C C 2.v C 3.F C C C ;.f.t.VXMXy.mX",
"CX:Xh.C.A.p C.}.Y.L x b b o.l ..9 k k k k k k k k x x k k x x x x =.c c =.=.0.8.N c -.c c -.-.v ;.kXn z v -.v v -.-.C v -.-.c -.2.-.c v -.-.-.-.0.N c -.-.=.c -.,.z v -.-.2.v -.C *.#.>.Y.m -.v -.-.v v -.-.c -.v -.v v v v -.v v v C C 2.v C 2.0.y.CXBXmXy.i.CXVXL.Z.C.C.C.V.u 2 9 9 9 8 9 0 7 8 X.8 &.8 &.&.k [ 0 k X.8 X.X.X.o.X.8 ;.1.:.l d l 0 >.;.8 #.f 8 X.&.8 o.8 8 8 &.&.X.k x =.=.&.l k &.k &.e.M B z =.=.=.=.k =.=.k x x c =.-.c =.=.-.x k c =.x c x =.=.c c =.=.x c =.x c -.c c c c c c c c c c c ;.p.CXi.i.NXi.u.a.- B.G.G.C.u 7 k 8 8 9 l l 7 9 9 8 8 8 8 8 8 8 X.k 8 X.&.l 0 o.&.7 7 7 7 X.X.k 8 X.k l =.=.c c -.v c ,.N L -.v -.-.v c ;.N c -.-.-.-.-.v c -.2.C -.-.-.v c -.v v -.=.-.v 2.bXR.c -.v -.-.-.v c -.-.v -.-.-.c c 2.C c 2.iXL -.c c v v v v -.c c e.a.i.i.s.u.NXZXp.^ j.e w C.r Z.Q.B 9 o.9 &.l *.l 2 0 7 7 k 8 8 &...;.#.&.2 6 k 8 X.8 O.3 8 k k x x =.z c =.=.c =.=.=.-.-.=.c =.c x =.=.-.c c c -.v c -.-.-.-.v v ;.f L -.c -.v -.-.-.v -.v -.=.x c -.c -.v -.-.C v -.c -.v -.c c -.v c -.v v -.v -.>.N v v v c -.v ;.p.i.y.y.e.BX",
"s.! % C.A.J.Z.n 3.v =.l 6 7 8 &.0 5 9  .6 6 6 6 6 6  . .8 7 6 6 6 7 8 8 8 X.9 &.*.k X.&.8 X.8 8 &.tXB &.&.k 8 X.X.k k k k x c =.-.=.-.=.=.=.-.=.c -.=.c -.v c c ,.z c =.=.=.=.=.c ;.gX'.Z c =.c =.=.c x =.-.-.-.c c =.c c c c c c c c x -.v v v 2.p.CXNXu.BXNXNX^ - B.C.C.C.D.d &.l 9 9 6 9 5 6 6 | 4 4 4 ' 6 | &.l |  .6 6 o.[ 2 2  . ...,.rXj o.6 < 6 o.e.B 4  .o.X.X.8 8 6  ... .7 6  .o.6 ..7 o.8 6 &.z 7 o.6  .6 o.8 o.6  .6 6 7 7 8 &.X.8 o.&.8 X.&.k X.8 X.k k &.z l &.X.&.k 8 X.X.8 k k k k k k k k &.&.:.a.i.MXNXNXNXCX- B.G.G.V.f 4 9 7 9 8 8 7 9 9 6 < < 5 4 4 < < < < ' 9 7 7 2 ' 6 o.2 < 6  . .6 6 9 8 6 6  .9 k &.k &.&.z &.8 X.7 8 k &.c c x =.=.x &.x &.x v c =.c =.c c =.x x =.=.=.-.c x x =.=.x x =.=.c c =.c -.-.-.c c =.-.x x c x k =.-.c c c -.x =.-.c L e.a.i.i.i.NXBXCXCX! j.e i w S.u 2 X.7 ..8 8 8 8 8 @.0 | 6 < ' < o.7 &.e.9.n 0 5 5 < 5 O.b 0 6 6 6 ..7 9 o. .7 8 X.X.X.6 | 8 &.o.8 7 6 X.X.k k &.k *.l &.&.k &.k k #.d b =.x x =.x x =.&.&.&.&.o.b c k ;.z b k x x =.=.c c c =.c c c -.c c c c c c c c -.c c c c -.c ;.r.i.y.MXy.i.",
"a.! h.C.G.D.g | 5  .o.0 6 8 9 7 8 9 6 6  .6 6 6 4  .6  .6 6 6 6 6 6 6  .6 6 [ 2 5  .6  .6 ..6  .6 7 6 o.8 8 o.8 8 8 8 8 8 9 ..2 7 7 8 k &.&.&.*.k X.&.k k x =.=.&.X.k &.&.k k &.&.x =.=.k x x =.=.x =.x =.&.x c c c x c x c =.x x x =.c x c x c ;.f.u.NXBXy.VXZX! l.B.C.C.D.a 6 9 8 6 <  .6 9 6  .6 6 6  .7 6  .&.6  .6 6 6 O.$.9 7  . . .4 6 ' 2 6 6  .o.&.7 o. . . . .6 6 6 | |  .6  .o.6  . .< 6 o...6 6 | | 6  .6 ' ' o.6 6 ' 6 < 2 4 | | '  . .6 6 | | 6 6 6 | | o.[ < | 6 [ 2 6  .6 9 6 6 9 6 6 6 5 4 6 o.:.u.i.BXu.NXBXCXl.B.G.D.g  .9 9 9 9 9 k 8 8 6 6 ..9 9 6 7 7 6 6 ..8 6 2 6 9 6  .7 8 6 6 6 6 9 6 ' 2 6 6 7 9 4 |  . .o.6 6 7  .X.6 6 9 7 7 ..o.o.7 X...7 7 < < 6  ...k 7 &.&...X.&.7 8 X.X.k k &.7 8 8 &.8 k k &.k k x =.&.=.x z k k c c x -.c c x =.-.x ;.l j :.f.i.i.NXNXu.CXmX:X& V.G.r C.g q | 6 l 6 ..8 6 6 X.9 8 8 X.7 8 7  .9 &.>.M &.X.7 6 6 8 l 6 6 6 6 ..7 6 o. .6 6 o.5 O.%.d 2  .X.X. .6 6  .6 6 X.8 6  . ... .| 4 4 *.g 9  .6 7 7 7 8 ....o.o.[ 2 b  .7 ..l 7 7 6 7 k l =.k k =.k k k k &.X.X.8 k k k k k k x x k =.=.;.e.y.MXMXMXt.",
"a.MXh.C.S.F. ...9  .k k 9 9 6 6 9 6 7 6 8 X.8 8 8 X.2 6 7 6 9 6 6 6 6  .6 4 &.l 6  .' 6  .4  .6 | 6 6 6 6  . .7 6 6 6 6  .6 | &.9  .5 < ' ' < 6 o.2 7  .6 5 < o.o.X...o.6 6 6 7  .6 6  .7 6  . . .6 ..6 o.l 9  .6 o.7 6 6 6 7 ..8 8 8 o.9 8 8 b ;.p.u.i.a.i.e.a.! - B.C.Z.g 7 8 9 9 &.,.z 7 9  .X.8 6 6 6 6  . .&.8 7  .6 6  ...8 6 6  . . .[ { 0  .| |  .|  .6  .6  . .6 6 4  .6 6  .o.' 6  . ...< '  .6 ' '  .4 4 | o.7 6 6  . .3 ] ` f l ' o.< ' < ' ' 6 6  .2 ' 4 o.&.2 2 < o.z 5 | 5 4 4 < < 6 6 6 6 | < 5 O.p.NXi.BXNXNXCXl.y S.F.8 6 9 7 9 9 [ < 9 7  .7 9 9 8 8 7  .9 8 ..7 X.8 9 9 6 6 7 7 ..k 7 6 6 6 &.f 5 6 6 6 4 < 6  .6  .6 < 4 6  .9 6 < < < 6 ..7 | 6 ' [ @.h f  .7 ..6  . .[ < [ 6 < 2 6 7 ..*.l 6 o.[ 2 6 4  .6 6 < ' 6  .6  .7 7 6  .[ 9 7 6 7 6 o.7  .x f } f.p.i.i.i.u.u.^ ! & V.i V.g d d 6 9 @.f 0  .8 X.@.0  .6  .6 6 6 8 7 6 6  .6 7 ..[ 7 6  .6 | 5 5 4 6 4  .7 6  . . .[ z z  .6 [ 9 X.6  .[ 2 2 5 < ' ' 6 o.O.#.3 f f 2 5 ' 6 6 [ 5 o.2 [ [ o.o.2 1 ] < < < < < ' 2 5 9  . .6 6 6  .| <  .l 7 ..[ 2 6 7 6 6 6 6  .6  .o.:.y.d.u.y.t.",
"a.qXh.C.D.b o.7 7 8 6 6 6 7 6 8 6 6 6 8 7 X.6 6 9 O.f 0 6 7 7 6  .6 6 6  . .6 4 |  .&.9 o.7 6 [ 6 6 6 6  . .6 6 7 6 6 4 |  .4 | ' 6 6 |  .6 6 < ' 6 2 | 6  .< ' < ' |  .6 4 4 ' <  .< 6 6 < ' ' 5 4 |  . .6 ' 4 < < 6 6 |  .2 6 6 ' < [ f 0 6 2 < #.BXu.p.NXp.s.~ - B.D.g o.l 8 8 8 9 *.l 8 7 6 6 6 7 6 7 6 o.@.6  . . .6  .7 X. .o.[ 6  .4 #.$.0 4  .6  . . . .| 6  . ...7 7  . .6 6 O.*.9 o...6 ;.*.[ { { d X. .6  .6  .7 7 8 ;.@.f @.q <  . . ...7 ..8  . . . . .6  . ...6  .4 6  .6 7 2 [ { q 9 6 6 6 ..7 6 o.:.p.SXNXu.NXCX- h.D.b 6 7 l &.l 9 &.z 0  .k z l 7 6 6 6 o.9 6 7 7 | < 6 9 6  .6 6 6 7  .6 6 6 8 l 6 6 6 6  .6 6 | ' 2 ..7 6 < 7 6 6  .7 7 6 ' |  .7  .7 &.z 2 2 6 6 < 6 6 O.@.b  . .7 6 6 6 ' ' < [ *.9 < 2 2  . . .6 ' 6 6 6 2 ' 2 4 l 7 6 6 6  .5  .4 < ' [ :.d.y.i.i.u.u.<X:Xj.V.A.V.d j d k 7 &.N 8 X.8 7 &.l 6 8 8 X.7 8 6 7 7 7 X.8 6 o.l k 6 6 @.@.l 6 6  . .6 6  .o...l l 9 |  .[ l l 6  . .;.<.b 5 [ 2 7 6 o.X.%.rXN @.f 2 6 5 ' 7 < ' ..O...' {  .[ 2 6 2 < ' 2 1 < < 1 < ' < < < 5 o.6 9 7 4 [ *.z 5 6 4 4 4 4  . .| 5 O.w.i.y.BXu.",
"s.%.h.D.a X.8 8 8 ..7 8 ..9 7 8 8 6 7 8 X.X.8 8 9  .k X.6 6 6  .6 6 6  . . .6  .6 4 6  . .7  .&.l 6 6  . . .6 7 6  .6 6 6  . . .7 6  .6 6  .o...6 6 7 o.< 6  . . .6  . .6 6  .6 ..2  .6  .6 o.7 6 < 4 |  .6  .6  .6 6 6  .6 6 6 7 6 7  .k 9 < 6 5 O.d.a.i.i.BXa.;Xj.Z.D.d X.k &.0 9 9 | 6 6  .6 6 6 6 6  .6  .7 X.6 o.7 6  .[ <  ...X.6  . .;.V 7 9  .| | 6  ...2 6 .. .6 ..6  . . .6  .8  . . . .' [ 2 ,.V 0 | 6  . .6 o.*.0 4 O.tXL.E.%.W 2 8 7 o...6  . .6 6 6 8 o.6  . .6 6 o.5 6 6 f l :.fXL.0 6 6 6 6  . .6 O.:.:.i.NXu.a.; h.b X.k k l k b 8 8 k 7 7 8 6 6 6 8 6 6 8 X.7 9 [ } # q 6 9  .7 6 6 6 ..9 ..2 9 9  .7 6 6 7 8  . .;.b 6 X...l 2 l 6 6 6 6 o.[ 0 X. ...6 6 o...[ 2  .6 6  ...k 6 | 6 6 6 ' < ..k o.6 7 .. .7 9 6  .7 .. .6 6 6  .7 2 0 6 6 6 6 6 6 4  .<  . .5 &.d.d.NXi.i.i.mX<Xj.V.S.p s j 0 6 k 9 7 X.8 8 ..7 8 7 8 7 k k 8 X.8 7  .6 7 X... . .7 6 o.>.9 6 6  .6 6 6  .6 ..7 6 6 .. .7 9  .o.[  .8 8 6 | o.z 6  .6 ..@.@.@.*.g j o. .6 6 o.2 5  .o.@.&.7 &.7 [ k 6 &.l k 2 0 6 2 2 6 6 6 5 6 6 6 6  .9 6 6 6  .6 4 6 4 | 4 6 4 9 O.r.y.f.i.",
"s.%.h.D.l X.k k 8 k k  .8 k 8 8 8 8 9 6  .8 8 X.6 8 6 6 8 8 6 6 X.8  . . .6 6 6 o.l 6 o.2 6  .6 6 6 6  . . .6 6 6 6  . .6  .6 O.&.0 X.6 6 6 6 X.X.6 6 o.&.6  . .6  .6  . .6 6 6  . .6 o.6 6  .6 ..l  . .6 6  .6  .6 6 6 6 7 6 6 4 6 6  .9 6 6 6 6 5 ;.t.y.u.y.a.! - D.J.m b x &.z k 8 X.8 8 8 X.7 X.7 6 7 X.&.[ 2 8 X.8 8 ..:.@.0 o.6  .6  .6 4  .|  . .X.8 X.&.l X...X...6 8 6  .o...6 6  .o.' ' &.b 9 4 6 o.7 6 6 8 8 6 o.l 6  .z 9 4 X.$.f 4 6  . .o.l  .7 6 6 4  .6  .X...6 o.7 9 O.f 5 O.N l 6 6 6 6 6  .6  .o.;.%.1.u.u.a.l.a o.9 8 9 l l X.8 8 X.X.7 6 &.l k 8  .9 9 X.l k ;.%.h s l 9 8 8 8 X.o.7 7 8 k 8 6 6  . .6 6 7 6  .6 7 2 f 6  .7 9 o.l 9 7 o.l 9  .7 ....2 '  .&.l 8 X. .[ 2 6  ...6 6 4 o.6 0  ...k 7  . .6 6 4 6 6  . .6  .6 < 6 &.2  .7 6  .6  .6  ...6  .6 < :.e.f.p.y.NXp.! j.B.H.j d 0 6 0 6 9 8 8 X.8 X.k 7 8 k k k 8 X.X.8 8 X.8 8 8 o.X.8 8 o.f 9 X.8  . .7 6 6 7 ..6  .6 6 6  .7  .6 o.*.9 o. .6 ..9 6 6  . .4 @.#.b V j 9  .o...6 o.k 8 ....o.x ..o.o.&.2 6 l 0  .*.b 6 k 8  .6 6 7 6 6 6 6  .6 6 6 6 6  .7 6 6 6  .6 6 5 o.:.r.r.q.",
"p.qXk.b 6 6 6 7 X.6  .X.7 6 8 8  .9 6 7 7 7 8 X.8 8 8 8 X.8 8 7 7 X.o.o.l 8 X.7 &.l  .&.l o.2 9 X. .6 6  . . . .6 7 X.X.X.X.6 o.>.0  . .6  .6 o.f l 7 6 6 o...6  . . .6 ..7 o.7  .7 6 ..8  .7 7  .6  .6  . . .6 6  .6 2 6 6  .6 6 9  .[ 6 6 6  . .0 o.d.i.p.d.a.! l.D.g 2 5 6 6 6 6 6 6 6 6  ...7 6  .6 6 6 6 @.b 6  .6  . .o.r.@.2  .7  .6 7 O.{ f 7  .6 o.6  .6 o. . .8 6  . .6 o.&.7 o.2  .@.b l X. .7 ..6 X.o.9 7 o.o.l l &.k 6 o.7 6 4  .o...6  ...2 &.l  .X.8 O.2 5 [ 9 &.6 o.5 &.%.f 5 6 6 6 6 6 6 6  . .o.6 X.e.e.p.NXVXJ.q  .6 6 9 0 < 6  .2 6  . .6 9 6 6 '  .9 9 6 6 6 &.%.h d l 7 6  .{ 3 6 o.< 0 8 6 6  .6 6 X.9 .. . .9 @.; j 6 6 8 7 7 ..6 6 O.9 7  .6  .....7 6 6 ' <  ...&.k 6 7 7 6 o.&.2 6 6 6 5 '  . .7 ..6 6 6 6 6 6 6 6 6 ..9 o.&.9  .6  .6 6  . . . .6 6 9 x #.d.i.d.p.p.^ j.D.g [ q 1 < { d 0 6 6 6  .6  .7 9 6 4 | 6  .o.7 6 6 6 6  .7 8 X.8 o.*.7  ...X.6 o. .7 7 ..8 X.X.8 8 o.7 ..8 X.8 8 X.&.k 8 o.6 6 7 X... .e.n N v 8  .o. . .7 7 7 o.o.o. .o...X.8 8 8 7 7 l 8 X.8 9 6  .8 6 6 6 7 6 o.6 6 6 6 6 6 6 6 8 X. . .6 6 0 7 #.r.e.p.",
"d.$.s | 6  .6 6 < | < < 6 6 < 4 6 6 5 5 4 4 | 6 6 6 ' 1 < 2 4 6 6  . . .7  . .6 6 |  .6 6 o.*.9  .6 6 6 6  .7 8 8  .9 X.X.X.X.8  . .7 X.X...8 ;.P.b  . .6  .&.k X.k k 8 X.8 8 &.7 8  .6  .6 6  . .7 6  .6 6  .6 6  .6 7 6  .o.6 6 2 5 o.6 6 5 7 o.9 9 :.r.p.p.s.;Xj.s 9 o.9 6 6 6 9 4 | ' < < | | ' < < ] 1 < < < ' ' < ] ' ' @.W.f [ 2 ' ' 1 } b 0 ' o.< o. .' < 4 6 6 | ' < ' ' < ' ' ' 7 4 o.6 1 ] < <  .< <  .< < '  .o.2 5 |  . .| 4  .6 | 6  .| ..[ 2 5  .6 4 O.k 4 ' 2 < ' 6 6 4 ;.z 9 6 4 5 5  . .2 <  ...o.1 &.e.f.f.lXL.3 < 5 9 5 6 6 < < 6 4 ' < 5 < < < | < 0 4 < < <  .*.<.l 2 < < < :.h 5 o.l 0 [ < 5  .7 7 6  .| [ 2 9 @.z 6 o.[ 2  .2 6 o.6 6 6  .7 7  .6 6  . . .o.7 2 6 6 o. .7 o.< 6 ..&.9 6 6 O.z 2 | 9  . .6 <  .<  .6 6 | ..9 | 6 6 6 6 6 6 < | 9 o.< 6 5 j @.:.e.i.p.f.p.0Xk.i M e.f 3 ] d b 1 4 | < 4 ' ..7 4 5 ' 2 < < 4 |  .2 < 4 | 6 4 ' 4 | | ' 6 6 ' < | 6 9 6  .6 6  .7 6 o.7 6  .4 6 6  .....&.0 O.l 9  .o.....&.6 | | o.[ 7 ..6 6  . .X.&.&.7 k &.k 8 l k z l 6 6 6 6 6 6 6 6 6 6 6 6  ...6 6 6 6 6 6 6 6  . . . .6 6 1 O.%.#.r.",
"} W P ] < ' 5 4  .6 7 6 5 ' 2 2 4 6 5 4 4 < < < ' < @.f 6 < 4 < < 6 ' ' ] < ' < < ' < ' ' < < ] ] 4 ] ' < < < < < [ 2 < 4 | < < <  .6 4 |  .4 6  .o.6 o.[ < 6 6 6 6  . . .6  . . .6 [ 6 6  ...6 6 6 6 ..6 6 6 4 ' 4  .2 2 o. .o.7 9 6 6 6 6 6 ' 0 z &.+.r.:.i.s.g i d , , 1 , ] 1 1 ] ] ] ' < ] ] [ 5 { 3 2 < ' < ] ' ' ' 1 { z l ] , 1 ] ] 1 ' < 1 1 1 1 1 1 ' { , ` > , , ] ] [ 2 1 ] ] 1 1 ] ] ] ] 1 1 ] ] 1 1 ] 1 , 1 ' < 1 ] 1 ] ] 1 ] ] ] 1 ] 1 ' 2 7 1 ' 1 ] 1 1 { 2 0 ] 1 1 ] < 1 ] 1 1 ' 1 < 1 9 k 7 l [ o.[ 0 } r.r.d 0X#.3 > _ + , _ _ 3 , , 1 1 1 1 1 1 ] ' 3 1 1 < < ] ] 3 [ < < < < <  .6 < < ] 2  .< ' ] 1 1 1 ' [ 6 < 4 | ' ' 6 < < 6 < ' < ' ] ' 1 1 ] ' < ' ' ' [ 2 2 ' 6 [  .6 o.7 ..O.2 9  .' 7 k  ...[ 2 ' @.h 3 2 < 6 < 4 6 { 3 2 < 6  .6 ' 6 7 2 [ 6 5 6 3 1 l :.p.r.r.^ f * P 3 @.:.{ + q ] { 3 ] 1 1 1 1 1 < 1 ] < < ' < < < | ' < < < ' < ' ' | | < ] ' 2 6 6 < < < ' < ' ' < ' < ' ' < < ' < < ' 7 6 | 6 < ' ' 6 o.| <  .6  .7  .' < 2  .7 6  .o.o.0 ..k ..f 6 < | 6 6 4 < 5 6  .6 6 | 4 < 4 | 6 6 | < < < ' 2 6 o.' ' < 4 < O.r.#.r.",
"} f $ U o o O O O + O O + + > > > > > > > _ _ _ , 1 , , , 1 1 ] 3 1 ] ] 1 1 ] 1 1 1 1 < ] ] { 2 d ' [ 0 ' < 5 ' 1 1 < ' ] ] ' 1 1 1 ] ] 1 ] 1 1 ] ' 1 ] ' < < < ] ] 1 1 1 ] <  .6 o.o.2 2 6 o.[ < ' < < < 4 < ' < < < l 5 6  .[ 9 5  .5 ' < < 4 2 3 l } #.e.e.( # $ U o X X X X o o o U U o O T O o U T + O + O O O Y + + Y Y T T Y > O O Y Y Y Y Y + + Y Y Y T _ f @.*.b { q b { U O O Y + Y _ + + Y Y + Y + Y Y + Y + + + + Y Y O + Y + Y Y Y Y + O + > Y + Y Y Y + + _ > + Y Y + + + + > > > > _ > > > + Y + _ > { 1 } r.#.#.R ~ $ X   X     X o o X X X X X X X X o U X o o o U O + o O O O > > > > > _ , > _ _ > 1 ] , , , , , 1 , _ , 1 , 1 2 [ ] ` , 1 ] ] 1 ] @.f 1 ] ] ] 1 1 1 1 1 ] 1 1 1 1 ] [ 2 ' ' < ' 1 < ' [ 2 ] $.V N 5 < < < 6 < O.b 9 [ < < 6  .6 2  .X...2 6  .0 0 O.r.f.r.r.Q P o       U + o X U o X X X o o o o o o O o O + T O O T + + + _ + > + + > > _ _ , > _ , 1 , ` , 1 _ _ ] 1 ] 1 1 1 1 1 1 ] 1 ] ] ] 1 ] 1 1 ] ] 1 1 , , 1 ] ] < 1 1 ` ` 1 ] [ < 2 < [ 2 ] { 3 < ' { f 1 1 1 < < ' ' < < ' < ] < < < < < ' < ' o.6 7 o.6  .#.%.^ ",
"e.{ .   X X X X X X X X X X X X X X X X X U o X X X @ T X U o o o o O O O O + + + + Y O Y _ f f > Y > > + > > _ > > _ _ _ > _ > > > > _ _ _ _ > > _ > > _ > > _ > _ _ > > > > > _ _ _ 1 , > _ ] 1 ` ` , _ _ , , ] 1 1 , , , ] ' 1 1 1 ] 1 1 1 < ' 2 , { ;.C lX( g.o U X o o X X X X X X U X X U o o U X U @ @ U   X X     U X 3 3 $ , } { , { 3 3 2 { + { { 3 d d d &.l 2 @.f R #.f @.E U X U Y o U U o U X U U X U U X U I X o o + Y T T U I o o X X X U X X U I X X U U o U U U X X X   X o o o X X X U X X X X o o o @ } O.g.) o o @ @ @ R o X o o o o X X X X X   X @ R U     X   I $ g $.W o X @ # U @ _ # f &.d B :.+.Y + T O O Y O o U O q q [ { 3 _ T O + Y + _ > Y Y + Y + + Y O + + + + Y + + O Y + > _ _ + Y Y + _ > _ > > > > > > > > > , > _ _ , , _ _ > > , ` , 3 1 3 , +.g.} r.) R $ o U o o X X o o o o o o X o X X o X U   o X X o o X o X X @ + 3 { { { o o X o U X o o o o U U o o o o U o o O O O O O T O T T Y # O + O O Y Y T { > + Y + + + Y f h R O Y + > + > > Y _ , > _ { 3 _ > > > > _ > > _ _ > { 3 > _ > > > , , , , , ` 1 , { r.#.",
"#.g.$ P X U X X X o o o o U o o o o o U @ U @ O o X o U X X X X X o X X X X X X X I X X X X X I U X X o X X X X X X X U X U X X U X X X X X U U o O o U U T U o X U o o X o U U X X U X X o o o U o o U U U X o o O O U o o O + Y + + Y O + Y O O O + > , 0 #.) ) R o O @ o o o U o o o X o U o o U O U U X U U o o o # T X @ $ + $ d f [ j N &.] 2 { &.f b b j l 3 _ { E + 2 &.M *.$.:XE X o o U X o U U U X U U X X X o @ $ 3 Y @ Y Y T T _ > O X U U U o X U o X X X U o U U U X o T + @ @ X X X X X U X X X X o X X X o E r.^ { Y o X @ f E X X X X X X o U o o o U $ R T X X X X X $ d f ! { 1 q q @.g h g h 1.g { ` ,.,.:.+.3 _ T # { $ a L.@.f U.%.W W W T o   . T X X T T X   U X   T T @ o U o o @ Y @ # E X X X U X X X o X X X X X X X X X o o X o o U o o o o U U o X o X T E Y E ) l.P o U o o o o o o o o o o o o o o X X + 3 ; $.f 3 > , 3 E @ 3 $ # Y # Y E T T @ O X o T U o X X o X U U X o U o X U X X I X U X X U X U U   X X U Y +   U X U U $ p A g.X U X U X   X X X U X X X U o X X X o X X X X o o o o U O O o O o o U o U U o U o E r.",
"+.#.B T X o @ @ U X X o X X o U o X O o O Y O @ > T U o O X X X X o X X X U U o T Y $ U X X X @ Y U P f T o o o U X I X X X o U   U o o X o U U U X U U X U o Y U X U U X X @ @ O T @ + Y Y + Y T Y U o U o + U X   X U     X         X U Y o U @ U X     U E ` #.E X P @.T X o X X U X O U U o o o U X @ T o O U U @ q r.T @ P $ y g $.@.d h } { { f M *.l d d N { { E Y T $ 3 Y T U E E U U U X U U X X X U U $ @.` _ O O X o T U o @ + Y U o T T U X X X U X U U U X X U X U o X X U @ U U @ U U X X U X X X o o @ @ o o O +.) R R # T $ # R # # # # @ @ # # # Y @ # R # # # W = R $ l.wX:X: l.0XI.x.n.x.d d 2 @.d } f h } +.} +.{ +.q ] d * h $.z.Q E : P.t.@.#.T O > ] ` > O _ O > ` > _ , > _ > O Y O U + T > T T O O T U o U o X U X X U X X X   U o U X o o o U U X X U X X X X T +.E ^ ,.$ o X o o o O o o U o U X @ @ + O f { o $ 3 Y T o o U I I X     I I     o O +.} X X X o U U U o o X X U o o U @ T o U @ T U o U o o U U T + o U o X X U o X U U X $ R I o o X T + o o X X X X X X o o X X X X U X o o X U X X U o U X X   U X   X X U U X X T ",
"g.R { E o U @ @ T + Y o O T @ f E U @ T $ > + P R U T T o . U @ U . # # = R # R U + o X o @ q 2 { O.{ Y O T U o U o + T U U X o U U U X X X U U X U U U o o X U U X U o U $ d > Y R # = R @ + Y > ` +._ Y $ > ` > ` _ T T U U o . # R @ # T U # @ R R # R R { 1 f ~ = : ~ R # W # = R # z.~ # = = : : : : ~ : Q R = : : W ; z.c.x.x.x.>Xv.4XwX%.>.@.f @.z ;.< _ Y _ E +.O.} q R W W E W g.T + _ + O q } T U @ Y . : W W R R R # ; >X;X= : ~ W = : Q W : ~ W : Q : Q ; : W ; Q ; c.c.;Xc.>X,X,Xl.>X;Xz.z.,Xc.;Xc.z.c.>Xx.x.x.x.,X>X>Xx.x.x.v.N.N.v.N.v.4Xv.N.N.N.9X9XN.N.N.9XN.9XM.M.M.N.N.M.8XM.M.M.M.M.UXUX>XGXr.T 3 @.[ 2 } O.} } { #.f = = = : z.c.;X;Xx.;XQ z.;XQ Q = W W ; = 0X;Xz.Q Q ; ; z.0XQ ;Xx.;X; x.0Xh $.Q Q = W R R = h N Q R # # R # R . = W E # d W R # R R R # # = # $ @ g.) ^ @.= $ @ # . o @ R U X U X @ @ X I $ g p.T   . . @ o U I   .   X . . = R # $ - f g.I X X U o : ~ R . X X X X X X X U X X X X U X U X U U U o U O o X U X U U X @ U o . T o o U X X X U X o U X X U X U X X X U X U U o X X X o o U U o . . T o o . o X U U U o X ",
",X,X,X>X>XQ c.c.x.c.>X>Xx.>Xc.x.>X>X>Xx.x.x.>X4X,X,Xc.x.c.v.>Xx.>Xv.N.N.M.4X>X4X>X~ f ] @ P s O.x ;.:.:.} +.{ T O # # R R R # = W W W ; Q Q : ;XQ z.Q ;Xc.c.c.;X;Xc.x.c.c.c.,XQ c.>Xc.>Xx.x.,Xx.>X>X>X>Xx.z.z.x.x.>X>Xx.>X>X>Xx.x.4X4Xv.4Xx.>Xx.4Xv.8X4Xv.v.4Xx.4XN.N.4X4XN.N.8XN.v.8X8XN.9XN.N.8X9XN.8X8XM.8X8XN.M.8XN.N.8X8XM.m.7Xm.m.m.IXUXUXeXr.q } { + 3 #.@.#.W = z.>Xx.N.8Xv.>Xx.,X,Xx.x.>Xx.v.4X>Xx.x.x.v.x.4X4X4Xv.v.4Xv.4X4Xv.v.v.M.n.4Xv.4X4X4XN.N.n.8Xm.M.8X8Xv.4Xn.n.b.6Xn.5X8X7X7Xm.m.7Xm.b.7X5Xm.m.7X8XM.8XM.M.M.M.8XM.m.M.n.n.m.8X7XM.M.m.m.m.m.m.m.JX@Xm.m.b.7Xb.b.m.m.b.b.n.n.6X6XJXIXDXAXnXAX2X$.d { , 2 h v.N.8XN.M.n.8X8X8XM.4XM.6Xn.M.8XM.M.M.M.8X7X8XM.7X7XM.7X7XM.M.8XM.M.M.M.m.7XM.8X8X7X7X8X7Xm.7XM.8X8XM.8X8XM.8X8X8XN.M.8XN.M.8XM.M.M.8XM.4X8X8XM.6X8X8X8XN.N.N.4X4XM.9Xv.v.4X4X4Xv.4X4Xv.x.v.v.4X>Xx.v.v.v.>X>Xv.4X4Xv.v.4Xv.v.N.v.v.N.4X9XN.4X8X9X>X>X;X:XR - =Xv.v.>X,X~ = W = W R = = = W = = # = W W # = W : ; : ; c.Q c.,Xc.c.,Xc.c.>X>X;X,X,X;Xc.Q ; c.c.c.,Xc.,X;X; z.,XQ z.c.c.c.;X: x.>Xx.>X,Xc.>Xc.>X,Xc.c.,X,Xc.,X,Xc.c.",
"M.M.m.M.m.m.m.7Xm.8XM.m.7Xm.m.7Xm.m.m.m.7Xm.b.m.7X7X7Xm.7X7Xm.7Xm.m.b.#XJXUXIXIXIXUXUX! P w & h P.wX>X;X,X>Xx.9XN.N.9XN.N.M.N.M.M.M.N.M.M.M.M.M.8XM.M.M.8X8XM.m.8XM.m.m.m.7X7Xm.m.m.7Xm.m.m.m.m.7X7X7Xm.7X7X7Xm.m.m.m.m.7Xm.m.7Xm.7X7Xm.m.7X7Xm.m.m.b.7Xm.m.7X7Xm.b.b.m.7Xm.b.7XHX#Xb.#X5X5Xb.5Xb.5X5X5X#X#XHX#Xb.b.5X@X$XHX#X5X#X@X@XoXwXCX1XAXDX1XP $.#.j l.4Xv.N.JX6Xb.JX+X+XGXFXoX$XoX#Xn.$X$XJXJXoX$X#X#X#X$X$X$XoXoX#X$X$X%X@X%X#X#X#X#X#XJX#XHXb.#XJX#Xb.b.HX#Xb.b.7Xb.b.#Xb.b.HX@XHX#XJXJXJX@XHX#XJX#XHXJX@X#XKXoXb.b.#XHXHXb.#X6XGX+Xn.5X5XGXn.#X#XHX#Xb.b.5Xb.b.b.b.b.b.b.b.m.n.m.n.wXnXwXxXMXDXAXeXVX3XmX@.@.3 $ k.=X=XPX%XKX$X$X$X@XFXFX#XoXKX@X$X@X@X$X#X$X@X@XHXJXHX@X@X$X$X@XHXJX#X#XHX5X5X5XHXb.5X#X5X5Xb.b.5X5XHX5X5X5X5Xb.b.5Xb.7Xb.7X7Xb.7X7X5X5X$XKXb.5X5X5X7X5X6X#Xb.b.7Xb.7X7Xm.m.b.m.7X7Xm.m.7X7Xm.7Xm.m.7Xb.7Xm.7X7X7X7X7Xm.7Xm.7X#X#Xm.m.m.5X#XHXHXm.UXUXUXnXAX,Xj.P.L.P.wXeX9XM.8X8XM.M.M.8X8XM.8XM.M.M.M.8XM.M.M.M.M.8XM.m.m.7X8X7Xm.7X7Xb.m.m.7Xm.m.7X7XM.7X8Xm.m.m.7X7XM.m.7X7Xm.7XM.7X7X7X8X7Xm.m.7X7X8X7X7Xm.m.7Xm.m.7Xm.7X8XM.8X",
"5X5Xb.GXoX#Xb.b.5Xb.5Xb.5XHXb.5X@X@Xb.HX@XHXHX#X#Xb.HXHXHXb.#X#Xb.b.5X5XGXUXUXGXIXUX1X<X& -Xv.=X=X=X-Xn.m.7X#X%X#X#X#X#X#X#X#X#X#X#X#XHXJX#XHX$X#X@X@X@X+X@X#X#X$X@X#X#X#X#X#XJX#Xb.5Xb.HX@X#XHX@XHX@XJXJX#Xb.b.5X5Xb.HX#Xb.#X@Xb.#X#X5XHX@XHXHXb.5Xb.b.5X#X#X#X5Xb.HXoX$X#Xb.b.HXGX#X#XHXHX#X#X#Xb.HX@XHX@X@X#X@X#XHX5Xn.b.b.n.n.b.6XeXd.VXeXIXAX<Xl.I.oXl.= U.K.I.FXFXLXOX$XJXGX=X#X#X%X$X$X$X$XoX$X@X#X#X#XHXn.b.b.b.b.b.b.b.n.b.#X#Xb.b.b.JXb.b.b.GX+X@Xn.n.b.b.7Xb.b.n.b.b.b.b.b.HXGXoX#XHXHX#X#X#XoXKXoXJX+XoX@X@Xb.@X#X#X5XHX@X#X5Xb.5Xb.6Xb.b.b.b.b.b.b.b.5Xn.GX@Xb.n.n.b.b.b.n.b.b.@XKXeXjXVXMXVXVXDXnXUX( 2 b ,.W % G.}.*XOXoXHXoX$X$XJXJXGXoX#X#X#X$X$X$X#X@X@XJXJX$XJXJX@X#X#X#X#X#X#X#XHXHX#XHX5XHXHXb.HX5Xb.5XHX#X5XHXHX5X@X5X5X#XHX#X#X#XHX@XHXHXHXHX@XJXJX@X5Xb.HXHXHX5X#X#XHXHXHXHX@XHX#X#XHX#Xb.HX@X5X5Xb.HX#X5Xn.b.b.#X#X#XHX#X#XHXHXHX#X#X#Xb.b.5X5Xb.m.5X3XAXeXAXDXc.j.L.g g rXqXGX%XKXHX#X%X$XJX@X@XJX@X%X#X#X#X#X#XJX@X#XJXoXJXoX@X#X#XJXoXb.b.HX@X@X#XHXHX#X@X#XHX#X#X#X5X5X5XHXHX#X@XHX5X5X5Xb.b.b.b.HX$X#XHX5X@X5X#Xb.5XHXHXb.b.5Xb.#X",
"b.b.eXwXU.=X#Xb.b.7Xb.5Xb.b.JXoX6Xv.#X5Xb.5XJXb.5Xb.b.5X5X5Xb.b.5Xb.b.m.9XAXUXnXxXAX<Xt.c.K.bXU.=X=X=X%XKXwX+XoX$XJX@X@X#X$X$X$X@X#X@XHX@X#XHX#X#Xb.#X@XoXGXGX#XHX#X#X@X#X#XJX%X#X@Xb.5Xb.b.b.5X5XHX@XoXb.b.b.b.b.b.HXHXn.6X5Xb.6XoX#Xb.5X5Xb.b.b.5Xb.b.5X7Xb.#Xb.5X5X6XoXn.b.b.6XJXb.HX@X7Xb.b.b.b.b.5X5Xb.b.b.b.5Xb.b.b.b.b.#X%X@XHXUXAXAXeXDX3X,X=X=XK.- - D.=XK.+XIXnX}.I.oXoXn.#XJX@X#X#X%Xn.#Xb.#Xn.@X@Xb.#X#X#X#X@X@XJXGX%X@X%X@X#X#X#X#X#X@XHXGXU.$X@XJXJXoXoXKXGXoX$X$X$X$XJXJXKXJX$X@X@Xb.b.b.@X#XHX=XoXKXb.b.HX#Xb.n.oX6XHXoXoX@X@X#Xb.JX$XHX#X@X@XJX$XoX$X$X@X@XoXOX*X&X&X*X&X&X&X|.wXeXMXSXMXBXBXSXVX) f 3 @.R % Z.I.OX+X%X#X#X#X#X+XoXHX#X5X5XHXHX#X#X#X#X#XHXJXJX#XoX#X#X#X#X#XJX#X@X$XHX#XHXHX5Xn.6X6Xb.b.5X6Xb.#Xb.5X5XHX@XGXHXHXHXHX#Xb.7X5Xb.b.7X7X7X5Xb.5X5Xb.5Xb.b.5X5Xb.b.5X6Xb.5Xb.b.5X5Xb.b.b.b.5X5Xb.5Xb.5X7Xb.b.b.b.5Xb.5Xn.5X5Xb.b.b.b.b.b.n.m.6XIX3XUXIXAXAXl.- d j s W.KX#X@XJX#X#X#X#X#X#XJXoX#XoX@XJXoXHX@XHX#X#XHX#X5XU.n.5Xb.6X+Xn.GX5Xb.b.#Xb.6X@Xb.b.b.b.#X#Xb.n.5X5Xb.b.#X#X5Xb.HX5X5X5X5X6Xb.5Xb.b.5X5Xb.5X7Xb.7Xb.b.5Xb.5X",
"5XKXIX@X7Xb.n.#X#XHXHXHX#X#XGX+Xb.5Xb.b.HX5Xb.b.5X5X#X#XHXHX@XJXHX#X$XGXGXUXDXAXAXVX1X:X* u }.+X=XK.K.wXU.+XoX#X#X#X#X@XJXJX$X#X#X@X@X#X#XJXoX#X#X#X5Xn.#XGXGX%X#XHXKX#X$XJX#X#XHX%X#Xn.#X#XHXHX5XHX5X@X$X@X#X#X#XHXJXHXoXGXJX#X#Xn.#X#X@XHX@X@X@XHX@XoX$X$XJXJX$XKX$X#X#X$XoXFX$XJXFX$X$X$XJX$X$XOXFXFXFXFXOXOXFXFXOXOXFXOX*XLX&X|. XlXVXSXBXmXZX3XwX}.}.g * y G.D.Y.lXbX*XI.*X=X=XHXb.n.n.HX#X$X@X@X$X$XFXoXOXOXOXOXFXOXOXOXwX}.+XFX+X*XLX&XLX&X&XPX*X*X&X&XLX&XLX|.|.vX&X&X&X&X&X&X*XOXOXoXFXOXOXOXOXOXFXOXOX&XOXOXLXFXFXOXOXOX*XFXFX*X&X+X&X|.wX*X&X&X&X&XPXbX<.XX&X|.vXvXvX|..X.X.X X.X XcXaX%.DXSXMXBXNXSXlX<XP j #.~ % * * I.=X+X+XwX0Xy.h K.OX$X@X#X#XHXKX@X#XJXJXKXoXJX#X%X$XJX$X$XKX$X$X$XJX%XOXFXFX$XI.tXGX$XFXOXFXGXoX$XOXKXKXGXwXFXoX$XJX$XOXOXFXoXoXKXFXOXOXKXKX$X$X$XKXU.oX$X$X$XJXJXHXHX$XJX$XJX$X$X#XJX$XJXJX$XKX+X$XJX@X@X$XJXJX$X$XJXJX$X$XJX$X$XoXFXFXIXIXVXeXUXAXUX0XP P a K.D.+XFXGX#XHX#Xb.b.b.b.#X#X#X#Xn.@X@XHX@X#X#X@XoX#X#X#XHX$X@XJXHX4X4X#Xb.HX#X#XJXn.b.5X#Xb.b.#X5X#X@X#X5XJX#XHX#XHXHX#X#XHX6Xn.b.b.7X5Xb.5X5X#X5Xb.n.HXHXHXb.#X",
"LXOXOXLX&XLX&X&XLXLX&XLX&X&X&XLX&X&XvXLXLX&X&XLXLXLX&X&XLXLXLX&X&XLX|.bXxX1XZXNXNXNX1X%.& % C.K.=XT.q P.m.$X#X#X#X#X#XHX@X#Xn.n.#Xb.#X#X@XKXoX%X$X$XoXFXFXOX$X$X$XJXGX$XJX$XJXoXoXoXOXOX&X&XLXFXFXFXFXFXOX+XOXLX&XLXLXPXFXOX&X&X&XLX&XLXvXLXLXLXLXvXLX&X&XvX|.LXvXvX&X&X|.vXvX|.|.vXLXLX.X.XvX|..X.X.XvXvX|..X.XvXvX.X.X.XvXtXW.vX.XnXMXmXVXBXBXZX2XwXXX}.Q.j.y r t L.nXhXK.=X&X-X+X+X&X&X*X&X&X&X|.|..X X X.X.XvX.X X X XcX{.xXI.}. X X{.{. XcX X XcXXX X[.hX[.{.hXhXQ. XcX{. X X X XXXXX X X.X.X.XcX X X.X.X.X.XcX X.XcXbX.X X XcX X.XvX X XcXcX X X XXXhXQ.XXDXkX}.cX{.hXhXhX{.{.hXhXiX{.dXhXxXmX1XMXBXBXNXSXkX( P q +.%.h.e * * g C @.B vXIX4XI.+XU.U.|.|.vXvX&XLXLXPXOXOX&X&X|.|.LX&XvXvX|..X.X|.|.vXvX.XvXvXcX|.vXvXvXvXvX|.vX|.|.vX&XLXLX&X|.vXvXvX.X|.vXvX.XbXcXpXZ  X.XLXLXvXbX&X.XvXvX|.vXLXLXLX&XvX|.LX|.bXbX&X&XLX|.LXLX&X&X&X|.vX|.vX|.vX|.vXvX|.vX|.|..XvXvXnXAXAXeXZXUXUXUXz.% e w K.Y.T.=XwX+X$X#X#X#XJX#X#X#X@X#XJXJX#X#XJX$X$XoX$X$XFXFXOXOXFX+XoXKXoXOXFXOXFX$XOXOXOXFXFXOXOXFXFXFXOXLXFXOXFXFXOXFXOX&XLXLXLX&X&XLXLXLX&X&XLX&XLX&XLXLXFX&XLX",
"cXcXcX.X.XcX XvXvX.XvXvX.X.X.X.XcXcXQ. XcXvX.XcXvXvX X.XvXvX.X.X.XvXcXnXSX/ mXBXmXBX( eXl.% w y J.&XW.h.I.+XOXOXOX%X$XFXFX+X+XFXOX*XLXLXLXLXFX*X&X*XLXLXLX|.|.vX|..XvXvXvX X X.X XcXcX XcX X XcX XcX X X.X.XcXcXcXvX XvX XcXcX XcX X XcXcX XcX XcXvXvX.XvXvXcXcXcX X X XcXcX X XcXcX{.hX X XcXcXcX{. XcX XcX{.cXcXcXcXhXhXhXyX XhXsXjXmXmXBXBXNXa.1XwXXX].'.j.y i r w U.&XbXL.=X].[.[.sX'.[._.`.`.sXD _.sX_.).).).).(.).J pX4.yXXX_.[.`.).).).pX).).`.).J ).).sX`.).`.).J J `.(.).(._.!.!._._.S _.`.sX'.sX`.`.`.sXsX[.`.`.`.sXsX/.sXsX6.3.(.).).pXpX).).J 7.K C q.U.!.7.uX5.J pXJ 6.6.(./.{.dXpXlXBXmXBXBXBXNXSXq.^ - m $.z.h.e w % s Z bXT.C V K.Q.{.hX{.`.`.sXsX`.).8.sX[.[.`.`.`.`.sX`.`.sX`.hX[.[.`.`.sX`.hXhXhX[.[.hXhX X{.hX{.hX[.hX[.{.cXhXhXhX[.hX X XcXcX XbXnX:.[ j n ].vX XcXcXcX XcX XcX.XvX.XcX.XvX.X XhXcX.X.X XvX XvXvX.X.XcX X XcX.XcX XcX.XvXcX X XcX XcXjXAX3XVXNXCXAXVX;X% w e F.*XK.}.wXI.LXOX*XLX&X&X&X&X&X&XLX&X|.LXLX&X&X|.|.vXbX|.|.|.vX.XcXcX.X X XcX XcX.X X XcX X XcXcX X XcX XcXcX XcX X XvX XcX XcXcX X XcX XvX XcXcXcX.XcX XvXvXcX",
"sX`.[.[.sXhX'.`.hX`.`.[.sX/.`.sXsX{.jX3.(.`.pXpX).dX/.`.fXV [.sX`.dXpXzXVX1XNXNXNXBX<XrXL.% u w y I.oXh.j.XX|.|.|.XXhXhXhX[.[.{.hX[.sXsX[.hXhX[.[.`.[.sXsXsX`.`.sX`.).sXpXsX_.sXsX`.`.`.`.sXsXsX`.uX`.).J J pXpX).pXpXpXpX).`.`.sXsX6.6.pX6.5.pX_.pX).).).pXpXsXsXsX^.`.sXsX`.8.D pXuX'.pX).pX`.sXsX(.sXpXsX`.pX).pXsXsX`.dX`.6.pXsXgXVXVXVXSXmXu.<XqX_.!.(.j.y r r r t I.GXI.V L H 5.).H J J J J 7.uXK D pXJ J J J J G J J sXH 5.F J 5.G J 6.J ).).J 7.D H J ).).pX2.K pX)._.).).(.J S Z F D ~.H J 6.D G J J J G J 8.H J 5.F J ).5.6.1.B (.5.J 8.D J J G ).9.z w.Y.pX5.5.G /.8.J J 6.H K 5.0.J zXVXCXBXBXBXVXy.q.:X:X].I.l.& t e e y T.}.=XyX0XT.K L H 6.J J 5.J J e.$.R.(.).).).pXJ 6.J J 7.J J J 6.6.G 5.G J G J 7.K D J J 5.6.6.6.J J pXJ G 6.J 6.J ).J J J 5.6.`.jX%.0XP.}.!.J 6.).).pX).pX).).pXsX).sX`.pX).pX[.`.`.pX).).`.sX).pXJ pXiX`.).`.pXsXsXpXpXsXpXpXpX).J hXqX/ p.t.a.a.CXz.Z.e w e a I.=XU.E._.[.`.sX`.`.`.`.sXpXpX`.sX`.`.pX).sX).pXiX`.).).sX).).sXpX).).`.`.sXuX^.sXsX`.`.pX).).).`.sXsXsXuX).sX).sXsXsX`.`.sXdX(.sXuXD `.sXsX`.pXpXsX`.sXsX",
"J ).J 5.5.5.G 5.5.6.J G 6.J J J ).5.,.E.C C 7.5.5.J 6.G 4.E.G 6.5.7.(.jXBX/ NXZXBXBX1X;Xl.% C.w w y I.-XK.sXJ J ).pX7.6.5.D ).J 5.5.6.pXJ 6.pX(.5.D 5.7.J 6.J J 5.7.3.G 6.J J G 5.J 5.J 5.G 6.).5.5.J J ).6.J 5.5.5.5.5.6.J J G 5.7.6.pX6.pX).G G G 5.J 6.J 6.J 7.5.J J D 7.J fX/.pX^.J 6.J J ).pXpXpX6.6.pX6.5.J pX).pX6.6.7.6.).sXgXd.CXAXVXs.BX1XqX`.(.!.j.y r r w i A.T.7.tXY.J J ).H J J J J pX:.2 j 6.).J 6.J J ).).).J ).).6.D J ).3.D ).J J J J `.6.A H ).6.zXN L G H G J (.^.'.H (.H J F G J J J J J 9.V J iXJ 5.J 6.G J 7.J tXB 6.J J pX).J 6.V J 1.Y.]./.>.5.5.Z A aX).6.J J C 3.4.(.zXlX1XMXBXBXy.BXlX! :X.XK.F.h.e e w e J.}.T.6.dXiXpXH F 5.5.G J J 5.jXbX].6.G J 5.5.J 5.J 6.D J J 6.6.6.J J J J 6.J pX^.J J 5.A 6.5.6.J 8.C 6.J J 5.J J J 6.).J J G J 6.bX|..X{.^.pX<.J 2.A G J 6.5.J 6.J 5.5.J 7.S J J 5.J J J 5.J 6.2.G G D J 6.5.J J 6.J 6.6.6.6.pXpXJ ).MX/ t.i.CXCXCX0Xw e w e y j.|.)./.H 5.5.J 5.J F G J 7.D J J J 5.5.5.D 5.J G J 6.J J 6.G 5.6.G 5.D J 5.6.J J J J G J 5.J J J 6.6.5.6.J 5.5.J ).pX6.5.G uX).J aX^.J 5.J 6.7.J J J 6.D ",
"J 2.F pXpX5.F G 5.J J J J pX6.J 5.8.sXhXkXh H 6.).6.6.J J 7.J 5.3.J Z 9.NX1XBXNXZXBXCX,Xc.e w w w w Z.D.L 2.F 5.F G 8.4.7.H J 6.5.5.5.6.6.).J 6.6.6.J 9.*.L J J J pXpX).J J 6.J J J 6.J 5.D G 5.5.J 6.J J pX6.5.6.J 6.6.D 6.5.J J 6.6.7.D 6.6.<.S J J (.5.6.6.5.6.6.H pX^.5.J (.6.aXpX).pX6.J G D ).4.J pX).pX).).pX8.3.).7.>.H 8.G w.d.u.d.s.ZXBX2XqX).H !.j.V.r r r i r B gX{._.).).).J ).).6.H (.xXLXT.Z 6.D J J (.J J J J J J 6.(.J J uX^.J J J ).J J fX^.F G ).gXbX]./.).<.!.H H H (.(.(.H J J G D F G G 6./.J J 0.K H 6.^.J 6.J kXS B pX6.J J 6.(.).6.iX[.H 9.rXD H J S 5.5.J 6.J pX).J ).fXnXVXu.y.mXy.MXxX:X;X&XK.K.h.e w w C.u n m 5.J 7.(.).F G 5.J J 5.G G 5.G 5.6.J 5.D J J J 5.J 5.5.G 5.J J J J J 5.5.J 4.D 5.4.^.5.6.6.J fX^.J 6.G J J J J 6.G J 5.D D 5.5.5.G G J 6.6.7.rXE.).6.C H J 6.5.6.pXJ pX).J 5.J pXJ J 6.J 5.<.~.pX).).6.6.).J 6.J 6.6.J pX6.6.).(.u./ BXZXa.NXCXQ e e w e e w H pXJ G G J 6.J J J J J J J 6.5.G J J pX6.J 8.<.H 5.D 7.G 6.6.J pX).pXD 6.J J 5.J J 7.A J J G G C C 6.J 6.5.J pX2.A pXuX_.5.6.6.J ).pXpXJ 6.6.).6.G 6.pX",
"gX%.Z J 7.7.7.A H 6.6.J 5.G 5.5.J ).pX5.sXyXH 5.C J 6.J 6.6.pX4./.pXJ 7.NX2XNXNXNXNXZX0Xz.e w w w w K.}.iX/.H J (.5.J sXsXsXD 7.5.J 6.J 6.5.J 6.J 6.J gX$.B J 7.S 6.J pX4.G J ).6.5.J 6.8.D J J 5.G 6.5.G G 5.5.G J 4.6.J J 7.D J 7.5.5.6.J 5.).J 5.2.L J J 7.6.5.6.J J 6.pX_.J 5.J J 6.5.pX).6.D 5.6.3.C pX7.J 5.5.gX/.pXaXiXJ aX).gXnXVXVXs.u.i.CXt.pXJ L % V.i r r r r Y.aX_.).).).6.(.).).).).H J nXE.j ).sX).^.).6.J J J J ).6.D C G J 6.J J ).J ).).).`.pXS H pX(.D J 6./.(.H H J Z _.J J F J 4.H 6.D J J G G 3.E._.5.G J 6.).J gX X(.J J 6.G J J J J 5.G 6.pXpX).sXF ~.6.).pXpXJ J pX).).`.xXa.VXBXu.BXy.jXVX;X*X}.K.j.y e V.e e }.].5.J 8.K J ^.H ).J 5.6.J J J J J J J 6.6.J J G 5.J 7.J J 5.J 5.J J 6.pX5.J J 7.>.Z 6.5.J 6.6.J J J 6.D J J J 5.5.6.D 5.J H pX6.J J 5.G G G ).).pX).1.h (.G G J J 5.6.J J 6.6.8.S pXJ J 6.pXuX).).J 6.5.J 6.J 6.).6.6.pX6.6.J H J i.CXBXCXCXBXCX;X% w w w e F._.pXpXpX).J J J J J J J D J J 6.(.).6.J 6.J fXQ.J fXA 7.E.J pXJ ).6.A J 6.J J 6.J J 6./.).7.$.V e.m 5.J J pXJ 6.tXR.J ).6.5.5.5.).6.6.5.5.5.6.J 5.uXD pX",
"1.rXJ S 7.7.F _.).5.6.J 6.6.J 6.J G 7.J 5.5.).dXV F 5.J J 6.J pX5.7.6.5.MX2XNXBXmXBXmX; Q % w w w w J.H 5.pX5.F C H ).6.6.7.5.7.).J 5.J 5.5.5.G J J 5.J uXdXJ _.).5.J 5.pXpXJ 5.J 6.J J pXpXJ 8.K ).5.7.J 5.5.J 0.N K 6.J 6.J ).5.J 7.J 5.J pX6.J 6.tXR.F G aX5.J pXJ 5.6.).J 6.pX).J 6.6.J J 6.J 6.).1.V G 6.J 6.6.6.J 6.6.6.pXpX7.).lXmXVXZXZXy./ ! ).).E.h.V.i A.A.r w Z 6.(.).J J 4.L H 6.D (.pXJ pXjXR.F J ).J G ).).).).J 6.^.1.$.h S ).^.H J J J J J J pX`.3.A 4.~.).).(.J F F pXR.(.J ).J J J G G J A J J J ).).G 5.).J J J 6.D (.6.).pXfXN K C J 3.).pXJ 7.0.M sX{.(.sX7.2.D pXJ J 6.J (.q.( BXZXNXBXqXcXVXc.*X}.I.j.y e e e e s F J 5.8.!.(.6.F J J 5.6.J J J J G G J J 5.J 5.J J J pX).G 5.J J J 5.J 2.5.).).aXQ.H 5.J 5.5.J J J 5.J 5.J ).6.6.J J 6.5.6.S 6.6.6.7.D pXJ J D 5.5.7.pX`.J J J 5.J 7.J 5.G 5.5.4.~.5.J ).).6.pXH 6.D J pXJ 6.6.5.5.5.5.D 6.6.6.H 8.d.mXmXNXCXNXCXQ % w w w y J.5.6.5.).J 5.J J J J J J J J J J J G J J J J J J 6.6.rX~.pXJ 5.J J pXE.).J J J J J 6.J J J 6.yXpXjX].6.J ).pX6.J pXJ J J 6.6.6.pXJ 5.5.J 6.J 6.6.6.).).).",
"7.J ).).7.9.K L 5.).).6.J pX6.6.pX6.6.6.6.).).6.pXpX).7.G 6.4.D 7.J 6.pXMX2XBXNXNXNXCXQ ; % r w w w a !.8.>.J 5.h !.5.5.5.5.J pXpXJ ).5.J 6.6.J J 5.J 6.5.5.J H 7.J J 5.5.J 5.J 5.5.6.J 7.J 6.tXR.G 5.5.5.5.J J fXQ.J 5.G J J 7.7.J 6.6.J G G 6.J 6.6.pX`.H 5.6.J 5.6.pXD 7.G G ).6.).).7.5.J pX).J 6.uXsX6.D J J pX7.J J aX6.6.6.6.J lX3Xi.t.ZXCX/ :XsXH Z % V.G.r r r w Y.pXH ).pX).dXE.Z pX).J J 6.J ).sX).).pX6.).A C 6.J J ).`.rXU.}.(.pXpXJ ).3.F G J ).J J gXQ._.J J J J ).8.K (.!.G J J J J J )._.J uXJ F J J ).pX^.J ).).J 5.).J 6.J J 7.Q.fXV *.N L 2.;.2 5.$.d G pXJ q.h m ).).).sX`.H d.qXVXZXVXBXqXbXCX:XPX}.I.j.y w w e w m Z ).6.6.Z 5.6.H J 6.6.6.).J ).J ).).J 5.J 5.A J J J G 8.>.Z D G J J 9.$.Z J 6.).7.J 8.A J J 6.J J 6.5.5.J J 6.6.pX5.G J J G G 5.J pXJ J ).7.K 6.pX6.J 5.J G 5.J J 7.J J J J 6.4.H 6.J J G 6.6.5.G uX(.5.6.5.J 5.pXsXuXH pX).pX(.7.i.t.u.ZXZXBXCX;Xe w w w e g 5.5.6.J 6.J 6.J 6.J J J J J J 6.6.6.J J J 5.5.A J 6.).6.5.J 6.J 5.H J 6.6.G J J J 5.J 6.J J G 5.J 5.).7.-.C G J 6.6.J 6.J pXpXpXpXpX^.).pX6.J J J J J J ",
"pXJ G G 9.9.J Z 2.v J pXJ 5.6.J J pXpXpXC H 6.6.).6.6.pX^.6.uXD 6.6.6.).MX( BXa.u.i.CXqXQ % r w w e j.>.@.L.(.gXP.L 6.D 5.pXJ 5.6.J 5.6.).6.pXpX6.J J J pX^.).J 5.6.5.5.5.J J 6.6.J 6.5.J ).J pXpX6.J 6.).pX6.J J 5.8.J ).5.G 6.6.J 5.6.pX<.Z pX6.D 7.H ).6.5.J 6.6.J J 6.J pXJ G J 5.5.7.<.Z 6.).6.D 5.6.pXpX6.J G 6.6.3.6.pX6.6.pX).xXAX3Xu.CX2XUX:Xz (.H & e i r r A.C.Z 6._.J pX3.K sX(.J ).).6.J (.).).).6.J J pX%.f S 6.J H G J pX6.J J 6.(.J dX'.pXK J pXJ _.`.J J F ).(.H `.'.(.>.B ).J H ).).J J 5.G ).J J J J J 6.(.J J pXpXJ J pX6.J 6.J 6.hXyXQ.0X,.:.m c %.g j N 2.q.XXT.C C 2.@.M J SXxXqXmXBXBXnXxXZX! 0XXXI.j.e e e w e n Z 5.5.(.(.J 6.(.J J J ).pX).J J J 6.6.pX6.pX`.J J 6.).pXyX!.).).6.J pXhXJ G G J 6.^.pX/.pX6.D J 6.5.5.J ).J 5.D J 9.E.).pXpX).7.F G 6.J G pX4.K 6.7.J J 6.4.^.J 6.(.).J J pXpXsX).5.6.6.D J 7.6.F F 7.7.G 7.J J J 5.6.J 6.6.J J 9.y.mXi.NXNXBXCX:Xe e e w y L.7.J 6.J ).6.).J 6.).).J J 6.J J J J 6.5.J J fXE.J 6.J J pX).).pX).>.*.S 7.V ).pXJ 6.G J J 6.G J 6.J >.O.z Y.).J 6.6.J 5.J G 6.5.G pX).J 6.J J 6.6.J J 6.",
"A pX6.J 9.9.2.c =.v j D 6.J 6.6.J 6.J 7.h Z aXJ 6.6.pX).6.6.uXpX6.pX`._.BX( BXa.mXBXCX%.,X% r w w K.U.0XP.T.aX).jXR.Z 6.D 6.6.6.6.6.pX).5.6.5.J 6.J J 5.5.5.6.).6.6.6.J 6.J J 5.6.5.5.8.V J J G 6.J ).pXJ 5.6.6.6.5.pX).6.<.S 5.5.5.J J pXuXJ 5.).).aXD F 5.6.J J pXpXJ 6.5.J pXpXJ J pXJ sX).6.J 6.).5.5.J 2.z H pXpX7._.).dXsXpXpX).zXMX1Xu.BXZXNX( 0XB H % e r A.A.i w B ).J J (.lXb C G H J G J ).J J J J ).pX).6.eX+XZ 5.).6.J J 5.6.(.J 5.J J ).J 6.^.J 6.).H J ).).).H J H F H (.'.~.G 4.Z J J 6.S 8.S J J J J J J ).).J J G 5.6.(.J pX6.).0.K J J G ).nXeXm :.@.J.n v *.x !.8.V ,.&.$.L.).kXlXy.BXBXSXgXMXZX:XP.XX}.j.y w w e e H.!.7./._.D J ).H 5.J J J J 5.J 5.5.5.5.J J J J 6.J 6.D J J ).5.5.5.J G 5.5.J J J G G G 5.6.6.(.5.6.6.pX).).6.pXJ J uX).5.J ).3.N J H J 7.C F 8.H J ).pX6.D `.).6.J J J 6.J J 6.J 7.J 6.pX4.G 6.`.pXD J 6.J J ).).).6.D J 6.6.6.J 9.i./ BXNXBXBXCX%.y e e w e Y.7.J 6.).6.J 6.J ).).).).5.5.pXJ 6.J 6.pXJ J J 6.6.J 6.6.J J 6.).9.:.n Y.aXiXC 5.5.6.uXJ ).pX<.K pX9.r.T.XX~.6.).pXpX7.8.D J J 7.V H 7.G 6.pXJ 5.6.J 6.5.",
"~.J J 5.9.gXgX8.S 3.L j J 5.J 6.J J 6.6.hX(.7.6.6.).pX6.6.pX6.6.6.6.H (.MX2XBXmXNXi.CXQ Q % w w u L.(.pXfXZ 5.pX6.`.J J ).5.5.J 6.5.J 5.6.5.6.J J 5.J 5.6.D J J 5.J pXJ 5.J J G 5.6.4.6.J J 6.J J 5.G 6.J J 6.6.6.pXJ J 8.^.J 5.6.).).6.6.sX).pX6.7.4.uXJ J 6.5.G G 5.G 7.4.H 5.5.pX).6.6.G 6.6.6.).pXpXpXpXy.h ~.G pXaXV H 6.pXpX6.(.zXMXa.u.NXa.CXQ XX(.~.h.e i i A.H.w Y.pXJ ).H xXnXn (.(.pX).).).).).).).D J 6.J sX{.).).J ).J G 6.(.).).pX).J J J ).6.D ).).).F J ).).).).J J Z (.F G J ).J G J J (.pX_.J J J J ).J J J J J J 8.K J 5.J J 7.tXW.5.J J J 2.yXyXqX0Xp *.8 =.m W.hX{.jX*X*X].5.gXy.p.u.MXBXfXSXZX:XI. XT.h.y w w e e H.).).(.pX).J ).J J J J 5.J 6.J G 5.J J pXD G 6.J J J pX5.J J 5.5.J J 7.J 6.J J J 7.D J D J 5.D J J pX6.J J 7.5.J ).J 6.).(.J $.d (.pX6.7.<.Z ).).6.5.5.).).).6.6.J J J J J J 6.7.3.D 6.6.uXJ G J `.pXJ 6.).).J J 5.6.`.J 6.J 6._.gXi.mXBXBXNXMXZX<X% e w w y a 6.J 6.5.J J 6.).J J J J 4.D J J J ).6.6.J J J J J 6.J 6.6.J J J gXnX}.D J 9.<.Z J J 6.J J 5.dXV F w.wX{.dXD H J 5.5.5.fX~.J J pX/.J 7.V J 6.6.6.J 6.5.5.",
").6.J 6.7.9.sXhXgX].yXR.L 6.6.J J J 6.`.J 6.6.6.J J 5.6.6.5.5.6.D pX_.Z kX1XNXCXNXNXa.eX;X% w w w u J 5.pXsXD 5.7.C K S 7.6.6.J 5.6.6.J 6.5.5.6.J J J ).aX).J 7.5.J J 6.6.pX).6.5.G D 7.J J ).pX6.pX>.K 6.G 6.6.J 6.pX).iX(.7.J 6.D D 7.J J 6.5.7.6.6.G ).6.D ).pX5.6.J 5.pXJ 5.G J 5.J pXJ 5.J G 5.G 5.G 5.jXQ.D ^.6.pX{.(.7.6.5.6.G w.p.mXNXt.mXa.Q H 6.!.h.e G.G.r i C.Y.6.(.).).sXbXW.!.J J J J J J 5.J ).).J ).).).pX`.).pXG 8.Z ).pXJ ).J ).J ).pX-.S ).(.).pXJ H J J J ).).).H F J F F J pX`.).).J J J J J J J J J 6.J J 6.J aXK F 5.).).7.'.).5.pX).7.1.Z tXeXwX].gX0XY.T.B 6.5.J ^.pX).J aXBXmXDXMXMXhXlXZX:XI.hXT.% e w e w w a Z pXJ J ).).J J 0.M J 6.J 6.6.6.J 6.6.J 6.A H 6.J J J 6.J 5.5.6.J J 7.H pX).).7.`.`.6.6.J 6.J J 5.J 6.).J 6.iXH 5.6.6.J J J fXQ.H 5.6.).iX~.J 6.6.pX).).J G 5.6.6.J J pXJ 3.F 6.pXJ 6.6.J 6.J J J 6.6.J J 6.6.J J J J J 6.6.6.H 9.u.mXBXi.ZXy.a.mXe e w w y L.6.6.J ).6.J J J J J ).J ).).).).).J 6.5.J 6.J J J 5.J J J ).6.J J /.uX5.J 9./._.J 6.D ).5.6.J iXJ uX(.5.J sXJ G 7.6.^.pXpXJ J 6.5.5.6.`.5.5.J J J 6.).).",
").6.J pX9.aX).0.4.T.{. X_.J 6.pXJ J ).J 6.6.6.6.).J 6.pXpX6.5.G 5.6.Z H 7.mXu.NXNXmXCXp.Q h.w w C.e B pXpX).pXD 7.rX!.J 5.6.6.6.J J 6.J pXpXpX).).pXD F 6.6.5.6.J J J 6.D (.pXpXpXpX5.J 5.D J 5.J 6.tXR.7.J J pX6.6.J 6.J 7.6.pX).`.6.(.pXD 6.J pXpXpXuXA J pX).pXpXsXpX8.G 2.D (.6.J J 6.J pXpXJ 7.3.G 6.6.H aXS ).6.6.J 5.6.pXpXpX).gXVXCXNXt.y.( Q F J B % V.r r A.G.e !.pXH J ).).J pX(.J ).6.).).J ).(.).sX).J J J J 5.2.,.>.R.4.F pX).J J J ).).9.rX!.7.-.C J ).(.).).^.(.J ).).J H J >.l b H J J J J J J J J J 6.C J J J J ).aXiXG S ).7.).5.5.G J 5.4.{.(.7.jXcXnXE.XXXXQ.~.6.).pXJ ).6.5.6.p.u.MXZXMXaXy.ZX! P.hXR.j.y w e w e J.!.7.5.H J J J J gXQ.J J 5.J 6.^.).J ).).pXiX~.6.J 5.6.J J pX).pX6.6.^.).J 6.5.J J 5.6.6.J 6.J J pXJ 6.J J pXpX5.D J J 7.J 6.J ).6.J ).6.6.H J 7.J J 6.J 5.J J J J ).).pX6.iX(.5.5.G G 5.pX).6.J J D 6.6.J J 6.).J J pXJ pXpX6.(.9.MXCXy.i.BXNXZX<XB.e w w y Y.6.J J 6.4._.6.).pX).J D pXJ J 6.J pXpXpXJ J J J J 6.pX6.J J 6.J J J 5.6.7.>.!.6.J 6.).J 6.J J J J J 6.).pXpXpX).J 6.J J pX6.J ).pXpX`.6.pXpXJ ).uX^.pX6.",
"7.J J 6.9.`.9.pX].].).).pX6.6.6.J ).6.J 6.6.J J pX6.6.J 6.pXsX7.V J F Z ,./ NXNXNXNXCXt.! % r w r e g 5.J 5.5.pX).`.6.J 5.5.J 6.J J 5.J G 6.).pX6.6.pXJ J 6.).pXJ 5.G J 6.F G G 5.5.J 6.D J G J 6.5.J 6.J 6.J J 6.6.J J 8.J ).pX).5.6.J J pXpX).).pXpXpX`.J C J 5.J 5.5.).aXrX'.G G J pXJ J J pXpXaXrX~.6.pXJ (.fXC 5.5.A 5.7.3.A J pXaXt.CXNXDXVX2X,XF J B h.e i A.r A.w n pX).H 8.z K Z ).).J `.`.`.`.).).A F pX).).).6.pXyXQ.cX{.dX!.).pX).pXJ F 5.sX{.G w.rXT.).).J J H ).).(.).).).(.J jXjXn B J ).J J J J ).8.S pX/.J 6.J ).*.z 5.<.!.7.J J J aX(.).).`.pX,.K gXE.yX|.!.7.J (.).pXpX).6.5.5.5.CXCXVXBXBXfXSXCX<Xh sXE.& V.w e w V.s L 6.`.H G J J 7.H J 6.J J pX).J J 6.5.D J 5.6.J J J ).).J J J 7.6.J G 5.G 5.).).pXJ 6.6.6.J 6.H ).6.6.6.J G 6.).).5.J pXpXJ 6.G J J J pXpX).J ).sX6.6.5.J J 6.J J J D 7.6.J 5.J J 6.J J 2.G pX).6.F ).pXJ J J J J J ).J J 6.uXJ e.p.t.BXBXu.t.s.^ e e w w w B pXpXJ pX/.).pX6.J J ).).).pXpXpXJ 5.J 6.J pXJ 6.J J 3.G 5.J J 5.J J 6.).7.Q.J J ).J J 6.6.6.J pX).J ).5.G J pX2.C 2.H J J 7.S J 6.pXJ 6.6.J pXJ ).pX6.J ",
"pX).6.).gX2.0.L Z !.J J 6.).pX6.J J 6.6.pX).).pX5.6.6.J 6.J 6.aXhX).(.Z qX/ NXNXu.BXa.! ;X% r w r h.J.G 5.5.J 7.J F pX).6.pX).6.J ).6.6.J J 5.D 7.5.G J G J 7.J 6.6.6.,.N ).J J 5.uX).pX).5.6.G G 6.pXJ J J J J J 6.6.5.^._.6.5.5.5.J 6.7.>.L J G 5.5.6.J 1.V H 6.5.7.).J pX`.6.pXJ J D pX).6.7.J 6.`.pX6.6.`.).gXE.5.7.<.F 6.sX/.).J gXmXCXNXMXCXZX<X5.F n h.w r r r A.w Y.6.J H dXXX{.(.H ).(.(.).).).).pXuXH D J J 6.6._.pXJ J pXpX(.J 6.).6.).6.~.).J ).hXXX(.G J J J J H ).J H (.).).F ).bXXXF J J J J 7.H J `._.J J J J J 7.y.g <.V J ).pX).3.K `.).5.G 5.qXE.iX_.5.G J ).).J J J J 6.6.).fXE.VXmXtXMXBXfXSXZX<XP.`.E.& y w e w w n m ).J J J J J ).).6.J ).J J J pXJ 5.J ).7.D J J J J J J 6.6.5.6._.pXJ ).3.K J J pX6.5.5.6.,.K J 5.J 6.J 6.J ).).pXaXS J pXpX6.).6.J J D J J 5.F 5.6.6._.pXpXpX6.).).5.5.5.6.).pXJ ).).1.@.m A J pX).G J pX6.6.J J J 6.7.D 6.J aXe.p.t.y.u.u.mX/ y.Z.e w e F.R.J 6.J J J J 6.6.J J J J J J 5.pX5.J J 5.J ).6.J pX5.rXE.pX6.J 4.J J J J ).6.6.(.J J ).pX6.pXJ ).).6.J pXpXJ 2.:.b V (.4.H 7.^.5.J 6.pX6.6.6.5.5.J 7.5.3.",
"S 6.J 7.gXjXiXT.].`.).J ).J 5.6.).pXJ ).sX6.J pXuXJ pX,.K pXpXpXpXpX).Z y.1XMXmXNXNXCX:X; h.r w r u g 5.,.M (.sX`.J J 6.J 5.pXpX).6.pXpXpX6.sXD pXsX^.uXJ G 5.).7.J 7.q.T.J 6.6.J J 7.J 6.pX).pX6.G G 6.J J J pXJ J 6.aX(.G 7.J 4.D 5.5.5.yXQ.).6.J pX6.).iX/.J 5.7.J 6.J J 7.J 5.J ).J J J pX6.6.6.6.6.4.H J 5.pX7.6.).sX^.pX).).6.6.9.mXVXVXNXt.CX<XK Z n % C.r A.A.r r m pX).H (.0.z Z `.).(.).J 6.J J ).pX)./.).).pX`.H 6.iX(.).pX).).6.J sX_.7.N G (.6.J J pXD S ).).).C F ).(.J (.aX<.Z ).).J J J J J ).J J J J J 6.G 6.J J bXU.^./.J G J J fX<.v ).6.).6.).).J J 6.4.H J 6.).6.D ).5.D J J ).kXmX%.t.BX0.e.NX<X0X6.rX& y w e w e T.T.5.J J ).J ).).J ).J 5.J 6.J J 6.6.(.J 6.).).pX6.J J ).6.J 6.).J 6.pXJ tX^.J H 6.6.6.pXpXtX!.J J J 6.J <.K J 5.5.6.uXF J J ).J 6.J 7.D 7.D J J G pXsXJ 7.J 6.`.~.7.G J 6.).6.J pXJ H kXXXT./.).).6.pX0.*.(.).pX).J 6.uX).)._.9.e.MX1X%.y.NXNXZXAXe e w w B.Y.pX).pX).).).).pX).pX4.D ).7.V pXdX`.9.V F 0.N H pX`.`.sX;.K G 6.J ).6.J 5.6.).6.J J J pXpXpX6.).6.J J J pXpXq.Q.XX~.J pX).pX).pX6.F 6.6.J 8.3._.).pXpXfX",
"J 6.J 6.3.gXhXT.pX6.pXJ ).pX).pXJ 5.).J 7.6.J 5.6.6.6.tXE.5.J J pXpX).H y.CXBXs.u.BXCXCX;X% r w C.w & B MXL.Z pXpX6.(.6.6.J J 7.J J 5.J 6.6.5.7.H pX6.5.6.4.~.J pX`.dXtXR.7.D 6.(.pX).pX6.6.5.J 6.pXH 6.6.J G 5.5.J ).6.^.).pX6.D 7.5.pX^.H 6.5.6.7.J J _.).6.7.6.).sX5.H 6.J ).pX).6.C C G J 6.J J ).aXsXJ G J J dX`.J 6.5.J J 6.6.).zXi.mXNXmXmXZX2XtXL n h.w A.A.r r r Y.).).).6.jXXXZ J ).).J J ).).J ).pX^.J pX).pXuX~.).).pX6.(.pXJ 6.).pX(.zX0X!.).pXD G J uXA H ).6.<.!.(.J J H ).yX!.).J ).J J J J 6.pXJ J J J 7.J ).).pXF 6.(.).pX).J J G zXW.Z J J J J J 6.5.J pXJ 5.G J aXS 5.J ).J J J gXmXi.NXNXw.zXZX1Xq.J <.& y e e e C.m m pX).pXJ J J J J J 6.J ).).6.).).pX6.J J J 5.6.6.pXJ G 7.J J J 6.D 5.J J ).`.).6.J 6.G ).`.`.J 6.6.J 6.<.!.6.J 6.J ).`.).6.J J pX`.pXD J 6.J ).J F 5.6.).pXD J J pX`.J ).6.6.C J J F kXjXm K 6.6.).pXkX0X!.6.J J 6.J 6.6.H S zXlXMXCXDXBXNXu.NX1Xj.y w w y B 6.J 6.).J 6.J 5.J 6.uX_.).pX`.5.J 5.fXiX,.@.B N N F J 9.0XR./.<.V 6.J J ).5.C ).J J J 6.6.6.).J 6.6.6.J 7.5.hX{.pX`.J J pX6.J pX6.(.J 6.).aX'.).pX6.pXpX",
"5.).pXaX1.!.[.(.7.).).).J pX6.7.5.J J J J pX6.5.5.pXJ J pXpX6.J 5.7.H ).i.CXi.a.BXBXa.^ ;Xh.r w w t e B gXQ.Z 6.J `.J 7.J ).6.J ).pXpXJ 6.6.pXpX2.z K sX).7.N (.pX5.7.pX5.J pXpXJ J J 8.G 5.).).pX4.J J ).).).6.4.K J 7.D 5.5.6.J 6.uX^.uX).5.6.).sX`.).D 5.6.6.(.J 6.dX).pX).).6.G 9.^ h Z G ).6.H 6.6.6.pXpX5.*.M 7.6.6.pX).6.J J H q.t.mXNXt.NXVX2X%.Z n h.V.A.A.A.r r Y.).).).J J sX).~.).).J J J J 6.H ).6.J J J J ).).J J 6.).J 6.).).J J _.sXhX).D ).,.M _.).`._.).pX[.!.J H (.).(.6.>.K J J ).).).J J 6.).J J 6.6.(.).J 6.uX(.).6.J J 6.J J `.{.).).6.J 6.6.>.H 6.).pXpXpXV ).6.J J 5.5.H J 8.mXBXBXNXkX9.ZX1X$.).rX& y e w e w T.T.pX6.J uX(.J ).J J J ).J 6.).J 5.G 7.D J J D ).).5.7.6.H pX).J J 6.pX).).).J 5.6.J 6.`.D J 6.5.D J J 8.A (.6.J 6.J ).6.5.6.5.J J ).6.aXJ 4.S ).pX6.G 5.G J 6.D J D 5.6.J 6.9.V Z J 6.pXe.m (.5.D ).pX).<.H 6.J J 6.G 6.pX6.F fXxXBXCXBXBXu.i.NXa.& V.e w e g 6.4.).).J ).).uX<.).6.G J 6.6.pXJ 7.D `.jXbXXXyXrX~.6.pXhX(.6.pX^.pX).J J gXE.J 6.J J 5.J pX5.J J 5.).pXpXpXJ 5.).).6.D J 7.H pX7.A D J pX6.G D 6.pX5.5.",
"rX!.pXpXdX).J 5.D 6.J ).J 6.6.pX).pXpX).J J pXpX).pX6.6.J 5.6.).pXpX(.5.t./ i.u.y.u.a.:X- % w w r Z.-XR.aXiXH J J 6.pXpX6.J 6.).).6.5.6.6.6.J 7.MXP.T.7.J gX$.j C 6.).6.uX).5.J 5.J 6.6.).^.).pX).sX).).J 6.J pXuX^.J 7.J 6.J J 6.6.).).6.J ).).).5.5.6.6.pX5.J ).6.D J 6.).pX5.7.7.H nX0X).D G 7.G D 6.).5.6.1.Q.].5.).6.).).6.).6.J e.t.y.a.NXVXBX( %.m m h.e r r A.G.w Y.6.J J pX(.uXR.^.J ).J ).).).dXS J pX).pX).J J J 6.6.).J ).).).pXpX7.>.v C G ).).jXW.(.J ).J J J J (.).(.J H (.pXyX!.).(.J (.J 5.J J J J J ).pXH J 6.).pXJ ).pXpXpX).).).7.;.L ).pX5.J pXQ.(.).).pX).pX`.J pX).J pX).).,.} t.BXNXNXkXtXNX1XqXJ <.& e e e w y K.].J pXJ D pX6.J 6.J J 5.J ).6.6.uXJ pX).D 5.J F 7.D uX).).J 6.J ).J ).J J 6.).6.pXpX6.J 6.H 5.).pX6.J fXQ.H 6.6.J ).J 6.J 6.pX(.pX5.7.J 6.pX(.G J pX6.J ).J ).).pX6.J ).pXpXiX[.(.J ).J xXW.5.7.H G J 6.iX(.J ).pX6.`.).6.pXJ D lXMXt.NXu.NXVXNX1Xj.y e w e L.6.).J J ).).J 6.4.J aX~.).).pXpXpXpX).5.).`.`.).pXJ 5.7.5.H 7.D _.pXpXpXpX).sXpXJ J ).pXJ 6.8.J 4.S pXpX).pXpXuXH J aX(.J 6.J 6.aXiX_.6.J gX<.J G 3.pXpX",
"`.J 5.3.5.pX).sX_.aXH 6.6.J 6.).J 5.6.5.5.J J 6.2.C J ).pX6.6.).pX6.).uXu.1XNXt.y.i.CXVXz.% r w e L.Q.(.uXpX(.).J D J 8.pXJ ).).J 6.7.J pXdXJ 6.jXQ.G ).6.).qXL.R.^.6.6.5.5.pX).6.^.pX6.).5.G 5.5.5.pXJ J ).).).pX6.7.6.J J 5.J pX).5.G J pXJ 5.5.6.J 5.J 6.sX).pXpXpX6.J G 5.D J pX^.J J J `.5.).`.).pXpX6.pXdX{.pXpX6.pXpX).pX6.pXJ lXDXVXu.BXy.t.2Xq.m n % w r A.r i w Y.pX).(.).`.pX!.5.J J ).).).).`.sX).J J ).).pX6.J pX(.).`.).).).).).dXjX!.!.~.).6.).).J J J ).J J H (.J J H H J J J 6.2.N (.8.N ).J 6.J J J J J 0.N J J G H ).J J ).).6.J 6.bXW.J 6.pXC F J 6.J J J J J J pXJ 6.J 3.G 6.tXVXmXBXBXBXlXtXNX1X^ J $.& e w w e F.}.pX5.F pX6.F 6.(.pX).).pXJ D 6.^.pX).pX6.uXD J J 6.(.D pX6.J 6.).pX6.5.G J J J J J pXsXpXpXpX).J 5.J ).(.).5.5.,.B ).6.6.6.).).J J pXsX).9.S 6.5.C C 5.J 6.2.N J 6.6.J 5.J pX6.J pX).).J `.uX6.uXJ J J 6.J pX).J 5.).).).6.6._.iXzXMXa.BXNXNXMXCXa.J.y w w e n pX).pX).J 6.J J ).).6.(.6.J J 6.6.6.,.R.pX6.J pX6.pXJ pXsX^.pX`.G J 6.6.6.J J 6.6.J G G 5.5.).`.uX6.G J J 6.J 6.J J 6.6.D J J J 6.J 6.pX).pX6.6.9.0XB 6.",
"6.J sXrX(.pXH (.6.pX).).6.pXJ ).6.J 6.pX).).J 8.rXE.(.pXpX6.(.pX5.D H 7.MXp.BXZXmXMXZXmX;X% w w C.s D `.).pXJ J 6.J 6.D pXpXH 5.5.6.7.J J pXpX`.).aX^.D 5.5.fXQ.J 7.3.5.7.J D D ).J pXpXJ pX6.6.).).pXpX).J 5.J 5.5.).6.J 3.4.J 6.pXpX).).5.J ).pX6.6.6.5.H ).pX6.5.5.pXpX5.J ).6.J 6.6.pXJ 5.).).6.5.J 6.5.).sX7.F 5.5.6.5.5.J ).pX5.w.mXmXCXBXBXmX( $.m m % e A.A.r i w n 6.).).).).).J ).).).).).).).J J pX).).).).pX).(.pX^.(.).).).).).J pXgX{.!.).).6.H ).J ).).J ).8.K H ).).).H (.J pX(.MXh !.q.M F ).).).6.J ).J fXW.J ).,.M J 6.J ).5.J ).J ).pXJ pX:.l n pX).).J ).J 6.J J pX6.6.rX!.).gXMXCXi.BXNXtXxXNX1X<XJ $.& e e w e J.).7.pX!.J J 7.F ).).pXJ 6.D J 6.G J 5.7.uXS sX^.J G J J pXpX).).J 6.7.J ).J J 6.J J G 5.5.6.pX6.J 6.).J 6.G ).pXtX].5.5.J ).pX6.J J G J 7.sX/.pXfXuXE.(.6.J kXP.F J J pXpXJ 5.6.J 6.).J (.6.6.6.7.).8.z H J J J pX).6.J J ).).J D zXp.t.MXt.i.i.s.CXJ.y w V.e g 6.).6.J 6.J 6.S 6.J pXJ ).pXpX).).pXiX^.6.).pXJ J ).).).).pX).6.pX2.C 6.`.J 6.J 6.8.D J 6.pXH 5.G pXpX5.J 6.J 6.D G D `.6.H pXJ J pX6.6.6.6.J 6.iXhXQ.).",
"J 6.J 7.A pX6.H 6.).).6.).pXJ J 6.).pX).).8.D `.[.sXJ (.7.uX(.8.J ).H 7.p.a.d.t.NX%.t.:X;Xh.r w r e s F 6.aX5.F J ).pXpXJ `.pXpX6.5.6.).7.5.(.6.6.pXuX6.5.7.J J J 6.fX).).6.6.J D 7.G 5.(.6.).).J J 8.J pXpX6.6.7.(.6.J 9.0X!.pXJ 6.6.).6.6.J J pX6.7.5.).).J 6.6.pX).J 6.pX).J 6.5.J 6.J 6.).).6.5.pX).7.).J 5.pX`.7.D ).pXJ J J 7.5.9.t.t.NXNXMXmX2XP.K g h.C.r A.A.r C.Y.pX).).).).5.~.).).J J J J J pX_.pX).G G J ).pXJ J ).).J J ).pX6.J G _.[.sXH pX<.S J J pXA J ).dX~.Z J J 5.!.).).).J dXXXH kXP.Z J ).).pX).).6.(.J 7.D jXyXF J J 6.aXH J ).).J ).8.kX}.Y.6.J 6.J J J 8.F ).5.pXJ `.`.).dXjXVXBXBXZXgXkXNX1X1XJ 0Xj.y e w e L.J J pX(.6.5.6.(.H 6.J ).pX`.).pXJ J aX^.6.D J 6.5.).).pXJ J J J 6.pXpX(.pXJ J 6.J J 6.J 6.6.G J pXJ J 6.6.).J 6.).6.5.6.J 5.J pXpXJ pX5.D J 6.J pXsX`.pX6.pX`.[.J J G G 5.6.J 6.`.`.pXJ (.pXpXpXpX).kXP.H J 5.5.J 5.6.(.).J 5.H `.%.y.u.u.u.NXi.CXCXa B.w w y L.6.).pX6.V J ).).pX).pXJ G J pX6.J 5.G pX).6.6.pX).pXJ 6.6.6.G G J gXE.H 6.6.J ).pXsX`.).pX).).8.A D 6.pXJ ).).6.uX(._.5.pX3.A pX6.J 5.J pX7.3.(.pXJ 6.6.",
"G 7.>.^.hX6.pXH pXpX6.J 6.6.6.J ).J 6.J G dX^.(.6.6.).5.5.^.sXgX^.pX!.q./ CXBXBXBXt.s.qX; % r w w w u m F 6.fX~.J G J pXuXD J 6.7.6.).6.pX^.`.pX).6.6.6.6.6.J G 6.J pXpX5.D 6.).^.).pX).pX6.J 5.6.H uX`.D 6.pX6.pXJ J J dXQ.J 6.5.5.).).pXpXpX).6.6.aX'.).).).6.6.).pXpXpXpXpX6.6.pX).7.J J (.5.5.J 6.).pX).6.J ).).pXpXJ pXpXJ J 7.0.:.i./ NXNXu.p.2XqX!.K.h.w A.r r r w n pX).).).6.).S H pX).).).).J ).G G 5.1.!.`.).`.pX).).J J J J pX).sXrXH C J pXJ sX`.).(.6.`.).).pX`.H (.).hX!.).).J ).H J 5.J sX(.(.).J J J J pX).J pX(.F J J pX6.J pX^.).J 5.5.F aXcX1.B pXpXpX).pXD sX/.J 6.D ^.H 6.).6.fXqXMXNXZX1.q.NX/ ^ 6.<.j.e e w e g 6.J _.pXpXsX).^.(.6.J 5.5.6.J 6.6.H pXpX6.(.J 6.(.J J J pX6.D D 6.J 6.J J 5.J J 6.J 6.).).pX4.J 5.).(.9.N >.K ).J J ).6.6.J J J pX).5.).).6.D ).6.J 5.5.J 3.#.3 M pXD D (.sXJ ).J 6.pX).J 5.J pX8.H `.sX6.J 5.).).pX).J 5.J 6.Z 5.xXAXmXMXBXBXNXNX1X& V.w F.e Y.6.J ).pX`.).J J pXJ 6.0.K G G ).6.<.~.pX6.).).).6.D 6.J 6.pX8.S J ).`.).pXpX).J J 6.7.H 6.J J gX~.(.).pXsX).6.pX`.,.@.N (.w.B J pXpX).J 5.).yX~.6.J 5.6.",
"`.`.yX).aXpX7.>.z 5.J pX).pX).pXJ 6.6.pX).6.pXD 5.6.5.5.J F 5.6.6.J J e.a.mXMXmXp.BXZX<XQ % w w w C.F.T.(.7.J ).J ).J J ).pX6.8.D ^.).pXpXD G 6.6.6.6.6.uXsXsXD J J 0.*.~.6.D ^.`.J 7.A 5.J ).6.).).5.5.5.G 6.6.6.).J J J 5.5.6.4.D ).6.5.5.J 6.J pX).).5.J 5.6.pX).J J 5.6.5.aX`.).5.J ^.pXG 5.uX).5.G 6.pX).).6.5.5.5.(.pX6.6.J 9.0.w.lXmXNXu.a.t.( MXm a h.V.A.A.A.A.C.Z J H ).).pX~.^.D ).).).).).).pX`.`.pX'.^.5.J J 6.J 6.).).).).6.J G 6.6.(.(.J pXG G H 5.).).G J J 0.L !.)._.(.J 6._.`.).).).6.D (.).5.J J ^.pXJ pXJ ).).).J J G J J 6.(.J pX6.pX6.H 6.y.R.5.J 6.J 6.`.C G J uX^.pX2.H J 5.9.i.NXNXZXkXw.NX1X<X7.<.j.e e w y a pX).J 5.J pX`.(.J ).pX7.).uX).pXpXH 5.pXuX).6.).7.N F 5.G pX).J ).).pXpX6.).(.J 6.).).).6.6.).pX`.^.J fXrXQ.R.G J ).5.J pXJ J 6.G 7.<.H 7.J `.6.6.).).pX).%.d.0XR.).uX).(.5.6.J J J 6.6.J J pX5.rX_.5.G ).pXJ J J 6.6.J J ).).`.J gXSXZXBXu.NXNXBX1X& e w w y n pXJ J ).J J ).J J 6.6.dX`.pX~.).6.).).6.uX`.pX6.pXpXJ pXpXJ dX`.).).J J 6.6.6.5.5.J sXpX5.J J J ).).J J J 6.J 6.J xXeXR.pXgX'.J pXpX6.6.).5.N J ).7.J 6.",
").pX5.5.5.6.pXtXP.(.6.J J 6.J 7.J ).pXJ 6.6.J 7.D ).pX).0.M 5.D 4.(.pXxXCXmXi.i.BXBXa.^ Q h.r w r w C.T.5.J 6.G J J ).).J 6.9.uXJ D G J 6.pXJ J 6.6.6.).).pXsXsXsX^.lXQ.!.pX_.uX5.5.6.`.pXD D J J 5.6.6.).).5.5.6.J pX(.6.6.).6.pXJ 6.6.pXpX).6.6.6.6.G J 6.6.pXJ 6.6.6.6.6.pX).).pXsX).J 6.pX(.J 6.6.J G J G 8.D ).pXpXJ 5.6.6.J gXzXhXMXa.NXt.BXBX2XqX0.- j.e i r A.r C.B ).(.(.).pXD J _.J J J pXJ J J J 5.^.).7.).).pX).).).).pX).J ).pX^.).`.^.H ).).sX`._.6.H pX`.J 6.e.d ].(.^.J J ).J 5.J J J J _.).5.4.~.).J 6.J ).pXJ J 5.D J ).J J ).pXJ 5.J 5.).`.pX{.`.6.).J pX).6.tXV 4.!.sXpXyX`.,.M gXmXNXBXNXkXq.y.mX^ 9.V j.e e w B.L.6.J J J J J ).pX(.6.6.uX_.pX6.5.pX6.D J 6.6.pXJ gXQ.S D (.J 7.S ).6.J 7.6.).pX6.J 5.J 5.5.7.D ).).pX).dX2.F D 4.(.6.J J J pXD 5.6.J iXJ pX(.G 5.J J J 5.G xXwX}._.5.5.H pXpXpXJ ).6.J pXpXD J 6.).5.5.(.5.).).J J 5.J 6.H J !.rX6.9.lXVXmXNXBXBXu.CXF.y V.w e Y.pX).J J 6.5.J 6.J 6.6.6.`.).6.6.6.J J ).6.6.4.J 5.pXJ J J 6.6.6.J 6.J J 6.J pX6.^.pXJ J 6.D ).pXJ D ).pX).5.7.5.J ).`.).pXsXA H pXpXpXpX8.:.f !.7.).sX).",
"5.7.pX7.^.pX7.)._.pXpX6.5.J 6.6.6.F 5.6.).pXpX6.).6.6.J tXP.H `.`.`.).q.CXmXVXBXy.BXCX/ Q % r w w C.F.Y.pX`.7.J 6.F H 5.D 6.pXsXpXJ ~.pX6.pXpX6.5.pXpX6.5.5.5.J 6.5.4.Q.5.6.F 5.G ).pXpX7.uX^.pXD 6.J J J 5.7.5.D J 6.8.G ).6.6.J pXJ 6.6.J J J ).pX7.3.F D J J pX6.6.J 6.6.J 5.6.J 6.6.6.D 6.).7.5.J pXJ 1.@.B (.5.J pX6.J 6.6.J aXcXcXmXa.u.NXZXt./ <X].l.& e G.A.A.G.w n ).H (.J 7.D S (.).6.H ).pXpXJ pX_.).G J ).6.).).).).).).).).6.J `.pX6.4.S J ).).).J 4.A F J 6.).xX0X'.pXJ )._.6.pX).).).pXq.b M ).pX(.J J J ).J J pXpX7.>.Z ).).).J J ).).pX).).D J J 6.).J ).J pX6.uX`.hX*.z (.pXpXyXW.dXMXNXBXZXe.e.p.p.^ 5.V & e w w e n J pXJ (.`.pXF ).pX).pX).5.J 6.pX).pXpXJ 6.J 5.>.!.sXsX`.pXG uX^.G J 8.A ).5.G J J pX).J 6.).`.J 6.J J aXrX!.D (.J 7.).pX6.J 7.S pX).5.(.).7.D 5.J 6.).5.J )./.J 7.pXpXH G 5.7.G H uX).J pX8.-.D G 6.).D ).).pXpX).6.5.D (.J V A fX9.e.#.mXNXBXNXt.NXL.y w w e g 6.J pXD ).pX).J ).pXpXJ J 5.6.J ).).).J 6.pX3.G 6.D (.`.pX6.6.6.J ).pX6.6.J 5.pXG 5.uXJ aXE.J J 6.J 5.G pX8.S sX3.C G ).).aXrXH 7.D J J kXwXXXJ pXJ J ).",
"D 6.6.6.).7.pX).F ).pXpX).pX).6.6.,.M ).6.5.6.6.J ).pXpX`.sX).).J ).7.e.t.BXBXmXBXBXa.! l.h.r w w C.d j 6.8.D _.7.^.C J (.6.6.5.sX`.(.pXpX6.7.6.4.J 6.7.7.H pX).aXgX'.(.6.).J uX^.H pX6.pX).J 6.pXpX6.J 6.6.6.6.).7.G tXR.J 6.6.`.pXpXJ J ).6.6.J 5.pX`.[.).6.J J 6.5.5.J pX6.D ).pX).pXpX6.J 5.6.uX).5.J xXwX!.6.J J 6.pX).6.pXpX).J 9.CXCXBXNXt.VX1X^ !.g & V.G.A.r A.G.Y.6.(.F J pX`.^.(.).).pXD J ).pX).C 5.pXS J ).).).J J J ).).).pX^.J pXpX`.pXH ).).6.J pXhX_.8.N Z sXQ.Z 6.(.).J J ^.sX).`.4.nXtXj l L ).J J ).J J J J J aXyX'.).J ).pX).J J 6.(.pX)._.sXpXJ uXD 6.C ).pXC ;.q.}.~.J pX6.G 0.t.BXBXmXlXe.i.CX! 7.B % e e w e g J J ).(.J pX).J J J pX6.pXJ 5.D pX5.J pXpX6.1.W.Z 5.).6.6.`.J 6.6.J sX`.J uX).5.J 6.6.J 6.J J pXJ ).pXJ dX`.).J 5.G J J pXpXsX).D pXpX).G J pXpX).).6.pX).pX).).).6.6.J 3.A J sX(.J J pX6.9.rX(.pXJ 6.J J J J 5.G 6.pX_.J 5.G F J zXMXqXqXNXBXNXCXp.g y w w B.B 5.J pX`.J ).6.6.G 5.6.).pX).pXJ pXJ J 5.G 6.gX~.sX`.^.6.6.pXpXpX(.J 6.6.6.6.J pX4.(.sX).pXuXJ ).pXJ 6.J G aXD G tXE.(.(.J 8.(.).pXpXJ 5.J `.5.H ).pX6.J ",
"6.3.J 6.5.pXpX).(.5.5.).pXpX).pXuXe.T.Z 6.`.pXD (.6.).6.3.).J J ).'.jXy.p.p.u.i.NXt.s.:X- % r w w w g b d E.<.N >.C F F H pXaX6.D (.5.G 6.pXpXpX`.pX6.7.).J J 5.J iX`.pX7.8.S J pXH 6.6.pX).6.J J 6.6.J ).pXsX^.).sX`.^.`.5.).6.D 5.6.pX).pXpXpX).6.J ).7.5.J 6.J J pXpX).6.6.J J J J 6.6.J ).pX).pXuX).).pX).J J ).6.J ).6.6.pX6.J 9.9.mXZXMXmXNXi.1X<X!.L.j.V.G.A.A.A.w B ).J G F ).).`.).H ).pXpXD F 6.aX<.Z (.).`.).).).pX5.H 6.).).).pX).J J J sX^.J J 6.8.F H H jXwX!.(.H F H J J ).J G 5.J F ^.pXAXtXd T.pXJ J J J J ).J J G J J J 6.J J J 6.).).J 6.).F G 6.uX).`.aXw.M <.1...Y.].aX<.Z dX).d.a.BXi.i.e.d.i.a.:XaX<.& e w w e u H pXJ J 6.D 6.H ).J 5.J 6.7.).).6.uX(.pXpX6.hX'.).6.G 6.).).).pXsXpXD 6.^.J 6.pX).6.J 6.7.J (.pX6.J 6.).J 6.pXJ sX`.J G J pXpXpX).D 6.6.).).6.G J ).pX`.).).`.sX5.6.6.J pX`.).).pX).).6.pXuX`.pX).).pX6.K 5.5.6.).J (.J J pXpXH (.w.y.kXp.u.BXu.CXt.p B.w w e B 6.(.J 6.).J J pXpX6.(.).pXpX6.J ).pXpXpX(.pX`.).5.F ).pXpXpX6.6.J J pX6.(.`.pX6.`.G G J ).pX).pX7.7.3.H ).pXpXuX`.`.).pX6.`.`.5.J ).pX6.).7.uX(.pX).pXpX",
"7.`.J 5.D ).pX).J 6.).).).`.sX).tX;.j N V ).pXpXJ pX).9.0X(.pXJ J Z 0.y.ZXNXNXBXu.CXCX:X;X% r w w C.a K T.).gX'.hX{.`._.(.).pXsXsXJ pXpXD 6.7.7.G 3.5.pXsXpX5.J J 7.5.5.pXiXuX5.H `.pXpX).).pX7.G J 6.(.J 6.6.6.6.).sXJ 5.).J sX).6.D ).).6.J pX6.7.<.K pXpX6.5.J J 5.6.2.C J D H pXpX3.5.J 2.C G 6.pXJ 6.6.).J 6.J J J 6.pX7.C pX7.uXzXu.ZXMXCXu.a.mX:X].g & V.r A.A.G.w R.6.J sX(.H ).).).).J ).pXsXJ D `.hX{.).).J 6.J J ).sX`.J ).J G J ).).pX`._.pX).pX).hX{.`.(.).'.).F H (.D S J J 5.6.4.D J H J iXbXXXJ 5.).J J J J 5.J J uX_.J 5.J `.pX5.).).6.(.).J J 6.G J (.J pXxXP.R.bXqXB 4.6.hX'.pXaXi.CXNXNXt.y.e.i.( ! F <.j.e V.V.w y g 6.).J 6.).pXJ F pX).7.5.(.J 5.5.).5.5.6.pX).J ).sX`.).pX).J J 5.7.D D J 7.6.J ).pXpX6.pXJ G J 6.J J J 6.6.5.6.F 5.6.).).5.6.J 6.(.J pXJ J 7.:.M pXD J pX6.J sXpX6.6.J 6.J J J J J 5.J 6.pX4.H pX6.J dX:.d D H 6.).J D J G ).(.).e.p.#.u.i.i.a.CXZXJ.B.w w e n 6.J J pXJ 6.G J 6.).).6.6.J pXpXJ 6.6.^.).J pXpXsXJ C 5.6.6.pXpX).).5.).).6.6.6.6.8.S J D 6.J 6.pXpX'.J J 6.pXJ ).uX).pXuX*.C 8.H 7.6.pXJ pX`.).5.J pXJ ",
"6.).sXiX4.H pXpXJ ).pXJ J G 5.J fX0XT.XXE.J 6.6.6.J 5.).sXJ 5.J ^.!.9.SXt.t.NXNXCXNXZX^ ; h.C.w w w J.I.R.aX).).5.G D _.J 5.D G 6.).pXpXpX).pXpXgXD (.6.D pX`.`.5.5.6.3.(.pX7.pX~.6.6.6.6.J 7.4.^.).).pX5.5.6.).).pX6.J J 6.J J 7.6.).).6.6.J 6.).pXdX_.J 7.6.6.J 5.7.J q.B D (.H J 5.gXH 0.2.Z Z J 7.J 6.5.5.J J 6.6.J pXJ gXh H pXJ w.MXmXi.ZXmXZX1X:X_.L.j.d s S.i i w Y.pX(.(.).H H (.J J D (.pXsXsXuXH 5.G 5.).).).J ).).J pXpX).).aXS 6.S 6.J J J J ).`.).).).).).).pXuXR.).uXD D ).pXpX)._.).).).).J 5.J ).5.(.).6.6.).).J _.pXD 6.J G 5.J J J ).).6.J J 5.J ).5.J J iXQ.6.5.wXQ.G uXD H 6.7.BXZXBXmXNXMXq.y./ :XuX$.& e e e w h.L.6.5.G J ).J pX(.J 5.8._.J 5.5.D 6.J 6.J J pX).J 5.J 7.G J 6.5.6.pX^.pXG 5.J H 6.J 5.5.J 7.~.J pX).6.J pX6.8.H ).J (.).pX6.J J 6.5.D ).7.H w.q.T.pX).J G 6.5.G 7.6.6.(.pXJ J J 6.J 6.J D 6.pXJ 5.6.J 8.d.g R.6.J J J ).pX).H J >.e.i.CXi.NXBXNXZX/ u y w w e n 6.).J J 6.pX).).pX).J 6.pXpX6.D ).J pXH 7.J J J 6.pX^.(.pXpX6.pXJ 6.).pXA ).pXpX).tX'.J ).J 5.6.J dX(.fXD J 6./.(.6.J 5.5.kXW._.).6.).pX6.(.pX7.J J 5.6.",
"6.5.C 5.sX).).6.H J 7.J pX).pXpX).hXsX`.pX5.6.6.pX).).J 5.pXpXH ).H 7.SXmXVXBXNXNXBXa.! Q h.w C.w D.=X}.L G pX6.9.Z Z ).pX).pX6.D 6.5.5.J J 6.6.sX[.6.6.).J 6.3.D aX^.`.J 5.6.J H pXpXJ 6.6.pX^.6.J J 7.6.).).pX6.J 7.6.G J J 7.6.^.).pX6.6.D ).6.G 5.).6.5.`.uXpX4.J pXfXiX).2.K sX8.J 9.0.H !.(.J J ).7.D 6.5.G 6.J J 5.J pX`.6.6.5.9.MXCXi.i.MXNXt.<X].L.& h & r i i w R.).(.).J ).(.J H ).pXH 5.D ).`.).gXV Z ^.J ).6.F pX).J J pXJ ).`.uX`.pXpXJ ).pXH J ).J ).pXH )._.{._.J ).pX(.J ).pX_.^.).6.A J J ).).pXpX(.7.J ).5.J (.J 5.).).0.M ).J F `.`.).uX).`.pXJ 2.J J J J 5.).`.(.8.E.(.`.(.sX9.d.CXNXmXBXp.kXi.t.^ gX0X& e e e e Z.!.5.).).H (.pX5.G J 6.J J pXpXsX_.pX6.J ^.).).6.5.J J pX).pXJ 6.(.).6.6.pX^.pXA 6.6.<.N H ).).).6.5.).).6.pXpX(.J ).J G G 5.6.5.5.`.(.5.J J gXbX!.6.6.6.D J sX6.G J `.`.3.H J (.6.D 6.J J J 6.7.G G G 5.nXXXD 6.pXD J 5.J ).6.F rXkXy.t.NXBXi.NXu.<XZ.e w V.e n J J pX6.J J ).pXpX6.G ).6.6.pX).).pX6.J 5.J ).).pX).).6.5.6.6.6.pXpX).6.^.J 6.).).pXpX).6.).pXsX6.D _.sXsX).`.).6.6.6.6.7./.{.pX6.).8.A ).J 5.7.A J 6.7.",
"6.pXq.M _.pX6.aXH 5.).).).6.pXpX).6.J J 7.J pXpX).6.6.6.J 6.6.).F (.4.lXmXi.BXmXu.mX2X:Xz.% r w e J.~.E._.H J 7.sX[.~.D J ).6.pX6.J 6.6.6.J J 6.D 5.pX).5.).aXpX_.aX^.5.G ).pX^._.6.5.5.6.pX).pX).6.G J ).(.5.5.pX5.G 6.pXJ 5.J pX6.J 6.J pX^.J pXpX).).aXrXS pX5.pXJ 7.6.J pX0XL.J dXpX9.[._.].).pX6.5.6.).pX6.D (.).5.J J 6.5.5.6.7.9.d.1XNXt.i.CXa.<X_.g h.L.% r A.G.C.R.pXJ D H (.(.).).J ).).pX).H 5.G ).iX_.pX).).sXpXH J pX).).sX(.J J J pXpX).).pX).J J ).).6.^.(.(.F J ).).).).).pX).D G ).pX_.).).pX6.G 7.v 6.D ).).`.).pX).).pXjXQ.J ).D z G 6.pX~.4.7.6.rX(.5.G G ).).pX5.`.`.5.J H (.zXe.t.u.mXCXy.w.y.mX:X).%.% e w w y J.J 5.H J ).H 6.pX_.).pXaXH ).pXuXpX6.6.(.).5.5.5.).).J J 6.5.6.J J 5.6.(.pX6.8.^.).7.<.'.J J 5.H pX`.).5.J 5.pXpXJ J 6.6.J J 7.D (.pX7.J 6.G J J J 6.6.J ).J 6.pXfXS F 5.uXJ J J 5.J `.6.(.6.5.pXiX`.pX(.(.J 5.pXJ pX6.J J F pX^.~.d.y.u.y.i.NXu.a.CXJ.y V.V.B.Y.pXH J J ).).6.A 6.6.J F 6.6.6.J J 5.7.(.`.).6.J ).J 5.7.3.G 5.J ).pXpX).pX7.H 6.G uX(.6.D 7.>.D aX/.J 5.J 6.J J J pXpXpXsX^.D 5.J ).aX~.).pXpXpX/.J 5.J ",
"pXJ fXQ.H pX6.pXJ ).).J 6.5.J pX6.6.J J pX).6.6.6.).pX6.).pX).).J !.dXzXZXZXNXt.i.t.s.! z.% w w C.a j ].8.A F )._.pXD ).^.6.).pX7.G J pXpXpXJ 7.D G ).pX6.C G sXD 5.4.D H G pXD J 7.J ).).pXpXJ 6.7.`.).6.6.4.(.6.pXJ D `.9.E.J G J 6.J 5.J 5.5.J 6.6.5.5.pX6.J pX).).).6.J 5.uX_.H 7.9.7.H !.J 6.6.<.D 6.J 6.`.sXJ 6.uXJ 6.5.5.5.6.J gXlXVXu.VXBXBXCX<XiXT.% J.F.r A.G.e Y.7.G J H (.J F ).pXH J ).pX).pX).J (.).pX).).6.6.J J H ).).pX).).).).).7.H J J ).).).(.pX`._.(.).(.H J J 3.H ).J pXsX_.J pXJ G F G dX(.dX0XY.sX).6.J 6.J 6.J J ).sX`.).q.f !.pX).<.S pX).`.7.*.C C v c C uX).6.).(.).(.zXy.t.BXNXa.BXe.y.p.:X[.:X% C.w w e L.7.S H H ).J G ).pXJ 5.pX`.(.pXJ 6.pX).J J aX(.(.J 6.6.D J pX).pXD J `.J 5.pX`.).5.7.'.`.pX).pX(.J J 6.6.J 6.D J pXpX).pX).J sX/.).6.pXJ 7.J J J J J 6.6.H pXpX).sX).6.J J ).pX7.J J 5.J 3.2.(.).pX6.J ).5.J 6.J 6.J pX5.2.H J ).'.MXkXmXu.BXBXu.u.CXL.y V.w e B J J 6.J 6.J 7.~.).pXpXJ 7.D J ).).pX`.).J J pX).6.J pXaXsX`.uX(.6.5.6.6.5.uX`.`.`.).6.pX6.7.rXG D J 6.).J J ).).6.J 6.6.).6.6.).).5.6._.5.pXpX).pXaX)._.",
"pX8.F 6.J 6.6.6.J J J ).6.6.H pX6.pXpXJ J 5.5.J 5.C J pX).).).5.).F 4.e.a.ZXNXmXNXmX( ! ; % C.C.C.w a L dX`.).J J pX`.(.6.6.J 7.aXpXH 6.6.pXpXuXsXpX5.6.sXfXR.6.fX).uX/.pXS ).pX5.5.).).6.6.6.6.5.6.C 2.(.0.E.pX8.J sX).5.iX`.pX`.D G J ).pX6.J J G 6.pX(.6.6.5.6.5.J 5.6.^.sX(.).J 7.9.9.F Z ).pX6.uXuXpX6.6.G 5.6.J 5.J 5.7.5.).pXJ fX%.p.u.i.i.BXa./ dXL.h.e r A.r G.V.n 9.0.L Z J J ).H ).).6.D J ).6.).^.^.).).).pX7.D ).).6.S J J ).J 6.5.J sX`.4.H 3.C (.).).).(.).).).J J ).dX!.6.3.S pXD 6.D 6.6.;.M ).`.pXhX^.5.K uX(.).).).).5.H 6.D J jXQ.(.7.J uX).pX,.9 o.C Z 8.;.@.q j C J J J (.(.jXSXVXNXCXZXVXe.%.p.! cX:X% e e w e a pX/.D !.).sX).D 5.J pXH J J 6.pX).7.A J J J pXJ 6.5.6.(.).pXJ 7.J (.J 6.J ).6.6.pX_.pX5.D ).8.F 6.D J J 5.6.pXH J ).pX6.6.J J J 6.6.J pXpX(.).).J J 6.uXD D ).pXJ 6.).pX).J 6.pX).6.pX5.4./.(.6.6.pX).J 6.J ).pX).).J 9.E.(.J G R.qXnXCXNXBXu.s.u.^ u B.w w B.B 7.F J J 5.J ).).J pXsX^.pXpXJ ).5.J J J 6.J D ).aX).pX6.D (.).pX7.J 5.5.6.H ^.J 6.7.6.J pX).6.sX6.J ^.pXpX8.C H 6.J J 6.J pX).J J pX).7.D J J pX6.pXpXH ",
"5.uX`.pX).6.6.6.6.J (.J ).sXuXJ pXJ 7.J 6.6.).8.@.B (.J pXJ pXpXJ ^.^.d.MXa.i.NXmXa.2X! ; % i u C.Z.g m J 9.F (.^.).(.6.^.6.6.4.D `.pX6.6.J pX).7.7.^.`.pXpXpXJ uXpXpXG ^.`.D 6.sX).J 5.6.5.J pXpXaXq.n J fX~.5.sX6.J pX).pX6.(.6.fX4.~.pXpX4.6.5.D H J 5.D pX6.7.D pX6.J D J `.pX7.7.0.8.Z Z J 6.7.J J ).6.6.pX).).pXpXJ J 6.J S 5.).9.MX1XNXu.i.t.VX) S L.j.V.G.r A.r F.K 0./.W.~.H (.(.(.).).pX).).J 6.(.J J J J 6.6.uX`.).J ).`.J 6.G G pX`.`.).pXsXJ q.$.B J D H G G H ).J J J J (.pX{.^.6.(.).).).aX0XR.J 6.6.J J pX~.J `.6.J J )./.J 6.).).).J 6.pX).).).`.xXjXE.T.{.zXw.zX/.p Z 6.).(.H H 9.d.mXNXNXBXa.y.y.y.;X[.0X% V.w w e p H 6.~.H F ).pXJ J J ).uXH J 5.J J aXuXJ D J D J J 6.6.H 5.J pXJ ).J pX5.G H pX).).5.5.pX(.J 9.Z J J ).pX).).pXpXD G 5.6.pXJ 5.J J pX).6.pXD 2.H 6.6.J J ).).5.pX5.J 6.5.J J 5.J 6.5.J sX/.).6.J J J 6.6.H ).J J 6.J pX`.`.6.6.D n qXVXVXBXi.i.a.u.mXh.e w V.Z.E.6.J J 5.J J J 6.D D G pXpXuX).7.J ).).J J 6.J H 6.J 6.pXuX5.F pXpXpXpX).sX(.J 4.(.sXpXuX).6.6.J pX(.J ).pXgXQ.!.sX).pXJ ).).).pX).J 6.pX(.5.J J pX6.pX6.",
").`.pXpX6.5.J 6.6.J J J J J 7.8.K sX6.J 6.).6.q.h '.pX).6.J G J 6.K 8.e.y.DXVXu.NXCX2X! ; % J.F.w e a T.J dXpXZ F ).).6.J 7.^.pXiXD 7.D pXJ J 5.J pXJ G J pXpXJ 6.6.7.uXH 6.pXJ J 6.6.5.5.J ).pXpXpXjX].G ).6.J J pX^.pX6.5.6.5.5.7._.(.7.7.4.pX6.^.4.F pXJ 5.J uX`.pXgXV ).H 5.5.6.9.9.gXv j v 2.D pX6.C 6.6.^.pX5.J pXpX7.6.6.J J D 9.SXa.NXmXBXmXi.<Xa L.j.e i A.i A.u dXQ.W.H _.).J H (.).pX7.H ^.sXpXJ ).J D D J pX_.).dX^.J ).pXpXpXJ H ).pX6.J pX).hXyX'.J _.J 6.~.(.J J J 6.J F J J 5.).).).).pXpX`.J G 5.(.`.pX).).6.H 6.J J (.J pXpX(.J 5.).).).).).(.D ).xXbXT.sXdXnXxXW.}.Z H ).J F (.9.xXVXCXBXmXs.lXMXt.;X X0Xh.V.w e Z.u H pX(.J H H sXpXJ 6.H pX).J 6.).J 8.D pX`.^.pXpX6.6.`.pXJ H 7.).J (.6.4.~.`.6.6.D 6.J (.pXpXdX^.>.H J J J J 7.6.).`.).J 5.pXpX6.G J 5.J 6.tXP.(.6.J pX6.).J 6.5.uX).pXsX).J 6.5.6.pXH J pXJ pXpX).).pX`.).6.).pXuXJ J ).J ).pX_.Y.q.d.eXy.i.BXu.u./ F.e w w e B pXJ J J ).).J ).`.aXH J 5.J 6.pX_.aX3.H ).uX^.(.pXsX6.J 6.`._.7.6.J pXJ 5.D ).).6.6.6.G 5.pX`.`.uXpXJ D 6.uX_.).6.J pXpX).6.5.5.J 6.6.6.J ,.z K J pXpXsX",
"J J 7.6.6.6.A (.pX).J A A 5.D fXE.5.J 6.6.5.7./.`.G J J ).`.uXJ pXpX;.0.DXt.t.NXi.mXZX:Xc.h.V.w w e j.T.).3.uX_.H H 6.6.6.J pXJ 8.5.pXE.pXsX6.pX).J 6.J H 6.pX).7.6.pXuX(.pXpXpXJ 5.5.5.J (.6.6.6.8.G J pXH ).^.6.J G 5.6.7.J J ).sXJ 5.J pXpXJ sXJ uX(.J aXuXH J 6.D 7./.F 6.D pX5.7.dXgXgXZ C Z D J 7.~.).pXH 6.pXJ 6.6.pX7.5.J J D aXy.1Xi.NXBXVXZX3X+XL.& e G.A.A.G.e Y.sXdX!.H ).(._.J J J dX_.H 5.pX_.`.pXuX).3.K ).G ).pX).J J pXsXsX`.H pX).).6.J 5.J `._.`.).`.`.).G J ).).`.).H 6.J G 5.H J 6.pX).8.N ).J J J pXC `.).).6.(.).).5.A ).pX6.K J D 6.J J 5.5.D Q.{.sXsXzXjXU.'.].).J J H Z gXxXMXCXBXCXt.xXVX1X:XcXwXh.V.w w e % B J F J ).H 6.).6.).).D J J ).).pXpX`.).pXJ J 5.pX).6.6.6.,.M A J J 7.<.B 5.J pX).pXD J J pXpXdXjXZ 5.(.).5.6.`.).J pX6.J G J aX).D 5.D D _.sX5.J 6.J J G J pX6.J J J 6.pXJ 6.J ).pX).J J J J pXJ 6.J 5.G J ).).).dXD J J J 6.(.M %.kXy.t.i.BXa.u.a.F.y V.w Z.B 5.).pX6.J ).6.G G ).).6.).).6.pX(.7.iX_.(.pXJ G D 6.pX).).).5.8.A J J 5.5.H D 4.H pX7.,.B ).6.7.G pX`.6.J `.pXJ pXpX6.6.J 3.H sXpX6.6.pX9.MXL.~.(.5.5.6.",
").J 7.).).aX{.).7.J 8.uX'.).^.).7.).pX6.5.J pX).).pXJ J J J 6.6.Z gXyXyXSX/ i.ZXNXmXCX^ ; % r i e J.U.~.8.3.!.pX(.(.6.).sX7.G 5.8.(.^.).5.5.uX).sX6.8.A 3.K 6.6.J pX6.6.H 5.5.pX6.6.0.N J J J 5.J uXsX).pX6.H ).8.6.J 5.D `.sXG F 6.pX`.).pXsX).pX6.D `.pXpX9.N _.pX6.6.0.N (.).J pX7.aXgXdX(.'.!.uXD 7.(.pX6.).5.J 6.5.7.5.6.J ).6.H 9.SXZXu.u.i.u.NX<XjXW.j.V.G.r r i V.Y.J ).).(.(.(.).).).J ).pXD (.(.J G 7.G 7.1.V (.`.J J pXJ J J 6.6.pX_.J ).pXpX(.sX(.H ).J ).J H 6.`.(.J F J J 5.H 6.D J J J (.).).fX'.6.J 6.G pXiXH D ).uXJ J 5.w.z m J 6.(.D ~.6.6.N uXuX_.H 5.J 6.gX X].[.(.5.).J H Z 6.zXAXmXBXZXmXw.t./ Q {.0X% e e e V.% g ).).J J J ).6.6.(.pX).).6.J J 3.).pX6.5.G 6.6.(.6.6.J aXqXg (.J 7.3./.(.6.H 6.).aX`.J J 6.J J sXpXH J 5.4.(.D 6.J 6.pXsX).D 6.pX4.^.).`.J 5.J ).).pX7.G F 7.5.6.J G G J pXpX).pX).J J J J J 6.J J 6.8.^.H ).J J pXpX(.0.L J J K lXxXu.NXu.y.i.a.t.F.e w w e S ).J J ^.).5.5.).(.).6.).J 6.pX).6.).).uXJ 6.7.(.).6.pX6.J J pXaXJ F ).).sX).(.uX6.5.7.tXR.7.J pX(.6.J pX).G J J J ).pXpXpXiX~.J 6.pXpX6.pXyXsX).D 6.pXJ ",
"pX7.4.6.;.M J 7.7.J uX_.).pXJ 7.4.H 7.3.J (.pX6.J pX).).pXJ J 6.H ^.sXzXy.a.BXNXt.i.a.! : h.A.C.e a [.7.uX[.!.).`._.pX).pXsXdX1.@.M J 7.pX).6.5.5.7.pX^./.~.pXpXpXJ pXsXpXD J 5.pXsXjXQ.).).pX).).J 7.5.J 6.(.5.6.).6.^.pXD sX8.Z 5.G C 3.5.G 5.5.pX4.F 5.).gXyXZ 6.6.).qXP.H 6.J 7.pXaXaXgX(.Z K 5.D `.4.>.H J 6.D 5.5.6.7.6.J J 7.H 9.e.t.a.NXt.i.u.1XtXP.j.t G.A.r A.w L J ).).(.(.).F J 5.J J 6.{.J J 6.D 6.`._.[.uX(.).pX).pX).).6.G J _.).6.G J J J 6.pX~.J ).J J J J J H pX).).J ).(.7.A H 6.(.(.4.J D ;.@.M H _.J J pX).).6.6.J J dXbXR.J 6.J 3.A J 9.@.j sX).4.S ).9.N ~.pXF gXR.6.6.H F J dXxXmXBXNXVXp.#.2X~ W.0X& V.w e w h.Y.6.H ).).J J pXpX(.6.6.D J pX7.~.D 5.6.7.D G ^.).6.J J J xXwXB 5.D /.`.4.H 0.N 5.D ).9.C J 6.5.G pX`.).6.`.7.A H pXpX6.5.).pXJ 6.pX_.pX).pX).J J 5.8.).uX~.pX6.5.J 6.H 6.J J 6.J 6.6.J J J J 5.6.6.,.n ).(.J 5.F >.K J gXQ.F H Z w.y.u.u.NXi.MXCXVXG.B.V.V.e R.pXJ J J 6.).).).).5.G J 6.J ).6.J ).pX6.).6.)._.6.6.6.J 6.G G :.N !.).J ^.pX7.G 6.).6.uXJ uX`.sXpXH ).).pXpX>.S 6.D 6.6.(.).aXD J 6.6.pX^.).).pX^.pXpX/.",
"6.sX[.gXqXY.5.J 7.).J 5.D 6.7.5.`.(.7.pX(.0.v J J J 6.J 5.6.J J !.8.3.w.NXa.i.t.mXt.( ! l.& r w C.e f C ).D H H ^.6.5.J 5.7.pXkXwXY.J 6.).pX6.sXuX`.dXpX(.6.5.5.6.6.6.6.pXpX6.J J 6.).6.5.J J 5.D 6.6.pX6.(.).6.).pXpX5.3.~.7.sXsX5.6.4.~.sXpX7.D J pXJ G 5.G pX).G pX6.`.hX6.6.7.3.5.7.pXhX{.[.`.uX(.G 8.Q.).6.7.5.3.H 6.pXpX6.J 5.H 9.SXa.NXNXZXNXi.t.tXP.J.r i r r r i Y.!.).).H F J J J 6._.pX_.).pX).).sX`.).`.J `.^.pXpX).pX).J 7.`.(.).6.).uXJ 6.J J pXH J J J J J ).pXH J ).).J ).).aXiX!.`.4.N K H gXf.*.a `.G 6.D J pXD J ).).J ).).sX(.).).sX^.J gX$.Y.).J uX~.5.7.yX~.).).`.sX6.).(.).J pXdXmXi.MXCXmXyXAX,X{.0Xj.V.e V.e J.!.J H ).J J _.6.6.G G J sXJ D uXuX7.J 6.aX`.sX(.J 6.7.>.K pXhX_.[.`.6.5.pX5.iX/.J J G gXyXG G 7.S H 6.pXpXpXfX'.).J 6.pXpX).J ).pX).J pXJ 5.6.pXJ 6.pXG J `.6.7.J ).`.~.6.5.J 6.J J ).).).pXJ 5.).6.yXW.).J 6.uX7.%.Y.6.(.).).J S w.y.mXu.BXNXi.t.ZXJ.y w V.e R.6.6.6.D ).J pX6.J pX).J J ).6.6.J J 5./.).pX`.J 7.J pX^.aXuXpXjXQ.`.J ^.).7.3.J J pX8.G J ).6.).sX).J 6.5.6.yX_.6.).6.pX(.J 6.pX).pXpX6._.pX7.J J 7.J D ",
"J G 5.6.{.`.pX6.pX).6.J J 5.pX`.).6.pXpXpXlXn Z 6.J 6.6.(.pX).).F 8.sXzXi.CXi.a.NX/ ) ~ : % p V.C.C.a j D ~.J F F 7.D pX7.G 5.iX X{.7.J 6.5.J pX).J 7.sX).pX).pXJ 6.7.D 5.5.).pXD J 5.5.pXJ D 5.J J 6.pXpX).J pXJ J 7.8.V (.).).6.fX).[.^.6.6.sXpXJ pXpXJ 6.6.J 6.J J `.J 5.6.J dX9.K 6.`.6.J J H pX6.6.(.J 6.6.aX`.`.pXD 6.6.6.6.7.G 7.SXVXi.i.NXa.t.^ 9.P.J.A.G.A.A.A.w Y.J F (.).(.).).)._.).).J D J 6.J J 7.G J 6.H 6.).pX).pX).6.^.).).G ^.).pX6.).`.`.sX^.).pX)._.).).).).J J ).).J 6.J `.7.v 9.8.L N -.qXOXW.5.(.pXpXH ).9.l M 6.J (.5.D ).).).J 6.pXpX`.`.6.J J J 6.).).pXJ J G G pXJ ).).).J aX%.%.i.a.mX7.%.! <.0Xh.e V.e e H._.J H J 6.(.(.aXpXpXsXA D 6.D F pXpX).6.6.D J ).pX).aXyX^.J ).J G 6.6.J J pXJ J pXD ^.).sXdX^.^.`.).).pX5.6.^.(.pX6.7.5.J 6.6.D pX6.5.G J 5.J D pXpX7.,.B 5.5.6.sX3.G J 7.^.).6.J ).).6.J 6.).).pXJ J 7.5.J J 5.9.Q._.).).5.J _.iXw.SXp.i.u.u.NXNXs.a B.w V.Z.B 7.J ^.(.J J J pX).J J 6.J 5.G J J 6.(.J pXJ 7.G ).).6.A J pXJ `.).6.`.J 5.7.tXB J ).gX^.J (.6.J G 5.5.G 7.(.).6.J D D J pXJ 6.).J pXaX).^.6.6.6.).pX).J ",
"7.>.K J J 6.6.6.pX6.).J 6.D J 5.5.J 6.J J sXhX`.J ).5.).`.pX6.J 5.D J zXBXCXNXu.NX/ 2X>Xz.h.G.w w C.L.L.R.).H ).J J ).6.aX6.(.).8.N ^.sXpXsX).pX6.).).pX6.6.5.5.6.D pX).pX`.G J pX6.pX`.6.).pXJ ).pXJ J ).).).pXpX).pX`.[.J 6.7.5.6._.pX6.pX6.J 7.(.J ).pX6.6.).6.J (.5.6.pXJ J 7.dX].sX`.aXH `.).D 6.H 6.J 6.5.6.J G 7.^.pX6.6.pXuX/.uXzXVXZXMXCXCXCXmX7.g a i A.A.A.A.C.T.sXH (._.).4.K (.).6.J ).`.).pX).`.).sX(.6.H J ).pX).).).pX).).pX/.(.6.6.`._.).J J 6.J J ).(.J J ).pXJ ).J J J pX(.J gXrXG sXsXdX/.vXU.~.pX(.J pX`.J tXwXY.6.).J ).).N Z 9.V 6.G (.).5.H ).).J J J pX4.J ).pX).).).H (.).7.2.qXMXMXNXVX1.p.,XY.0X% e V.w e u ).).(.J (.(.G D pXJ 2.uXJ 6.6.J D 6.J 5.pX6.G H 6.6.6.J ).).).aX^.).pX`.sXpX5.J ).^.D J pXpX).J J ).).6.pXJ H J 5.6.pX6.J J 5.G G J 6.).J 5.7.G F 8.5.yX^.7.6.D J tX~.J pX(.J J J J 6.J ).pX6.J J 6.7.5.J ).J J uXJ G J 7.4.!.R.9.zXy.CXi.u.NXi.s.t.u y w w y L.sX^.J 7.H 6.).J pXpXJ 7.5.G (.).6.J G D ).pXdX^.J ).pX`.J pX^.).7.J 6.6.6.pXsXiX^.^.pXdXJ J 5.6.<.~.sXsX6.(.pXsXpX`.6.J J pX6.5.D J aX).J 6.3.H ).6.6.6.",
"aXyX{.).(.6.).`.dXpXJ 6.J ).3.K ).J 6.J J 6.J pX).J 7.F 6.J 6.J 6.).6.0.p.s.i.i.NX/ 3X:Xz.% A.C.C.Z.J.W.S J (.(.pX).7.5.7.uX^.J dXyXZ 7.5.6.5.5.pXJ J 6.6.pXpXpXpXuX(.pX).6.uXD 5.J J 5.).J 7.6.G 6.6.S ).6.5.5.J pXsX^.8.>.C C D _.6.5.5.3.(.pX`.sX5.J pXuX`.`.sX`.).pXpX5.D J 9.G H pXpXgXJ F pXpXpX1.L J 6.6.7.J `.4.C 5.6.pXJ 5.J 6.w.MXmXNXa.a.a.p.aXg & r G.A.r r G.!.pX`.!.J J `.`.(.pX).^.J 6.(.).).J 5.J pXpXD F H 6.J J 6.6.).).(.J 6.7.G H pX).).pX).).0.m ).J J H ).pXH ).).(.).).pXJ 4.[.J ).{.{.).`.).`.).J 6.*.K pX X{.).).).J 7.P.!.gXQ.sX`.(.7.4.(.8.A J J J ).7.(.).).).6.6.H H G 9.:.^ BXy.ZXmX1.<X:XR.0X% e w w Z.J.6.J J H ).5.H 6.G 7.q.M J pXuX_.J pXpX6.J pX`.J 6.5.(.pXJ 7.A J J 6.6.D 2.5.`.`.(.6.6.J 5.G 7.D (.J 5.6.J pXH J 5.6.6.6.pXpXJ J pXJ 5.G 5.6.6.^.`.^.uXF 5.D pX`.6.`.).G 6.).).pXJ J pX).J 6.pXpX5.5.6.pXJ J 8.D J 6.).J pXuXH z 0.w.p.t.u.u.u.i.u.mXF.e w w y L.7.J pX).6.F J ).6.J pXaXuX_.(.7.G 6.6.F J 6.`.pXpXJ pX8.D pXD 6.pXJ J 6.H pX5.(.sXpX5.J ).J 5.5.uX(.7.>.S (.6.6.6.G 7.G G G pXpXH J 5.6.6.6.iX_.6.J J pX",
"pXpXJ pXpXJ 6.5.5.6.6.pX5.J uX'.5.6.6.).J J 6.pXpX6.6.J J D 6.J J (.9.w.p.ZXNXi.t.a.ZXAX,X% A.C.e F.Y.m `.H (.J J J pX4.H 6.G (.7.D ).pXaXpXpXuX).pXJ 6.7.J J 6.6.).pX6.6.D ).pXpX6.7.J J 5.J 6.J 6.D (.5.G ).pX).5.6.5.aX9.K /.H G 3.).aX[.(.5.2.2.).).J uX6.G J 7.J J 7.uX^.6.aXsXJ H aXpX9.Z pX6.pXjX].J 6.6.6.).G 9.<.F 5.G 5.J (.aXzXxXmXNXZXmXCX:X).R.& V.A.A.r r u H J (.J J (.J 6.Z ).).6.4.(.).J ).).`.pXJ sXsX^.S ).J J J `.).).).).).sXiX~.5.J 5.5.J 5.jXT.J ).).J J pX(.J J J ).pX6.9.2.z [.!.J J ^.).).5.6.J 7.0XY.6.H J 6.J 6.uX_.`.`.`.5.2.0.*.Z sXG 1.R.pX).H ).pXH 8.S 5.J ).).H ).9.a.t.BXBXNXt.1.t.:XY.0X% e w w e g 7.G F (.J 6.D G 6.J yX{.(.).pXG G D 7.6.J pX6.5.6.^.(.7.J 6.^.pXD J 6.9.$.!.J 5.5.J ).).7.D J (.J ).).pXpXpXG G 5.J 6.pX6.).pX).).pX7.).).6.).(.pX4.J pX).pXJ 6.4.D aXD F J 5.J ).).J 5.J J J 6.6.).6.6.).5.5.(.J 6.J J J pXpXJ 6.kXt.i.NXBXNXNXs.t.u e V.w Z.B 6.J J 6.).).J J pXJ J 8.(.).).aX).5.uX^.G K D pXpXpX6.fXZ ).uX).sXuX6.7.J D sXG H sXaXA G 5.).pX).pXaXtXn G J 6.pXpX8._.`.pXD 6.6.6.J 6.J ).6.5.5.J ).6.",
"6.pXJ J J 5.J aX).).).7.6.C J J J 6.J J 6.6.D J ).pX8.F ).uXJ ).6.D 9.zXBXt.t.i.NXCXmX<X;Xh.r w C.u g T.).J H H ).).7.pX).7.F G 7.(.D J pXpX`.aXpX6.6.6.7.J D 5.J ).6.pXsX`.J pX6.pXpXpXpX).J J `.sXuXG 6.pXF J 7.6.J pXpXzXM ~.uX3.^.J 5.J 6.pXzXE.Z 6.4.D pXpXD J J 5.J J 7.6.6.6.).H 6.pXaXZ 5.D 5.J 6.J 6.5.).6.6.).yX~.aX^.).6.G J w.#.u.u.t.t.t.mX7.h j.C.i r r r G.(.(.H ).`.(.).`.H J ).).`.^.J ).).).5.6.).pXuX_.`.6.5.(.pXH `.`.pX).J 5.C 6.pXD `.sXpXF (.).).J pX).).).J J ).7.-.v A sXzXh T.sX).).J J J ).).pX).{.^.J J J ).).J ^.J G F 7.tXE.iXbXT.7.fX!.).).).).J sX6.D ~.6.).).).(.).w.BXt.p.NXNX/ <.p.:X'.0X% e V.w e a J uXZ H J ).pX6.A ).J 6.).J 7.J (.6.6.6.J J J pX2.C G 5.D ).^.J pX5.J gXQ.J 5.).`.G 5.J pX`.pX6.A K 5.G 5.pXpXD 6.J G J pXJ J ).pXpX7.S 6.6.D D G pX6.C C 5.J ).aX(.).sX6.H 6.(.).).6.).6.D J 3.D ).5.J J aXD (.J J ).).J 7.6.H ).e.#.BXu.i.NXNXs.t.F.e V.w Z.B J ).J J ).pXJ ).J pX6.pX^.).J 5.pX`.).pXpX6.F G 5.J pXsXuXG G J 5.5.7.(.`.).sX7.C 2.7.%.m ).(.pX6.J 6.hXiX_.5.7.J aXhX~.6.pX7.(.6.D J pX).5.J 6.5.(.pXpX",
"pX6.J 6.5.J J (.sX7.G pXdX$.S G G 6.J J 4.J pXJ ).9.9.C M 8.J G ).9.5.q.i.s.u.NXNXCXa.^ z.% A.C.C.e J.5.C J J (.H 6.pXpX(.gXV (.pXpXJ ).7.5.G 6.6.pX6.5.sX).pX6.6.G J 6.6.7.G J 6.J 6.5.pXpXpX4.K G pXpX).2.S J 5.J 5.G 5.gX0XP.7.D J 6.`.7.G J aXiXV (.pXJ J 6.).pX6.5.J 5.pX).7.5.J H 6.pXaXE.(.J aXA H 6.J 6.6.6.).J 6.6.6.(.6.6.pXG e.t.NXs.a.mXt.y.zXh u C.G.r r r i (.(.H (.).).J ).).J J J J ).).J J 5.).).).).sX_.pXpXsX(.6.^.J 5.5.G G 7.<.Z 6.^.(.7.uXpXK H J D J ).J J pX).J gXtXn _.sXjXU.Z J ).).).).).J J ).).J J J ).).6.J ).J J ).).J pX).pX`.pX6.`.).J J J ).).J aX~.6.^.).).).(.pXzXy.t.NXBXCXVX0Xt.:X[.P.% w w e Z.J.J J _.J H 6.J aX^.(.pX6.D ).7.(.).7.6.5.6.7.G 9.,.!.~.pX(.(.7.5.D pX).6.J 6._.pX6.7.H 6.J 5.J 7.4.Z 7.J 5.6.).pXJ pXpXH 6.).).J 5.5.aX).(.sX`.pX7.>.C w.*.n F 5.).).J 6.pXJ G C J 5.).).pX).7.6.(.6.pX).).pX`.).).).J J 6.3.(.(.1.r.1.MXNXNXi.u.a.t.F.e w e w ^.pXJ J (.J pX6.F ).J pX).J ).pXaXH ).J J 6.^.`.6.pXD J 5.).`.pX5.5.pX`.^.J J 7.1.<.~.6.nXXX!.).pXpXJ J 6.).6.D `.).J 6.D `.pXaX6.8.^.H J 6.6.J pX).J G 5.",
"6.uXpX6.pX(.7.C J aX`.6.5.pX/.4.S ).,.l K J ).).).9.gXgX2.j J <.K 6.aXe.y.a.NXi.i.a.a.^ ; h.i V.C.V.g *.n Z !.(.).J ).uX6.7.iXF G pX(.pX6.pXJ 6.5.J 9.N H 6.6.J pXpX5.G 7.J `.6.6.7.D ).5.J 6.pX`.).pX).9.#.m 5.pXJ aXuXJ `.).6.5.D G (.6.pX6.v J aX~.).6.pXJ pXJ J pXpX).J 5.5.7.J J G 6.5.7.(.sX5.5.E._.6.6.6.5.6.J 6.6.).sXJ 5.J 6.8.lXCXu.s.NXCXa.MXgXR.& V.i r A.A.w B G (.(.H ).).J 6.6.H ).).).pX).pXA (.pXpXJ ).^.^.sX`.pXJ (.pXJ pXaX3.Z hX`.(.(.J pX(.aX_.H J ).G J 7.*.K 5.J ).hXQ.H pX[.`.pXD J J D pX).).).8.N ).).J J J 5.H 6.J ).J J 5.5.2.C J J J J ).pX8.Z J J 6.).^.uX).6.J ).(.pXzXmXmXNXBXNXmXqXVX:XsXP.% w V.w e J.7.H H ).H 6.J J ).J 5.)./.6.pX).5.6.).uXJ aX`.dXyX'.pXJ (.5.8.A J J 7.J pX^.5.5.pXsX).6.J pX6.uXsX).4.G J ).pXpX).J J J 6.J J 6.6.J 6.).J 5.6.6.9.MXf @.@.T.J ^.J 6.5.J 6.).w.$.!.pX).6.).6.pX`.).pX).).7.G J J 5.G J J rX~.H H yXAXtXqXZXNXNXa.CXt.w Z.w e F.^.).aX^.H 5.J sX^.J 6.5.J J 5.G pXsXD J 5.D _.6.6.pXuXpX6.(.pX7.7.G 5.F G G J 6.pX`.).pX`.[.).5.J J pXJ 6.J pXsX5.5.3.>.Z G 7.pXgX~.uX).G 5.6.).pX6.5.D ).",
"6.6.D sXsX0.f !.).6.6.7.7.).J sX0.*.:.h R.6.F J 5.0.sXdXcXW.).sX).J 9.e.i.i.u.u.s.a.ZXp.z.h.A.V.w V.a XX].!._.J J ).6.G 7.6.6.sX^.pXD G pX6.D 6.pXJ 9.Q.(.pX6.J 5.8.pX).6.J D pXpXpXpXJ sX).pX).).J 6.(.q.P.].).pX6.J pX6.6.J pX`.sX`.J 6.8.%.B M C ^.D 6.).pX7.6.D G ).6.7.8.(.7.5.2.Z uX4.6.J 5.aX_.).7.6.J 6.6.6.6.6.pXJ 6.pX6.6.7.6.kXCXNXBXNXCXa.y.gXY.h.w i r r A.r m F F H H H ).).).pX_.J 5.J J J 7./.F J ).pX).).).J 6.pX).J 5.6.J aXsX!.5.6.H J H ).pX6.).G F F uX(.w.Q.E.<.(.).(.6.C H 6.pX).`.).(.).6.J J J aXE.).).pXJ 6.).).).J J J ).`.aXrX!.D A 6.4.D 5.sX).J J ).`.pXJ ).pXJ (._.7.w.mXt.NXBXa.p.%.qX:XiX0X% V.e w Z.g A H H J (.6.).).J J ).H 5.pX6.5.H 6.J 7.A ).6.(.).6.).).J 5.7.rXK D `.pXA 6.6.5.F J pX6.5.C D D 6.J aX(.G F pXpXpX).6.J 5.6.G 5.J J ).pXJ J J 6.aXnXnXyXwXR.).).J J pX6.5.J jXQ.J J J pX5.5.J ).).6.J 6.pX/.pXJ 9.B (.6.`.).^.~.!.MXlX%.NXu.u.u.a.%.e Z.w V.F.D 6.6.pX(.).J J J 6.6.).6.J pX).F 6.6.J 7.~.J 6.pX6.J 6.7.G C aXdX5.J J J J J G pX6.J (.pX6.6.6.5.J J 6.6.(.6.5.pXuXpX/.~.5.J pXaXsXJ pXpX).5.C 5.5.5.(.).",
"7.7.D G sXMXL.B 6.pX).sXhXsXpX6.xXnXbX}.`.sX6.G 9.6.(.dX!.).5.J 5.5.9.d.MXNXu.NXZXZXCX:Xl.% A.C.C.w a /.fX!.F J ).J 7.5.D D 6.G G G ).`.pXpX6.G 6.6.`.).J 6.pX).aXuX(.pXpXpXD J 7.6.6.J D 6.5.J 5.J J 6.iX{.6.5.7.6.).6.J sXJ pX6.J ).6.6.7.yX XyXB H 2.).6.J sX).pXuXG J aXsX7.5.9.~.!.7.uXpXJ J ).pX6.J 6.pX6.J pXpX6.6.J 6.6.J uX7.).xX1XMXNXa.a./ %.9.Y.j.w G.A.r C.H.m Z !.H F J F ).).pXJ 5.(.`.7.H ).pX(.).).pX).J J ).).).6.J ).pX).pX`.J D dX(.pX).5.J pX).).pXZ ).6.[._.pX`.).(.J 7.E.!.6.J 6.2.H (.).pX).).).).).J 5.J 6.7.A ).5.J J J ).J 6.{.uX,.&.b K ).`.).pX).).J G 7.J J pX).(._.7.9.mXa.MXBXp.CXeXMX! B 0X% w e e e W.'.3.Z H J 5.J J 6.6.J G H pXsXiX^.J pXpX).D 6.(.6.6.D 6.D pX).sX`.^.J 6.4.F 6.pXJ G G 5.aX<.K J ).^.pXpX^.(.6.pXpX6.6.J 6.6.).).J J G G J pX).6.J jXnXU.}.(.J 6.J G G pX6.S (.G J J J 6.6.`.).5.5.5.J 6.J J pXpXiX_.5.).).D S A B MXeXVXi.NXNXt.a.qXB.Z.V.e e S pX6.J J J 6.5.G J J 6.pX).).pX).6.uXJ `.~.5.5.5.J pXJ `.dX^.H dXhX`.`.J ).6.D J ).pXD J 6.6.5.(.pX5.J 6.G J pX).pX6.D D 6.G G ).sXsXpXpX7.8._.).pX/.(.7.",
"7.).6.D H jXQ.~.3.A 5.G J 7.6.pX`.cXyXH J 6.aX(.dXaXF 7.'.J pX6.7.J 9.d.SXCXNXBXCXCXCXVXz.h.r C.r h.K.F ).J J (.6.J pX`.sX7.J ).).(.J 5.5.7.pX^.6.).pX6.5.5.G J 6.pX).5.5.J pX6.6.pXJ sX6.D ).6.J J 7.D ).5.5.6.).pXJ 6.J 5.6.A ).^.5.6.6.`.`.dXdXuX-.z Z aX2.K 7.A ).).J 0.K 9.6.7.!.H 7.J aXpX).pXJ 6.6.J pXpXJ 5.7.6.J ).6.6.6.G aX(.7.CXp.i.ZXa.^ ! gXY.F.w A.A.A.w H.!.m Z F H J H J J 8.N _.(.).sX'.pX^.(.pX).).J J ).6.J ).).).pX).`.pX).sX_.pX4.D J ).).pX).`.`._.J J (.).).).).(.pXpX_.(.5.J ).yX~.J J pX).).).6.).4.D pXpXpXE.).6.J J J J ).).J aXe.q.M m A F J ).).).pX6.6.<.Z pX).H J aX9.BXCXMXt.MXBXqXi.<XL.Q % w Z.w % g 0.^.Z J J J J J 8.D 6.A F G ).).pX6.J 7.3.(.uXS pXpXJ 6.6.H aXD J pX6.G ).`.J 6.(.sX6.J 5.sX_.).).7.G pXuXG G J 6.6.pXpXpX).).6.D J 8.S 5.G G 6.pXJ hXcX6.D 6.J pX6.^.6.4.S G pXJ 5.6.6.pXG 7.5.J J J 7.^.).J 6.6.5.K J J ).J J M kXeXmXu.u.u.t.a.VXZ.e e V.Z.Z 6.6.).J J J 6.).).J J 6.).J J 6.J pXpX(.J 6.7.6.(.J pX).pX`.J (.pX).dX7.H pXpXJ D 6.).pX5.7.^._.pXpX6.5.D G 5.G 5.6.^.(.).dXD J 5.5.D 5.8.`.J J pX7.G J ",
"pX6.^.'.J 8.<.Z uX~.pX6.D 6.`.sX).(.7.D G 5.).J 7.aX5.Z `.6.6.pX6.).e.>.xXCXNXi.s.NXa.:X0X% C.C.V.J.Z L 3.K (.(.sXpXJ 6.7.pX`.sX6.J 5.3.6.(.pX7.7.5.6.<.A 6.^.J 7.J 7.6.pX).6.6.6.6.(.).aX`.6.).pX).dXE.J pXJ 6.6.6.J 6.pX6.6.^.(.6.6.pX).D 5.7.8.w.:.2 d C fX~.pXD J 6.7.gX~.9.5.1.R.).pXJ 6.6.C 3.6.pX6.J pX6.J 7.D `.).).6.pX).pXH Q.zX/ mXd.CXs.( ; ).Y.j.V.i r G.C.i ].!.Z F H ).(.)._.fXQ.H (.J D J 6.).).pX).6.J J J ).`.).).).pXJ J J 5.J 5.C S iX).5.H ).).G F ).).).).J ).6.).(.7.^.).J J (.).).pX`.(.J ).).6.J ).uX`.J ).).).6.6.5.5.H 5.N J 6.5.jXPXLXY././.~.J pX0.z D D [.J J H H (.9.aXqXCXBXNXVXBXMXMX<XE.L.h.e e V.C.d K D Z (.J 5.).6.pXD D `.).D F D pXpX).gX^.Z 6.).).pX6.5.J J J sXH ).aX7.z H 3.D J J pX4.D J 5.H 5.uX`.6.dX(.).J J 6.J ).pX).J pX).6.sX).pXpX).6.3.(.J 7.7.F pX(.pX).pX6.).fX~.J J 5.J J 6.pX).pX).).).pX).J 6.6.6.uX/.J J J J ).'.gXxXCXu.u.u.a./ %.C.Z.V.V.C.S 6.3.J 6.J 6.).).).pX).pXJ 6.J J 6.J 5.J J 7.pX`.6.6.G J 6.5.6.G G 5.5.pXH 5.J ).).).J 7.^.).^.5.J ).sX[.sX^.D 6.6.`._.pX6.pX`.pXaX~.^.aXpX).e.{ d D `.pX",
"7.7.H 3.5.5.iX_.6.C C 6.).).).6.).).gX8.H ).6.J J aXaXL K pX5.7.6.7.xXLXnXCXu.u.NXCXCXMXQ h.r w C.s d ].uX~.(.H D dX6.5.5.J G 3.D ).aX/.pXG 5.6.pX`.[.dXiXpXD 6.6.).^.pX6.G 6.pXJ `.pXJ 6.sXpX).pX).pX,.b ).5.6.pXpX6.G 5.sXpXF H 6.).6.pXpX).9.K xXNXfXh g J pX8.<.B 5.D `.pX9.7.~.Z 6.pX6.6.pXe.$.H 5.J J 6.pXpXpX^.6.J ).pX6.6.6.(.C w./ BXu.t.ZX2X- H h j.V.G.r A.r A.W.{.'.D Z ).(.!.`.sXaX'.).6._.).6.G (.pXpXpX^.).).).6.J pX5.).sXsXsXsXpXhX{.^.J 5.G (.F 6.`._.(.J J J ).pX`.).6.).J J ).).).pXJ J ^.J ).).).pX).).6.J 5.J G 6.J ).pX`.).pXQ.J 6.).(.).hX{.J 8.K H 7.jXW.E.E.).pX`.(.(.J 9.pX%.( BXNXu.MXAXVX:Xh L.% e w w Z.I.yX{._.H J J ).5.5.uX).J pXpX6.H 5.5.J pXpX6.G H 5.7.7.pX_.`.).aX8.C G w.$.M ^.J J D ).sX).pX`.^.).).7.G 6.5.H pX6.).`.pX6.pX7.5.G J J 5.G J J aXiX>.L 7.J J J J J 5.J 6.J (.).7.4.H pX6.6.J 6.<.H pXJ J 6.7.J J 6.J 6.J J J J '.S dXtXt.u.p.u.a./ 1.y Z.w e C.D 6.iXD ).J D J J J J J 6.J ).sX6.J pX6.H G pXJ 6.J 7.6.F pX6.).sX6.D 7.J J 5.J H 6.5.6.).pX).J pX).J 6.J 6.aX8.G D F 3.G J pXJ 5.pX4.F 5.pX6.fX~ d '.).pX",
"6.sX6.5._.dX_.sX8.J )._.pX6.J pXD J aXhX_.6.pX).5.6.gX[.!.7.6.6.7.6.sXxXxXCXNXNXy.mXZX<XQ h.A.V.C.C.% R.9.Z J H (.7.pX`.pX6.pX4.H J pX6.6.6.D pX6.G C 5.7.dXuX6.pXH pX6.5.4.~.pXpXC J 6.J ).sXpX).pX6.SXP.K 7.3.D 5.7.pX_.6.sX_.(.6.pXpX).pX5.9.E.fXeX|.*X].).5.8.Q.[.iXpX5.2.7.6.J L G 3.H pX6.jX{.aX<.(.5.5.J 6.pXpX6.).5.3.6.6.).6.H zXCXi.t.i.NX( ; !.P.u V.G.A.A.i C.].dXC ~.Z F (.H G 7.'.`.pXsXF G pX/.S 6.6.).`.).pXJ ).).6.).J J 5.J `.`.`.sXsXsXgXN !.7.H (.J F J (.).J ).).).).).pXJ J 6.5.F ).).J J J J J J ).pXJ 9.$.R.uX).J ).6.).`.).pXpX).).5.(.J A J tXW.pXJ `.sX).H pX^.pX).D (.dXgXp.a.BXNXVXMXNXMX<XqXa h.e e w B.B 6.pXJ J J H J pXpXH 6.J G 6._.pXpXpXD 5.5.`.sX5.5.J ).).J 5.J 7.rXE._.aXnXU.!.sX`.^.J 7.6.).pX(.).7.J ).7.8.Z 6.6.).5.G pX6.pX).uXJ 6.6.4.D G J sXrX].7.).J J J J pX6.pX).).J 6.^.J 6.).5.pX6.iX~.6.6.J pXpX).J pX).J J J J H E.^.6.r.t.u.u.NXs.CXeXV.e V.e Z.^.J J uX_.pX).J J J J J 6.J J 5.aX(.pXpXuX(.J 7.5.5.6.).J C J J 7.6.7.>.H ).`.sXJ J ).pX5.5.5.J 5.G J 6.).pXpXhXpX0.$.S 4.D 6.pXpX7./.7.*.Z pXJ rXrXF J 7.",
"5.G 7.^.Z pX6.5.aX(.G C G 6.H pXpXD ).7.7.(.7.).pX5.aX{.).aX).pXpX`.6.dXxXCXCXu.NXt.NX:X;Xh.A.C.e e h.B gX_.5.!.6.8._.6.aXJ (.dXD J 7.4.J `.`.pX4.^.sXF 6.6.pX6.pX~.6.pXsX6.D J aXiX).pX6.G F 5.5.6.5.jX XK J uXJ pXsX^.).pX6.G A J 5.6.J 8.>.~.uX_.hX/.5.J pXpX6.H J 6.aX9.A 9.C 5.!.J /.A G 7.D F 7.iXJ 6.pX(.6.J 6.6.J aX^.).pX).sX_.zXmXu.t.BXmX2Xl.(.B u V.G.A.A.A.u Z dX]._._.!.H J J J !.7.J pX/.(.(.pXpX).sX(.6.5.J pXS 6.).(.pXsXJ ).H 5.5.J ).).w.E.!.dX_.).).).J (.J ).6.D H J J 6.D J ).sX'.).6.6.C J 6.).J D 6.J gXXX!.pXpXuXJ ).(.pX6.).).).pXrXK 6.`.).`.D 5.^.H 6.`.).5.J J ).).(.7.w.BXmXBXt.BXu.BXVX<X%.h % w e w y g D G J J (.J 5.F sXpXD 6.5.~.).6.6.pX`.pXJ H aX7.D G 5.C G J J 6.pX).6.`.`.`.).J pXpXG 8.S J D (.5.pX^.5.7.uXH 5.J 5.8.(.J pXJ 6.J pXJ pX`.`.pXF G ).sXdX7.C G H 6.G 6.J J J J 6.D ).6.8.K J pXJ J J 6.5.5.D J J J J pX).).J ).M A :.r.i.t.NXi.a.CXeXL.y C.V.u J pXJ ).J 5.J ).).pX).J pX).).6.6.J 6.6.G J 5.6.6.^.^.pX7.^.(.pXpX).aXyX!.).(.pXsXpXG 5.8.A _.pX8.!.J 6.J 6.J 8.7.hXyXH uXJ J pX).pX).gXyX!.6.7.J pX_.5.6.",
"aX).H `.).6.).sXpXsX%.h !.sXJ J 7.K C 7.`.7.D ).6.aXH ).5.6.).7.D ^.dXsXlXt.u.u.NXmXNXMX0Xh.C.C.J.I.I.Z 8.G `.!.5.pXF 6.6.`.).7.sXJ pXpX^.`.6.6.uX^.7.J pXpXpXpX).6.6.6.7.pX^.J 5.D 6.5.6.pXJ G G 5.pXJ dX_.).pXJ 5.J uXJ 6.sXuX_.6.pXJ pXaX X_.pXG 7.pXsX`.6.).`.pX5.G 2.gX/.7.7.Z ].sX<.V (.6.`.sXJ J 6.J pX6.6.pX6.).).6.pX6.pX).6.Z zXVXBXNXMXt./ qXJ P.j.e G.A.A.r C.n J ).).(.H (.).pX'.(.pXpX(.pX).J 5._.pX(.).pX).`.sX/.^.pX6.D `.`.pXJ pX`.`.D G jXW.Z 6.J J J 5.J J J F 6.).^.).).6.^._.).).).6.).9.$.j H ).J J ).).).).J 6.3.G ).).J 6.6.J J J J `.pXS J ).6.1.B (.pXD J 3.^.).).J (.pX7.gXu.CXNXNXMXi.SXVX^ 1.;X% w V.e Z.J.3.H J ).J J pXJ J 6.J 5.pX~.6.6.6.6.D 7.pXC C dXaX6.J ).).).J J pXJ J J pX6.6.7.G 5.6.`.^.`.pX5.D J 6.pX).pX6._.sX6._.).7.G ).pX).pXpX).6.5.J ).^.J 7.7.dX3.L H 6.).J 6.J J J 6.uX,.b uX`.D J pX6.J 6.7.D H 6.J J J J J 5.J J J C e.MXu.NXNXNXZXmXkXg B.C.V.F.(.).pX).7.G (.J J ).6.J J 6.J 6.pX6.J 7.J J J 6.J sXG 6.pX(.D 5.5.8.H dX~.(.6.5.J 7.pX_.dX`.J 7.4._.).pX).pXpXgX_.J J /.pXpX(.5.J 6.pXpXsX8.C ^.pX6.J 5.5.",
"J sXJ 5.F J 7.2.J 7.jX{.H pXpXpXdXfXK (.).aX(.pX4.pX).F pXpX6.7.6.F J 7.d.s.p.i.i.u.s.mXQ % C.Z.W.'.`.J aX(.H J J ).pX7.J D 7.G 5.6.).pXH 5.pXpX5.5.6.(.6.6.pXpX6.6.5.J pXpX6.pX6.D G 5.K pXpXpX7.F pX7.J J ).6.5.7.H J D 6.J ).5.6.6.J 6.).J 5.6.`.).pXpX6.6._.aX7.uX0.*.C 3.7.sXT.H 7.uX_.pXpXG 2.6.D 6.3.D 4.D 5.).J ).pXpX6.6.6.).(.gXnXCXNXBXa./ $.8.h & e G.A.A.A.C.Z H H ).J (.(.(.).^.J ).pX).J ).pX_.J 6.J J J J ).pX).).pXpX_.J 6.7.A A J sXdX).`.dXF ).6.H 6.J ).(.pXV Z 6.J J 6.pX_.).J J J J J aXbXXX~.pXJ ).).J ).).pXpXfX!.pXJ J J pX).).uX).J J sX(.J 5.`.[.D J pXpX/.D 6.).).H J pXw.a.mXNXNXNXMXSXMX<XtX;Xh.V.e w % L.).`.J F J ).).pXJ 6.J J _.(.5.5.5.J pXJ pXdX~.6.sXhX[.uXD pX6.D D ).pXG D 6.5.).sX).^.7.A H 7.).pXD 6.J pXpX`.).7.`.^.5.aX).3.S ).pX).J 7.6.3.Z pXJ 6.aX8.iX].(.J 5.6.J J J 6.J 6.xXY.(.pXsX).J 6.J 6.pXaXH 6.J J ).J pX4.H ).).6.w.MXNXNXu.u.u.mXy.g B.V.V.u S J ).).aXuXF J ).6.6.).J J J 6.6.J 7.6.(.6.D ).J 6.fXD J ^.).).sXsX`.J ).J D ).pX).`.5.J pXpXpXuXH J J 6.6.J aX^.pX~.J J J 6.6.J 5.J pXaX8._.J 7.6.J 7.D ",
"(.).sX).pX2.2.6.F uX).).).6.J 6.6.sX{.).7.J ).pXsXpXpX5.G J 6.pXsXuX).0.p.CXBXi.i.u.mXp.Q % e J.Z !.J J J ).H ).J G 6.pXpX6.6.7.H ).6.6.5.G G 6.pXpX).).7.5.G 6.pXpXpX).6.6.).pX6.J 5.9.V F 5.5.pX_.5.).sXJ 3.D 7.^.).pX).6.J D 6.J ).).pXpX7.D _.J 5.5.3.5.J G 3.)./.zXhXhX5.A _.!.F pXpXJ 5.6.fX^.S ).dX/.`.pXpXJ 6.J J J 6.6.5.5.J !.dXe.t.i.t.u.<Xl.dXP.& C.r r r r G.!.`.(.).`.(.(.(.).pX).H pX).pXJ J ).pX).).).pX(.J J J pXpX6.G G 5.6.iX~.~.G `.sX).sX[.H pXJ J ).J (.)./.J )._.).).`.J 6.J J ).).).sXH ).6.J ).J J ).).).pX6.uXJ ).pX).).J `.).).).pX).J 6.6.^.(.6.uX6.F (.6.^.).).pXH (.pXzXt.a.u.NXmXBXBXp.^ 1.; % w w w y a (.G J ).J J J J J J pX).H 6.6.7.(.J J ).J uXpXJ ).pX).gXH J pXpXJ D 6.).).6.pX(.).pXJ 4.^.(.uX).pX7.G 6.J pX).6.pX).5.6.pXpXsX_.5.J 6.6.6.sXhX~.G 8.D aXpX).5.2.*.d K G J J 6.6.6.sX`.D J J pX6.6.5.J 5.pX(.6.J ).J J J sX`.).(.tXq.jXAXmXNXNXu.a.u.a B.V.w F.~.6.F ).).9.K !.6.6.6.J J J J J 6.6.pX).pX)._.6.).J aX(.pXH J ).6.6.6.D H pX4.A 7.J 5.D _.pX).7.7.(.G G 5.J 6.pX`.pX).J 8.D J 6.6.J J H gX/.~.7.7.^.pXpXsX",
"J J 5.G 9.0.C F H H pXJ 5.5.5.J pXpX5.J pXJ J 5.5.6.6.pX^.uXpXpXH `.dXw.y.mXmXNXNXNXCXt.Q Z.e s !.!.).J ).J H G 5.(.J ).pX6.6.pXD C 5.6.pXJ 6.G G 5.5.G 5.aXJ J 6.6.J 5.6.pX6.6.pXpXpXuXQ.uX`.sX).(.pXJ 6.pXiXpXJ G G J pXJ pXD 5.J ).).).pXpX`.J 6.6.pXdXsX).`.aX!.pX9./.gX9.C L !.6.D 6.pXsX).sXsXpXG 6.).7.4.6.D J pX).pXJ 7.pXpXJ Z 9.y.t.u.NXNX^ 0XF R.j.V.G.r A.A.w Z 6.K (.(.).(.(.H ).sX).6.J 6.).^.F pXpX).H sXsXpXJ D J 6.pXpX).`.).`._.sX`.(.J sX).5.D pX(.).)._.(.).).).(.).).J A ).).).).).J ).pX).J pX).J J ).).).J 6.pXJ ).J 5.).pX).J 5.G 5.J ).pXJ `.).).).).pX`.).5.G J J )._.).).zXCXCXBXNXu.BXi.p.^ 4.P.% w e w B.F.7.A !.).J J J J J J G J H J 5.uXJ pX6.G J 5.5.5.5.G 5.7.(.J 6.D J `.sXpX5.D ^.).5.5.6.6.~.).J 6.5.aXJ G ).J J ).).6.pX).).pX6.6.6.D J 8.J J pXJ J pXpX7.J 6.uXqXqXJ.R.).H J 6.J J 6.5.J J G C pX6.pX6.5.J 6.6.D J 6.).).J (.uXH 9.jXhXqXmXi.u.u.a.MXJ.y w V.w J pXJ F 5.1.].J J pXpXJ J J ).6.J pX6.J 6.J D J ).6.pX).pX6.J J 6.pXpXsXH 7.6.J pXG 6.(.J 6.6.aX_.`.pX).6.D J 6.5.pX).8.E.).6.D pX6.).6.7.`.).sXsX(.pXpX7.",
"6.0.=.x 3.gX_.Z H H ).pX).pXpXJ J 7.J J 6.6.).sX6.J pX`.).6.pXpXJ K 8.zXSXa.u.NXu.u.s.mX;XB.Z.L.!.G 2.*.K pXJ G F J J J 8.6.sX6.dX,.M J sX/.sXsX6.D 5.6.J pXsX).6.6.6.6.J 6.6.5.5.).pXpXJ 6.6.6.).).7.5.).).7.pX`.pX).D 6.5.).pXpX_.6.J J 6.D 5.D pX).pXpXpX).).pX).5.tXV gXzX0.j L G pXJ ).J 6.6.J 7.D (.6.pXsXpXuXG C >.2.,.M 5.).pXH 0.t.u.NXBXt.^ h H R.j.t G.A.r r w B 4.].).H H (.(.J F 6.6.pX).).).6.J J J pX).J J pX).).pX5.J `.`.`.pX^.D G J 7.J 5.J q.>.B ).6.!._.pX).H J J J ).9.E.H J ).`.pX).J J ).7.K ).pX2.v Z sXpX).6.D D pXuXF (.uX6.pX`.`.4.-.>.(.).J F J ).J J ).dXE.^.pX(.).J G 9.s.t.NXu.NXBXi.y.:XV P.% w e w e a dX^.Z 6.J D ).sXD J pX6.K G `.6.6.D 7.J F pXJ pXsX).6.7.(.6.J 6.C F 5.5.pX`.D G 6.).pXsX`.6.7.J 5.6.pX^.(.pX6.J 6.J ).6.G J ).pX6.(.6.`.pX5.J 6.J G 5.6.pX6.pXsXPXQ.).).J J pXJ J 8.J (.pXdX^.S 6.J 6.6.(.pXuX`.J ).J J pXJ J ).^.kX2.e.t.NXu.u.CXp.a B.w e F.(.).sX^.pX9.L J ).J pX).J ).J pX6.5.pX5.J 6.^.`.J pX6.J ).aXJ J J 5.G J ).6.).).`.1.Z 5.G 6.5.6.J 3.G 5.6.5.F 7.H 5.J `.sX6.sX`.pX`.).6.pXpX5.8.G 7.D 6.sX",
"pXy.0 L L /.hX_.].).J 6.6.6.pX).J 6.sX).).pXH pX7.D G J 6.6.).sXpX(.uXzXSXa.u.NXNXNXNXt.;Xy Z.B Z J dXeXn -.C D (.H ^.pXdX/.pX6.5.nXrXb S 7.5.7.J 7.D (.6.6.5.5.6.).pX6.6.G pXsX).pXpXpXpX6.).6.5.5.G (.pX6.pX).).sXpXJ C D J 7.H J pXJ 6.).pX6.(.6.pX7.5.7.G D 6.pX7.4.[.7.zXzXZ m !.).pXJ 6.6.6.7.uX/.pX6.J 6.6.6.gXq.[ j $.L.sX(.).`.jX1Xu.i.i.s.) g L n j.e G.A.G.A.C.R.!.J G (.).F H J F J 6.^.).6.J pX(.).pXJ ).7.G D pXJ 6.sX_._.pXpXpX).aX^.).(.).sX).zXXX].pX_.).C J ).5.G 5.(.).pX_.J ).J D J ).).).^.dX'.J pXgXiXM v ).pX7.<.B F aXE.Z 7.J ).sXJ tXtXR.(.J uX_.J ).J ).J 6.D (.`.).(.pX2.:.s.t.NXmXMXNXNXMX<XP.$.% w w w Z.g C fXK H pXJ J 5.pX(.6.).`.(.5.7.5.6.6.).8.C J 5.5.).9.V (.`.`.dX`.(.6.J H pXpXJ 5.F 6.J 6.5.6.D 5.).).`.pX6.).pXJ J 6.6.pXJ 5.J 6.D 5.F 6.pX7.J ).sX5.6.).sX).).F J ^.J 6.J ).6.5.uX^.).D ).pX).pX6.6.).).J J 6.5.(.pXJ ).J D S ^.zXkX%.t.u.u.NXCXMXJ.e C.e F.6.J J _.gX9.Z Z pX6.).7.J J ).J 7.3.G pXJ J J J D ).pX_.).aXpX).).).sX).J pX6.K 5.8.B pX^.7.`.`.pXuXJ 6.7.J `.6.D (.`.6.5.J ).pX6.J 5.5.C 5.6./.hX6.G D 7.",
").SXyXm (.L J ).Z pX6.J 6.J pX6.J J 5.J 5.7.D 5.7.).4.~.pXpXJ 6.6.(.8.zXp.a.i.i.u.u.CXt.;Xh.w g !.!.pXsXtXh ].~.J H G 6.J 5.7.7.6.<.e.B S J 7.).pXpX^.6.J pX6.6.6.5.6.6.).uXD J 6.6.J pXpX).6.7.).sX(.D 5.5.6.6.J 6.7.7.A Z J 5.D J 5.5.).).pXuXJ 6.5.6.6.aX`.J J 6.w.V dX7.gXjX{.T._.).pX6.D 6.J sX`.6.J pXpX6.).).sXnX0Xf f '.pX6.!.W.xX1Xi.NXNXa.^ g L n j.V.G.r A.i V.].6.2.!.(.).).H ).).J ).).6.pX).J ).J pX).G D `.(.6.).pXH _.pXJ J pX5.5.(.`.pX).J 6.aX_.2.F ).6.'.H ).sX`.(.).J ).6.A ).pX).J ).5.J pX).J J ).sXhXq.z B 7.uX{.hX^.6.`.F 6.sXJ 5.J pXcX].6.5.(.).).pX5.Z ).sX/._.pXpXJ 5.9.e.NXCXNXNXVXNXMXSX<XtXz.% w V.e e tXB ^.~.H pX).).6.J D 6.5.F G 5.6.pX^.pX6.aX'.J 6.pX5.gXQ.H ).J J ).pXpXaXS J 6.pXpX).D J 7.).uXpX`.).J J J J ).pX6.H 5.6.).6.6.J J sXsX^.D pX6.J H pX7.J J ).pX6.pX!.J J ).).6.5.J ).J 5.J 5.G 5.6.6.6.G J J J 6.).(.).J 5.V (.S 4.dXkXi.a.u.s.u.t.VXJ.y V.V.u J ).F F 7.jXZ Z J pX).dX).).).pXpXdX(.J J J J ).`.J J (.pXpX`.`.pXJ 5.6.J 5.3.S ).dX{.H 6.^.).7.pX9.K sXdX_.pXpX(.J J pXpX).6.5.5.pXpXaXpXH pXJ D gX/.`.sX",
"F lXtXm !.J F H !.6.J 7.4.J J dX6.J J ).7.J pX7.(.).).).pX).pX6.6.J 8.9.BXCXNXu.NXNXa.t.; B.w Z.!.K ).pXsXQ.J ).J H (.pX7.).pXpX).kXq.T.(.D 7.J 6.pX5.6.J J 6.6.pX6.J pX).pX6.J J 6.D 5.5.J 6.^.`.pX8.H 5.J ).).sXuX^.sXhX_.pXq.M 7.D D J J 6.pX).pXsXpX6.(.`.sX).aXdXE.8.7.pXw.F m F J 6.6.pX6.6.D 6.pX).pXpX).).6.8.C uX0XW.J 6.aXR.S %.( BXu.t.a.<Xd j g j.V.G.A.i A.w m gXW._.).H ).).J J J H pX).).pX6.H J 6.6.pX(.).pX).J sX_.J 6.6.J 6.uX/._.J J 6.).sXsX).dX!.).`.).).H J pX).J ).).pX/.(.).).pXJ 6.H 5.J ).).).J 9.w.}.E.uX_.pX5.pX).7.V J 6.5.J ).5.C 5.G ).G F ).7.'._.J )._.).pX`.aX5.9.9.MXCXBXBXNXNXBXBX<X<.P.% w e e Z.XX X^.).H J J J 6.pXJ 5.7.(.D G D J pXG 6.).J J 6.5.4.J sX~.J 7.J G 6.6.6.F 5.6.6.D 6.(.7.J H ).pX7.G ).pXJ J 5.D sXpXJ 6.5.J ).pX(.J 5.6.J 6.7.).(.6.9.H ).D pX6.(.6.>.K ).6.J pXJ 5.5.J pXpXJ 5.5.7.5.5.F J J J J J 5.6.^.^.H D ~.gXq.s.u.u.t.u.u.MXL.B.w Z.F.H 6.J H J dXhXZ 6.J ).6.pX`.pXJ 6.pX7.J `.pX).(.pX6.).F ^.pX6.5.5.5.8.D J :.f !.J ).6.6.J J 5.pX6.fX'.C J pXpXsX).J ).6.J ).pXpX).pXpXpXaX:.b 5.D G 6.6.6.",
"H kXkXT.].sX).!.Z 6.).dXE.pX(.8.6.).).J pX).J uX).J 5.D J 7.G 6.pX).dXgXMXCXu.NXNXNXu.<Xz.h.S.u z L H 6.J J `.D J (.D J 6.J pX6.pXpXyX_.6.5.(.pXpX).pX).pX).pXpX6.6.D G G 6.pXsX).pX(.6.).pXpX5.3.5.pX(.J J J G J pXpX5.7.J J jXE.D (.pX).J J pXJ J 6.6.pXJ J J 5.G 7.).aXdXaXw.{.Z L (.6.pX6.6.).pXJ pXJ ).sX).8.A 4.'.).`.pXJ ).pXZ v p.mXMXt.u.a.) d n g j.V.G.A.G.w a Y.(.'.).).).H (.pXD ).Z ).).J 8.D (.7.D ).).).J ).).pXH (.pX).pX).pX).^.`.pXpXpXJ pXsX6._.).J ).pX).).J ).).).).).J J F J D sXpXpXD ).).J F ).6.aXnXY.5.D 7.J pXJ J sX{.6.6.6.Z pXdX(.D 6.A 6.S F ).(.J pXJ H J pXA 8.9.9.1.f.NXBXNXa.NXmXBX<XE.Y.% w e e u C 2.(.).J J J J 6.J J 6.).6.D (.pXH aX6.J ^.^.).).sXsX6.J pX5.D `.pX6.J 7.<.B (.pXsXJ ).pX).^.5.7.8.(.J 6.pXJ 6.S 5.6.6.6.pXH 6.(.pXpXpX6.5.D pXpXF 5.9.F G 6.6.).J G uX(.J 6.6.5.5.J pXG J 5.J 6.6.6.6.J D J pXJ 7.J J J ).).(.J S pXSX/ u.u.t.NXu.SXL.B.C.y F.6.J J J D J dX(.J pXJ 5.J J 7.J J pX8.Z 5.6.J H 5.J pXJ D 7.5.6.).pXaX_.e.$.P.S J 5.J pXpX7.5.C D ).5.7.S J 6.6.3.F J 7.J J G J pXpX6.6.9.BXh j ).6.D ).pX",
"pXdXbXQ.dX5.J H F J 4.J 6.J 5.7.uX5.J 6.6.7.D 6.).).J ).6.6.).(.5.D 7.9.lXCXu.i.u.u.NX^ ; h.r V.& Z F G D F 5.5.Z J J J pXpX6.7.6.J 5.5.).).J 6.6.J 6.5.J ).pX6.6.8.D pX8.C H 7.5.J pX5.J J 6.pX`.pX(.pXJ 6.J ).J G 5.6.7.(.pX(.uXpXH J J 6.5.G ).6.7.(.sX).).aXpX).6.4.6.dX9.dX{.(.T.pX).pXpX6.H pXpX6.6.6.J 6.iXiXpX(.6.J 6.J J ).).5.xXmXy.t.u.s.! a p g & e G.A.G.A.F.].(.(.J J ).(.Z gX~._.^.J J 6.8.~.J sXpXH ).pX).).).pX).J J J 5.D ).sXJ 5.C F 7.J 5.5.pX(.G ).).).).).).J H pXJ ).J ).).pXZ ).6.pX`.).pXsX>.N 5.H uX).H 6.).).).sX).C G 7.7._.).G pX0.v Z `._.0.M (.J ).pX(.).G 3.^.sXzXe.,.y.i.u.NXNXNXBXNX<XrXY.% V.Z.Z.w n V H J J J J J J 6.J ).).pX).J 6.).6.pX).pXF J J 6.6.aXH D 7.A G 7.6.6.pX`.~.D J pX6.F pXpXH 7.5.uX(.J 6.6.6.6.).D 6.).pXpXpX).J 6.6.6.6.6.S 6.6.8.-.C 5.F H pX7.J ).`.).6.J 6.7.D (.aX`.pX6.J 6.6.pX7._.pXG G 3.D ).6.J J G F (.!.iXy.a.u.u.NXi.i.xXL.y V.Z.u 7.J ).6.J J 5.pX).J pXpX).6.7.).(.J dX^.7.(.).J D J 5.J G 7.6.D 5.G 6.0.#.L.R.pX5.).6.J 5.).gXQ.!.7.D sX`.pXpX).e.f L J uX).6.F J 7.7.6.8.bXIXY.pXJ ).).pX",
"pX).pX7.9.sXG K J K D pXJ <.E.).pX`.aX5.5.6.(.pXJ ).pXJ 6.).).6.pXpX8.9.q.a.NXBXNXa.i.<Xz.B.G.C.w g N C G D ^.!._.G ~.pX6.6.J pXpX).fXE.pXJ J J 5.J 6.7.D J 7.J ).aX^.5.fX'.7.5.H ).5.pX^.(.pX).7.6.J 5.6.J ).).pX6.A 3.6.6.S sX6.pX_.sXpXJ 6.(.G J J 6.J pXJ 6.pXpX7.^.sXaXdXXXcX{.!.6.pX).pXdX).7.5.J 6.D ).pX).6.pXJ pX).pXpX).J J ).q.a.BXNXa.a.! a p L.F.e G.A.i i u N C C 2.K ).J D G ).F J ).J 5.`.J (.).sX^.).J J J ).).).).J D )./.).5.6.gXE.!.sXpXpX`.pX0.M !.6.J ).J J 6.H J ).).pXA H 8.N F 0.K G J ).7.0XW.).).).).).J ).).).J 0.V !.0.A E.7.S 5.tXXX!.J J fX'.C G H ).`.).w.z L ).zXlXzXBXi.i.u.u.i.i.NX<XgXY.% w e V.u n E.H J ).pX).).J J 6.J J J 5.D J 6.6.pXJ pXJ J J 6.6.pXuXJ 8.(.J 6.).6.5.5.J J J 5.6._.J ).).7.pX(.6.5.J J pXpX).5.J 6.J ).pX6.J 5.3.D pX`.`.pX6.gXdX(.)._.H 7.7.F ).G 5.J J ).aX`.H 5.6.6.pX).6.J 6.pXD 5.D J ).D G 5.6.J uX(.H Z 3.y.a.u.u.i.u.i.:.g w u V.e S ).J J J J J ).J 7.A (.pX6.pX).).6.7.7.(.).A (.`.J 7.G G J 6.6.6.).5.MXeXL.iXD `.).pXsX`.(.pX`.6.,.M (.6.6.6.J xX0Xn ).6.6.6.).G D pX9.^.G iX].pXpX(.pX6.",
"J 6.6.7.7.2.3.!.(.`.).7.D `.).5.5.G 4.aXD `._.pX5.H pXpXpX6.J pXJ 6.9.0.p.a.u.y.i.ZXt.^ ; h.G.C.V.h.z.6.!._.sX_.6.).H J pXpX7.D `.pX6.5.7.6.G 5.G J J 6.(.6.pXpXJ 6.pXpXpXJ uXiX(.8.(.).5.J ).6.7.J J pX6.J J 5.5.pXpXuX).`.D C 5.6.D G 7.pX(.).sXuX5.J pX6.).pX).pXaXD 3.aX_.).8._.).6.5.J 3.3.D aX/.).pX).5.J 6.).sXuX).6.7.pXJ pX5.2.#.t.NXNXCXmX<Xa H.L.j.V.G.i i S.a b B R.Q.!.).6.A (.F (.(.J pX).).`.).).pXpXJ ).pX(.).J J J pX`.).2.C D ).`.{.J 5.7.(.).aXjXQ.F J ).).pXJ ).).J J J ).hX).q.B L '.iX^.J ).dX].).J ^.^.).pXJ (.pX).1.h W.pXdXQ.).sX`.7._.sXJ 4.F ).q.M Z (.).J 5.jXbXY.).zXw.jXmXy.NXNXNXBXNXNX/ hXY.% w w e e L.!.5.H J J J J pX5.J 6.D J pX_.pXJ pX7.H pXpXJ J 5.7.G J 5.6.(.7.3.G 7.D ^.).H J 6._.).).J 6.6.).pXJ ).).J J 6.J pXJ 7.D J J pXJ 7.pXG J J J 6.7.9.8.F _.J 6.S dX).J aXD D D J 7.(.J J pX6.D ).pXpXJ 6.pXuX^.`.).1.V D D J J J ].^.8.p.CXu.u.u.i.NXy.a Z.C.V.e R.pXpXJ ).6.G J 6.).sXJ 5.6.6.J J 6.6.).6.(.hXJ 3.5.3.uX(.D 5.6.).pX6.{.Q./.J pX(.6.J 5.pXpX6.3.5.jXQ.G 5.pX6.J ).yX`.G 5.7.(.pXpXJ 5.pX`.sX'.dXpX).J 5.6.",
").7.J 9.5.9.!.'.N C G A ^.6.8.J 6.iX^.pX`.).J 5.pXJ D 6.6.pX).6.pX7.gXe.i.CXNXNXNXt.a.t.; B.C.V.K.U.P./.!.J J J J ^.^.J 6.6.4.~.J 7.9.(.`.aX6.6.H J 5.0.K pX6.pX7.J pX5.5.).H 6.pX).6.3.5.H J 7.pXJ J 6.pX6.6.D J J pXpX).(.sXpXJ ^.sXpX`.pX).J J 7.).(.6.6.J J 7.6.pXsXuXuXJ D _.).5.G pXpXfX^.^.J ).pXpXJ pX).pX6.).).pX6.J ).pX6.8.gXqXmXu.u.a.t.^ j.H.L.J.V.G.G.G.V.g g }.].).J G pX3.L D F J J J ).).).pXJ 6.pX(.6.(.).J J ).).pX).pXyX].`.pX).G ).pX^.).6.).(.G _._.).6.6.).J J ).).).).5.5.hX X{._.6.`.uX).pXD ).pXJ 7.G 5.).2.F J tXW.pX`.`.).pX7.G 0.L J _.fXS C rXXXH Z 7.).sX(.sX{.(.zXxXzXVXMXi.i.u.i.y.mX1XhXT.h.w V.V.B.a 2.A F C F J ).5.7.A G ).J J J 5.H pXuX_.pXsX).).).sXsX8.J (.D 6.aX(.`.`.).).J 5.J J G G 6.5.5.G 5.J 6.J J 6.5.D G J 7.D J D D 6.5.8.V (.6.D ).7.gXgXZ F J J (.6.aXF J pX(.J J pXpXG J 6.8.E.G 5.).6.J J pX`.).7.rX[.).).G (.'.R.fX9.mXCXu.NXmXi.NXy.u V.w e Z.B 5.J ).(.pXsXJ J H 5.5.J ).pXJ J ).pX).aXZ J pX`.sXuXJ J `.5.J J 6.pXG 5.G J pXJ J J 6.G J 7.iX`.J J pX6.H sX`.pXJ 6.pX(.`.6.5.6.pX8.J ).J D 6.6.5.6.6.7.",
"7.pX8.6.dXuX].dXrXR.pXJ G D aX).pXJ sX).pX).6.uXJ ).J 6.5.J J J 6.sX9.lXNXCXu.i.u.s.a.<Xz.B.w Z.s L _.sXA L J J ).J D 5.6.pXsX`.6.6.sX^.6.7.aXD J (.aXjX].5.6.5.aX(.7.4.^.).7.G ).pXsXsX`.H G 5.6.8.K (.6.).sX).J 6.6.pX).J J 8.^.D J 6.5.2.G 5.J 8.S J pX).uX7.7.^.).6.6.aX).J *.*.S ^.pXpXpXpXsX).J 8.K pXJ pX2.K G 5.5.5.7.S 6.6.sXdXnXmXu.u.mXCX<Xx.T.L.& V.G.A.G.r J.XX/.N G uX_.pXgXY.`._.(.).).J H J J ).pX).pX).).).6.6.H 5.6.J 6._.pX7.J 7.).H 6.pXJ 6.J 6.).K J pX).pX).sXD F )._.J 7.(.).D J J ).J 5.J pXpXG ).sXpXsX^.6.iX'.6.).).).`.).pXpX0.C w.z L J pXgX5.!.5.(.E.N K F pXJ J J gXxXxXxXCXMXmXy.MXy.a.<XhXY.% w V.w V.& P./.6.~.Z J J pXsXsXJ J J J H uX).5.(.J pXsX`.).pX5.8.pXpX5.6.A J J G 6.J J 6.6.J J 5.H 7.5.6.4.J J 6.6.5.J pXpX5.J 7.J J J F 7.dX`.sXJ ).`.6.7.7.dX].`.`.pXH 6.pX7.N H ).).pX).pXpX).7.6.).8.(.J 6.6.J V H 5.7.(.J 7.5.8.M A N 3.9.mXa.NXt.u.NXt.p.F.Z.V.V.Z.~.pXJ H ).5.C ).).J J ).J J aXD J 6.5.6.pX).H pX8.C J uX^.6.6.6.H ).9.$.!.`.).6.J J J pXuXJ ).).pXiX`.pXsX`.5.5.J pXpX).J 5.4.(.5.5.pX^.pXD J 6.6.J 6.pX`.",
").pXgX^.7.hX(.J (.`.aX6.^.^.6.J pXJ 5.D 5.6.J 6.pXJ J pXsX(.pX6.J 7.gXzXVXCXNXNXi.t.mXt.; h.C.V.u s F 5.hX'.G F F ).J ).pX5.D 6.6.6.5.5.5.3.pX,.B sXpX`.pX6.6.6.J J 7.6.J 7.7.~.J 7.J 6.J 6.6.D 6.dX'.J pXJ 5.J sX6.pX).7.G 6.).).).).6.0.C G G J pX_.5.J pX5.dX_.pX6.pX).6.J aXqXW.~.D 6.5.J pX8.D 8.3.D G J 7.tX'.J E.4.pXuX~.pXpX6.pXe.s.u.i.p.a.<X:XT.L.J.V.i A.G.A.F.Z q.@.g ).).).iX_.(.).G J J 6.F J J ).).J ).pX(.pXpX`.).6.H pXJ (.5.6.).pXJ J 6.J ).pX(.J 6._.H G J pX).).fXE.(.J J pX(.).`.`.J 5.2.*.z M gX*.b C H J 5.J (.5.6.A (.J 5.6.J 9.:.m zXyXY.!.).gX{.`.).!.8.fXB R.pX).J J pXjXxXlXCXNXp.BXBXBXNX^ /.P.% w e V.e L.hXuXsX_.).J J J 6.7.G (.pXJ H J 6.pXJ H ).5.7.5.5.6.8.H 6.).pXiX(.6.H J J pXJ ).pX6.).J 5.J J ).).pXJ 6.`._.pX6.6.).pX`.J J 6.5.J ).7.G D 7.J 7.sX`.(.).).pX).5.J gXrX(.6.G 5.5.5.J J 6.pXJ uX(.6.6.pX).iXH 5.).).J pX).hX{.~.(.G fXmXCXi.u.u.i.a.%.w Z.V.V.F.J 6.).).).gX0XH ).pX(.J 6.J J pXD J pXJ J ).J 5.aX/.`.6.6.J pX^.).J gXbX_.6.J ).pX).).6.6.J ).J ).).5.J 7.7.pX).4.K 6.J 6.).).pX6.).pXJ D sXpXJ 6.J pXD 7.",
"J 5.`.gXpX).).pX3.L pXsX).6.6.D J 8.A 3.F 6.J 6.J J ).6.).6.5.7.J pXgXzXy.s.BXmXNXNXmXCXz.B.C.C.V.& V /.Z J dX~.H 5.G F 7.pX).pXpXpXpXpX8.uX,.$.m 5.5.C G J 6.6.pXpX8.D 5.5.J D D pX6.pX6.~.sXpXJ ).).pX6.5.G F J pX).6.aX^.^.pX6.(.6.8.9.C K ).H ).J ).6.3.D ).6.5.).pX6.6.6.J  X`.pXJ J ).).6.gX~.dX/.`.uXG J J pXpXD pX).pX6.6.6.pX).MXs.i.i.mXmX<X:XT.L.L.V.G.G.i C.w >.kXeXL.Z ).).).(.(.pX^.J pX6.(.).J J 6.J ).pX).G ).).pX`.).pX`.).pX`.).7.D H pX).J pX3.2.~.(.J `.).).).).).`.sX`.`.pXA S ).pX1.f V yXyXT.`.qXh Y.`.7.*.Z pX(.uX].).aX<.J J gXwXY.aX{.]._.8.N Z pX^.4.C sX`.B pX`.pX(.).gXlXxXCXNXCXi.BXi.u.<X/.P.% w C.w B.g 7.J pX(.J 6.7.F ).aX^.Z 3.J H D G J 6.H 5.5.5.6.).pXpX).6.J pX).5.6.D J G J J J pXpXJ 6.6.J H ).J 6.5.J J G 5.6.).J ).).pXD D ).(.H aX`.).).pXaX).).`.(.6.pX6.7.F 8.Z F 7.(.5.J 6.J 5.J 6.pX5.G G 5.5.J J ).J J J J pX).H J ).).!.jXs.t.u.NXu.i.s.$.y Z.V.Z.J.pXpXG F ).sXiX).J 6.).5.J 6.J pX`.).6.6.6.5.J 6.H J 7.6.).uXJ J J sX6.H J 6.J J 6.).).pXpX).6.D J 5.6.5.G 6.^.pXaX).5.C H 5.G 6.6.D 6.).J D 6.pX6.D ).dXpX",
"dXJ J 9.pX).).J jX'.G J 5.J pX`.J pXiXJ ^.J 6.5.J (.J 6.5.7.J pX).).gXzXmXu.i.t.NXNXCX^ ; B.C.C.A.% g `.6.F (.`.5.J J H 6.6.5.D pX6.6.7.>.A yX|._.J pXuX).J 6.).pX6.dXpX^.pX).pXJ 5.7.J `.).6.`.pXJ F 7.4.sX`.`.D 5.6.J 7.J ).sX`.).6.aXgXhXZ J (.7.J 5.2.^._.6.5.).6.6.pXpXpXJ 5.4.J ^.pX).6.6.).pX6.8.F pXsX(.pXJ 6.6.J J 5.6.5.6.6.F lXAXu.i.i.i./ Q T.g a C.A.G.G.C.w yXnXxXL.!.).).).(.).).pXJ ).sX(.J 6.H ).(.).pX8.S F J G J 7.D J 3.F pX5.^.[.`.(.6.H pXgX'._.pXH ).J J J G G F J J 5.fXE.H J 5.iXXX].{.{.iXK yX X`.`.gX0Xm J _.sX7.F 6./.`.).J [.[.sX[.(.).pX/._.`.sX[.hXJ sXT.`.`.pX).).gXxXd.a.i.CXSXu.i.t.( aXL.y C.V.w y a G J J J J G pX(.J 6.sXD J H J D J J 5.F G 6.6.G 5.G 7.J pXJ J 6.5.(.`.6.D ).6.J 5.G ).).pXpXH J G J pX).).7.D (.aXpX).J 6.pX_.).pXJ 6.J ).7.5.pXpX).).pXJ J pXsXpX9.Z J J J ).5.J pXJ J 5.6.6.).J 6.D J J 6.J 6.6.S J J J J J H !.9.1Xu.u.u.NXBXs.$.B.e V.B.a 6.).dXS H 6.6.pXJ ).pX6.J 6.6.C J 5.J 6.pXpX).pXD J 6.D S pX).`.(.).pXpX8.G ).5.J J 6.7.J pX).pXpXG J aX6.H 6.7.7.2.6._.J pX6.5.4.J D 6.).6.D 6.6.~.J 6.uX",
"aXuXJ dXpX`.).J J 6.uXS 6.G 5.C 6.pXpX`.).pX5.`.7.v G D 6.).).pX6.D aXzXVXCXi.u.u.BXa.^ P.B.C.C.w C.g C 2.H F G 8.A ).H 6.7.8.K 5.7.6.pXjX~.H 7.sXpXJ ).).pX6.J 7.J 6.pX).6.(.).pXpXpX(.J 5.J 5.5.).5.6./.pX(.6.sXpXpX7.5.H J J J pXJ pXsXdX8.Z J pX).9.E.~.G 6.pX5.pXpX).6.).pX`.sX^.).7.J 6.6.5.J 7.,.B 6.).).J 6.6.).pX7.D 6.J pX6.).q.qXt.BXa.i.( - T.L.& C.A.G.G.A.G.Z jXPXU.Z J (.(.J J J 6.).(.pXpXS (._.pX).J 5.pXJ F 6.6.J ).uXJ aXH J sX`.J sX).pX`.pXsX).J ^.`.).pXJ pX).sX(.G J <.!.sX`.(.sX).pXJ J 5.6.`.G G D 6.J jXQ.!.H 7./.`.`.`.pXpX`.).5.J ).J ).pXJ (.6.J H ^.hX]._.).pX).).).aXxXBXa.i.ZXBXu.i./ ^ D g B.V.e e j.L.n J J J 6.G (.).J 5.5.pX(.pXS (.J 5.7.A G J 6.5.pX).J 5.5.pX).pXsXH G pX^.5.J 6.7.~.J 5.6.6.6.J 6.J ).).6.6.pXG 5.G 6.6.(.`.).5.6.6.6.J J 6.sX).pX).J 5.6.5.G 5.7.dX/.~.`.6.5.8.!.W.xXJ pXpX7.>.K 5.pX).D D H pXpXV H 6.J J H D Z 9.CXCXu.u.NXu.a.@.B.Z.w e J.pXJ pX`.(.J pX6.).5.5.pXpX^.dXrX~.).).pXJ ).6.7.).(.pXsX(.6.J J J 5.5.6.dXN v G H 7.J ).).J pXJ pXsXJ pXsXJ D ).aXrX'.6.D G 5.J `.`.`.pX^.dX(.6.4.D 5.6.H ",
"J 7.A 7.6.H 8.3.D ).pX(.7.pX<.S J J J ).6.6.).J w.,.B ).).pX4.G 6.).uXjXVXCXNXNXu.i.CX^ h y C.C.w F.}.h g L 2.K 4.'.).J J aXdX_.pX6.7.5.7.uXS 6.6.6.6.).J 5.6.6.6.J 6.6.pX).J G ).pXpX6.5.J 6.6.J G 5.).J 6.J J G 5.7.pXsX(.J 8.>.H 6.J 6.:.C T.).pX6.sX^.6.J H 6.pXJ J pXpX).).J pX).6.6.D J 6.6.pX6.yXR.6.J 5.6.).6.G J uX).6.pX6.).).%.a.BXi.mXCX1X>X].Y.% C.G.A.G.r F.^.).(.hX/.^.(.J J ).).).`.).pX6.J H J 7.G J pX(.sX^.).`.`.).6.).).`.1.f Z 6.F ).sX`.pX`.).).).J J ).).).pX6.D _.(.iX(.pX`.).J pX).pX6.J ).J ).J ).).).).hXsXJ ).(.J J 2.G pX6.6.pX_.).`.6.J `.).).pX^.~.Z uX4.K 6.J ).).sXgXVXCXi.t.NXmXp.s.<XB h B.w w h.P.cXS G ).J 6.6.F J J 6.).pXG _.sX5.G 3.4.^.J D 6.6.H pXpX6.J J 6.J 7.7.A H 6.J ).J pXH 6.6.pX6.J J (.).5.5.J J 6.pX).).J `.D G 7.J ).uX).J J J J pX6.(.pX7.pXpXpX6.5.J 7.L C 8.).).}.A e.dXJ J gX0XR.5.D ).7.J J F pX`.J 7.J ).K H Z 9.a.t.i.NXi.u.a.Q B.C.w B.a pX).).H ).6.J pXJ 6.J J ).).J ).).).6.pX).6.6.).).pXJ ).pX6.7.C H (.pX6.7.%.R.{.D D ).J 6.G F 7.F G 6.5.G pXD 5.2.Z 6.pX^.pXpXJ 5.G 5.5.C 2.5.6.^.uX6.G F ",
"D 7.).6.sXuXpX/.J G J 6.4.J `.sXJ J J ).aX6.7.5.pXbX/.5.G 5.pXJ J J ^.7.MX1Xi.i.u.i.CXmXz.B.C.w Z.I. XbXXXfXB /._.D G ).J J sXD 3.2.D 6.J J J 6.pXpXpXJ 6.6.J 5.J pX6.6.G pXpX4.G 7.3.D 6.D ).pX6.).^.J J 6.pXpXpX6.J ).).pX).dXyXH 6.J 9.zX].!.G 6.pXpX7.G J G G J aXJ J 7.J J J J 6.7.5.5.D 6.5.G 6.).pXaXV H J 5.7.^.).6.6.).pXpX5.5.p.CXu.NXi.CXy.qXyX~.h.V.G.A.G.A.u H J H J pX(.J J ).J D H ).pXsXe.f Z ).sX`.J J J H 6.G J 6.pX).).pXJ gXyXR.uXuXF J J ).6.J J J ).J J pXJ J uX/.(.G G J G J 5.D 5.5.G `.sX`.).).(.H ).J J J aX).).J 5.0.>.B pXpX6.).).J J dX~.J ).J ).{.^.`.(.fX^.).J J ).).gXd.CXNXs.NXu.BXNX<XP.h B.C.Z.F.G G pX(.5.3.N ).(.D J ).pXpXpXF 5.pX).uXpXD ).pX5.6.D G 5.J pX6.5.).8.H pXS ).6.(.aX3.K G 6.6.6.6.J G D 7.J 6.5.).).pXJ ).J pXJ G G G J 7.J J 5.J 7.5.F 6.6.J J J dXpX).8._.(.6.5.>.d ;.0.6.6.).6.`.6.).pXJ :.f J 2.F J 6.J J G (.S H 9.a.t.u.u.NXu.CXz.y w w V.u 6.).pX).5.).pX5.).sX6.G ).pXpX6.J J 6.J J pXpXpXJ ).pXG J 6.pX{._.).5.7.6.yX].6.dX(.6.5.G `.`.).sXpX6.fX^.J _.fXiX~.pXpXJ 6.sX6.D ).).aX#.M M D _.sXdX8.F ",
"pXpX6.J J 9.<.H dX`.J 3.`.6.5.J 6.J G C 5.sXaXpX).G J fXD J ).).).(.7.7.y./ t.u.u.i.a.t.; B.C.V.F.n 7.5.G gXh Z pXpX_.).9.S 6.^.dXsX).6.`.pX(.6.).pXpX6.pXpX6.7.F G pX4.6.H 6.).pX6.iX_.pX).D 6.6.H 5.J (.6.).).pXpXpX5.F 6.5.J 5.aX;.b 0.6.].(.6.H pXpXsXdXJ ).J F 6.D D 6.).).).6.5.6.pX6.).J pX6.J 6.J 6.sX5.J 6.J pX7.3.J G 5.6.J 7.CXmXu.NXu.s.t.0XfXL.j.t G.A.G.A.F.~.).).H `.).).).).J ).J F F pXkXU.Z J ).6.pX/._.3.C J A G ).J 6.).uX).pXJ H sXuXJ ).J pX).uX~.).).J pX6.J ).).).sX`.J ).6.^._.).dXV D J pXJ J J J J 6.6.5.J pX).).7.gX].].J 7.pX).J ).(.).sXJ ).6.Z <.V H ).pX).J J H J pXgXMXa.u.NXNXmXBXNX<XqXz.y w e u V '.5.>.V E.hXZ `.).J 5.J 6.pX).J 6.2.K ).iXD 5.J 6.(.5.5.G J 6.J 5.pX).5._.J pXD 5.dXD H J 6.6.6.6.D F 5.J 5.(.).5.J 6.J J ).pX6.6.J 2.C J 5.J G G sX3.G 6.J 7.D 5.^.pXsX!.pXaXpXgX'.H pX6.D J 7.J ).J 5.6.y.W f >.m J 6.8.F J H F !.q.s.a.NXu.u.u.a.z.B.e V.V.e K 6.J J pXJ 6.).).6.pX_.).pXpXpXJ ).J 6.J J J 6.J J aX).).J ).6.D 7.6.pX).(.pX5.G 6.5.4.V S ).pXJ 6.pXpX).`.J 5./.pX5.6.6.J 5.4.~.4.H e.$.=XXXR.4.D ).jX{.",
"pXpXfXH 6.dXyXS 5.5.5.E.).gX~.`.pXD J uX4.G 7.J 6.).).6.).J 7.2.K S 9.6.BX/ i.u.a.i.s.t.l.B.w V.F.].7.4.S 7.0XB pXH H 7.6.(.5.G 5.pX7.).G D ).pXJ 6.pX7.G 5.5.9.<.L 6.5.6.3.D ).pX).pX6.5.6.G 5.6.5.D ).J 6.J J 7.G 5.uX~.J pXJ 5.8.SXB B `.H D ).(.G 5.5.pXsXpX6.J 6.^.6.J ).J 6.6.5.J J pXpXJ J sX).pX5.J 8.3.H 6.6.J aX^.pXfXS ).pXpXAX1Xi.u.t.s.<XQ 1.P.& V.G.A.G.A.a (.).J 5.C C J ).).pX).).uXH 5.J pX(.J 7.6.(.(.6.q.Y._.pXH G J ).).`.pXsXpX!.6.).J ).J 6.).).).).pXJ J uX_.).pXS ).pX`.).sX`.).pXsXuXJ D J ).).J (.).).6.pXJ 6.`.pXsXhX{.J 5.3.(.pX).).6.H ).).).).^._.{.(.J J pX6.).J J 6.hXVX/ NXNXBXmXNXu.^ <.Y.y C.e F.!.pX,.h {.).pX^.J 5.5.J 6.J J J J 5././.J 7.7.6.J 6.).6.6.uXJ 5.6.6.6.).^.(.J 6.6.J 7.^.).).J 6.6.).pX7.6.J (.).5.pXJ J ).).).aX0.v -.5.(.(.).pXpXH 7.4.G 5.J pX).`.pX7.).J J 6.pX).).J 5.).sX6.6.D 5.6.(.8.lX0XP.XXB b L sX^.J J Z !.lXCXNXNXNXu.BXCXh B.Z.w e Z.R.J J J J 5.6.).pXpXsX6.G J 6.6.(.J J 6.J 6.6.J ).6.6.6.3.F 6.6.6.J ).).sX6.G aX^.pXuX`.^.(.5.5.5.D 6.6.(.J pX^.(.7.6.pX).pXpX`.`.pX2.qXI.].{.].fXpXG G pX",
"pX6.pXpX6.6.J 6.J 4.E.(.6.pX^.6.6.pX>.b 6.uX6.).uXJ 5.5.J G 5.tXB F 6.sXMX2XNXu.t.u.a.VXL.y C.C.% M aXpXuX^.hXZ J ).J 5.6.6.8.J J 5.5.6.6.S H 6.6.6.6.pXpXpXpXsXyX`.6.uX).fXS J J pXpX6.5.5.uXJ J sX^.).J J J 6.aXpXJ (.pXJ 5.6.6.pXhXvX{.(.).H J 5.5.6.sX3.C D sXJ (.^.aX).J 6.6.5.6.J J 5.pX).7.5.3.G sX5.6./.(.7.J D 6.pX6.pXpXJ pXJ kX1Xu.NXmXa.^ : M Q & V.G.A.A.A.F.S 5.,.B yXR.(.).).).).).).).6.`._.J H sX`.`.).pX,.B J sXfX>.B sX).C J pX`.).).).).).).pX).).).J ).).).).).J pX^.J ).J J H 6.5.G 5.pX).sX).).).sXJ H pX).).pX(.).pXpXJ pXsXsXsX(.pXG J 2.!.).).pX`.(.(.J ).J J J pX).4.(.pX5.e.1Xu.NXu.u.BXu.<XV n % w V.& !.8.%.j L J 5.J J J J 5.J 6.J 6.J 6.S 5.G 6.6.J G J J 6.).6.6.6.5.7.(.).6.G 6.J 6.J 8.A H 6.J 6.).(.pX).pXD J 5.).J pX^.J J G 5.w.0.c L Z (.2.H sXpX5.pXJ J J J 6.J 6.6.J G J 5.J 6.J 5.pXJ 6.6.6.J J ).uX9.e.R.XXXXqXP.T.5.6.J ).H L kXCXt.i.NXNXi.t.P.V.e V.e F.(.6.J J 6.).pXJ J 6.J 9.N F J pXJ J G J J J uX).J 5.G 6.iX^.D pXuXJ H J 5.pXJ J uX6.J ^.).7.5.J 6.H ).pXJ J ).pX5.6.J 5.G 5.G 8.C 5.fXyXQ.Z D 5.7.6.pXF J ",
"7.5.5.6.5.pXD ^.`.[.`.6.6.5.5.5.6.5.jXtXz S pXJ D 6.).7.5.J J pXuXS J ).y.2XBXNXu.NXCXmXP.Z.C.A.h.- L H `.J J ).H J J pX4.(.dX^.pXuXJ J `.[.pX).pXpX6.J pX6.6.J J 6.J ).pXpX`.J 6.G 7.J aX`.(.aXD H pXpX6.6.J J 5.6.J G J 6.6.6.J pX).5.7.(.).^.J 6.uX).pXgXiX(.5.^.`.6.6.6.5.6.J pX6.J J J J 5.8.4.sX(.5.6.J J 6.pXpX6.G 5.5.J 5.J 6.J 7.y.NXi.mXCX^ c.V Q j.V.G.G.G.A.J.w.N cXT.sX{.).).).).).pX).).sX(.4.D (.H ).6.6.7.qXY.J J uXyX].).dXE.!.pX).pXJ J J 6.5.J ).J ).pXH J J ).).).(.).J J ).sX(.pXpXsX).).J ).pXJ J 6.^.H ).pX).6._.pX).).sX).).7.).).7.V 4.:.M G J 3.H ).(.J J J J J J J `.(.sX,.:.1XBXNXNXNXNXNXmX$.g e w y u >.#.W.Q.b 9 M J J J 6.J J 5.5.J J ).J ).`.6.pXpX).J 5.J J 5.6.J pXpXJ 6.pX(.5.).pX).aX~.(.pXpX6.).J J 6.7.J 5.H pX6.H 5.J 5.J 7.gXzX7.L m >.2.Z 6.aX^.6.J G J ).).pX5.6.pXpX7.A (.pXpXJ 5.G 6.6.D 6.J G J 9.0XW.`.pXjXbXz M 7.J J J Z 1.CXCXi.u.mXi.a.h y Z.V.Z.u G J ).J J J J ).).6.5.pX{.^.).pX).pXuX^.pX).J pX).6.J J G pX_.).sXpXH 6.7.G pXJ 6.J J F 6.sX`.6.pX).D pXuXJ F 5.pXpXsXpXpXpX).sXsX(.`.J pX5.K H aXpXpX4.S ",
"6.6.J 6.pX6.pXC G J 6.pX6.6.6.5.J sX`.xXwX~.7.6.6.G 7.7.).).pXJ 6.J H <.p.mXmXBXmXNXa.^ - B.G.e F.P.'.(.6.^.(.6.H J J D iXJ 6.pX7.J aXA C C J pX5.5.).sX6.sX8.A J 6.6.D 5.J 6.D pXJ J ).6.uXJ pXdX~.G 5.5.5.G 5.7.5.D ).J 6.6.6.6.H 6.6.).(.).6.7.D ).6.6.6.`.pX<.M G 6.6.6.).pX6.J 6.G J 5.1.N J H 6.7.7.4.).J J J 6.pXpX7.J 6.J 5.~.iXgXi.mXu.u.ZX<X$.1.; F.e G.G.G.V.J.jXXX`.(.pXH ).).).).).pX).G G G uX~.(.).5.).`.aX{._.sX`.(.).).J J ).).J _.6.pXJ J ).sX).J ).).sX).J ).).).).).J pX^.F ).).).).pXJ pXpX^.pX).`.).).).).6.6.).G H ).).pX6.6.gXH J 6.^.dXAXh ~.)./.(.).).pXJ J J ).).).).H 7.#.z VXNXu.u.NXmXNX^ P.T.y e V.e f P.}.jXbXP.Y.H J J pXJ J 6.pX5.F G G G 5.5.6.(.).).pXJ 6.D 6.J J 6.J J ).pXJ J J J pX`.J J 7.J 6.pXJ J 7.4._.).G 5.5.G J D ).7.8.zXgXT.N ;.j L C 6.`.sX6.G H 5.C 2.G J J pXpXuXF J sXaX4.(.6.).uX^.pX`.6.J `.H 5.G J kXQ.R.4.D J (.K 9.a.a.BXNXt.i.s.; y C.Z.V.u S J J ).J 5.J ).7.G 5.H 6.6.J 6.J ).).J 6.G J 6.J sX).J (.(.J 7.6.6.).J aX/.5.J 6.J J J G J 6.pX).6.6.J 6.pXD J 6.5.6.pXpXpX).6.sX5.3.G 5.^.`.J 5.6.7.J A ",
"D ).pX6.J sX9.1.R.C G 5.5.5.J 7.F J 7.6.^.6.6.).pX).).7.J J 5.7.J (.H 9.MXt.t.BXu.t.u.^ - V.C.C.u L ).).`.^.J J J J J D G 7.6.F aX).pXsXfX~.C G 6.(.J 6.6.6.aX/.J 6.6.(.pX).6.).5.6.H 6.J ).6.pX).pXpXpXpXpXD J 6.uX(.6.J J 6.).`.).pXpXD F 5.G `.`.J ).6.6.5.J $.E.J J pXpXJ J pXpX7.).).pXhX{.pXpXG 5.6.J G J 6.6.J 6.6.pX).aXA D G 2.0.t.u.u.i.s.1XqX0Xz.F.V.G.A.G.w Y.J 6.J J (.`.(.J ).).).pXpXpX`.).pX6.F J pXJ J 6.).).).).).6.D 5.J ).6._.).pX).`.`.).pX).).).J J ).J ).).).).).).).aX(.H J J J 6.).).).4.J ).).sX).(.pXJ pXJ /.(.J 5.J pXJ dX/.J ).`._.lX0XY.`.).pXH H ).).).).J J 6.J (.zX%.m p.NXNXmXi.mXu.! h h % V.w V.u J.4.3._._.pXJ J J 5.6.J J 7.pX_.pXJ 4.K J 6.J G 5.5.J 6.).6.J J ).pX).J 6.6.J G G J ).J J 6.J J J pX4.J /.J 5.7.H pX^.pX(.J 9.0.8.aX!.0.aXL j H H J pX9.G -.=.=.L J G G 5.J 6.J G G pXsXJ pX).6.5.J 5.4.(.5.4.D J D (.).6.G G J G Z 7.mXu.i.u.CXi.a.U.B.V.w e J.sX6.G J pX).J J 7.V H J 6.).6.pXJ G 6.6.5.5.F 5.D J 8.(.(.5.5.pXpXpXG 6.J 5.6.pXJ 7.G J J J ).pX6.5.`.6.6.6.pXJ 5.J J ).6.J 6.).pXuXhXiX/.(.5.).7.D sXsXiX",
"iX4.G pXpXJ zXh S `.5.D pX6.2.>.Z G 5.5.J 6.).).6.6.<.D ).D 5.6.J J J w.MX/ i.p.i.CXt.a.J.y C.C.e n pXJ ).).5.A D ).pXpX5.5.6.).J 6.(.sXsXpXfXS 5.D 6.6.6.pXpXpX0.[ M ^.6.6.6.J J sX).G H 6.6.J 6.J J 6.7.5.pX6.D ).).sXsX).pX6.7.G 5.).iXsXpX_.G 5.J J 5.7.J ).sX6.^.).5.D 6.6.5.5.6.6.G pX5.5.5.5.6.pX).6.pXJ J 6.J 6.pX5.5.3.(.6.6.).qXt.NXu.BXs.1X%.rXz.J.V.G.G.G.F.g 6.G (.`.(.J J ).).).).).).).).).pXsX{.^.6.pXJ 6.H (.pX).).pX7.A H D J H ).6.J ).pXJ 6.J ).J 7.(.5.J (.).).J J J J 5._.).(.).).).pXJ 6.uX).J H ).).J 6.).).uX(.pX).).).6.J J ).pX(.(.7.kXXX!.G G pX4.S D G J ).).).).).F 8.IXIXa.NXu.u.BXt.s.<XP.P.h.e w e J.E.K [.J J H J J 5.).6.6.J pX).pXpX2.C J J 5.J G 5.5.5.H pXpXJ pXJ J 6.5.J 6.6.J ).J J 5.6.J J 6.J J sX(.J pXpXpXH 6.6.5.J 6.w.8.pX).).e.C ).m j K G 6.9.5.9.8.F Y.G 2.F J pX7.H pX2.L 8.6.5.G J pX5.J ^.pXJ uX(.5.^.).J 8.V (.J J Z 8.t.t.BXNXa.mXs.rXZ.w w Z.a 6.pX).H ).pX7.(.pXhX).J J J pX6.).0.b uX6.7.J F F J pXS ,.l M 5.J pX^.D pXuX(.pXpX8.~.D D J G 6.dX^.J 6.6.(.pXpXpXJ J 5.J ).).pX6.J 6.`.`.8.D J 7.~.J sXpX",
"5.fXpXD J J 9.0XY.pXuX).pXsXfX{._.6.5.6.F J 7.G J 7.dX(.J 6.J 5.J (.J 9.MX1Xt.i.BXs.a.mXJ.B.C.w Z.a M J J 5.>.R.pXJ J 5.5.5.).).pX6.G 5.6.6.6.5.G J J 6.6.6.7.J lXp.d S aXpXpXpX8.K pXpX(.5.).6.6.pX6.J pXpX5.D (.J G G G J 7.J ).iX`.).2.F `.).gX-.L 7.5.5.G F 8._.(.7.uX).J 6.pXpXpX7.S 6.pXsX6.J ).pX>.S (.pX5.J 6.J pX6.7.uX(.6.pXJ lXa.y.u.u.a.s.%.E.;XJ.e G.A.A.A.e 6.,.m ).).).).J ).).J ).).).J J 7.H H pX).).sXpX`.(.5.J 6.J fXE.`.).pXJ J 6.(.H ).pXpX).).pX`.).pX(.).J J ).).).).`.`.pX<.M 5.F pX).sX).).).(.pXrX(.).`.).`.`.pXpX5.D `.hXsX).pXJ F 7./.^.).sX/.).sX(.).uXH J D H pX(.e.[ l %.CXBXu.i.i.a.CX<XV Y.B.w w y J. XL.J pX^.8.G G J J 5.J J J 6.A 0.@.d L 5.J pX6.6.7.~.(.J 6.6.J 6.G 6.).6.5.J J D 6.5.J 6.J 5.G pXJ G 5.J G 6.sXD D 6.pX).5.zXpXJ ).,.:.Y.].hXK M N J gX[.hXjX^.Y.7.7.Z H 6.sX(.9.@.n D `.sXsXJ 5.8.S 5.J ).J pX<.K 3.J pX/.J J J Z pXmXCXBXu.mXCXa.h B.V.C.B.J.6.pX).).J 6.uX(.pXJ aX2.J (.pXpXJ lXR.!.dXaX6.J F F J #.O.B T.Z J J 7.4.H 7.D J pXiX`.dXD J G G G 6.6.5.J ).5.J 6.6.J 5.).).6.J pX^.).J 5.dX(.J 6.J G C 3.",
"sXpX`.).0.N 7.rX!.6.J 7.5.6.pX).J aX4.H uXS aX).5.J sXpX1.M ).6.).H pXzXy.CXa.BXi.CXZX<X& B.C.w C.u g D G 8.'.~.J ).J 9.N Z 5.5.G 6.uX(.pX6.7.8.Z (.5.5.J 5.pXpXkXZXY.j G J pX7.dX_.G `.`.pXJ J ).pXpX6.6.pXuX_.6.pX6.J ).5.7.(.J 6.6.6.tXZ G F gXzXb x C 7.H J pX_.6.J ).6.6.5.7.5.D pX^.J 6.7.6.(.6.7.rX~.6.>.A J uX).7.7.5.J J 5.7.G e.t.u.NXNXa.) >.~.;Xg V.G.A.A.A.w b yXR.Z ).).).).(.6.6.).J ).).).sX^.!.).pXJ 5.6.H ).6.J J ).6.J J ).).`.`.).).pXJ J ).).).).J ).pX(.H ).J J J J J J J 5.fX<.F F F G J pX).).J G ).pX~.J J J G 6.pXsX^.(.pXpXpXpX(.).pX).^.(.J pX).pX(.).`.pXA /.(.).(.y.,.L ;.a.u.u.NXu.NXa.<Xh n h.w w Z.g Y.Q.J J 6.fXS D H ).).pXJ J 7.@.{ I.}.'.).).6.6.6.)._.6.J 5.J 6.6.J J J 7.6.6.G H J J J 6.8.4.~.6.7.5.G 5.G F 5.uX(.J J 6.7.aXjXaX3.e.cXT.H `.hXW.'.D pX7.2.w.).!.9.C H V D J G 7.0XR.sXH 7.5.6.6.pXJ 6.D J J 6.iXuX^.A 3.G J ).).F S mXt.i.u.u.BXZXl.y w V.B.g 6.J ).).).).pXJ 5.).aXq.n 8.C ).5.dX{.J pXdXaX).)._.8.VXR.}. X(.G G pX`.J 7.D J 5.G 5.).`.pX).6.A H 6.pX(.pXpXpX).).8.F H J 7.G ).6.5.2.F 6.6.J 7.J J 6.).",
"5.pXpX6.fXQ.6./.uXG 6.6.).pX4.C F 6.dX4.V H 6.6.).J D 6.tXW.J ).J J !.zXBXa.CXBXBXNXCX<X& B.C.C.e w L.pX).`.`.J H J 6.7.cXZ 5.^.).J ).6.5.6.7.hX/.J pXpX6.6.J 6.dXDXU.L.4.K 7.6.6.:.b v *.D sXJ G 5.6.5.5.J pX6.4.(.pX6.D 6.pX5.C J 6.J pXpX).F 7.xXw.L m F H J ^.J J ).6.5.7.J pXsX`.pX6.J 6.pX).pX6.`.).pX<.{ @.B J 7.6.pX5.J 6.5.).9.p.mXi.MXmXCX! Y./.Q & V.G.A.G.A.a a T.hX(.J J ).).J ).6.(.).J J ).pX`.!.5.5.pX7._.`.J ).pXJ J sX`.).).5.C J 5.J ).sXJ J J J J ).J ).`.(.).6.^.^.).pX).`.).6.dX[.5.C ~.).)._.pX`.`.).).J J ).pX<.Z ).`.pXJ J J 6.pX(.).).^.J J J J 6.pXD D D J _.).).J 2.d.hXH :.p.ZXNXNXNXNXCX^ Q g B.w V.y L.R.G ).).6.sX7.!.).J 5.J 6.J 7.kXU.W.).).).J 6.6.pX).G 5.5.7.*.Z pX6.G 6.3.D 6.J H 6.6.J J J [.).5.6.J J J `.6.D J J 5.5.J 7.6.7.9.9.aX6.Z ]._.{.].5.J J 9.8.0.].!.9.H Z F H pXpXH sX(.J 6.pX).).pXpX(.6.D J 5.3.H 6.`.iXE.).).J 5.!.^.p.i.i.NXi.i.a.z.y w w B.a 7.J ).J ).).pX7.J ).pXhX,.l n F pX).H 6.6.pXdXsX`.A w.W.].7.5.9.V ).).6.6.pX).J ).).).J G 5.J aXrXJ 5.2.H J pX).pXpXtX~.J ).aX).J J fXE.J A 4.J 7.6.J 2.K ",
"5.5.5.5.J pXsXJ 6.`.6.`.).6.dXaXJ G 5.aX/.G 5.7.G J 6.7.D ).pXpX).H !.gXSX1Xa.NXi.i.a.^ & B.C.C.F.j.L.).).J 5.J (.J 6.6.pX`.`.).7.6.G 5.6.5.pXD pX).5.7.6.).pX).).yX|.'.dX<.V D 8.qXU.0X%.g G 5.7.J J pXpX(.D ).`.).pXpX).5.5.8.G Z J 9.*.Z 5.J ).zXlXH Z Z F H J 7.J J pXpX).pX6.pX).6.pX).pX6.5.5.J J 7.G tX@.@.g J 6.J 6.sX).6.).).w.i.CXi.i.i.a.,XY._.0Xj.V.G.A.G.C.H.T.!.(.pX).(.J 6.(.).pX(.pX).).(.sX(.7.5.).).sX`.J `.6.D pXH J pX).6.9.h F J ^.6.6.pXJ ).).(.).).(.).J 7.J _.pX).uX/.).pXsX>.>.,.h !.pX).J 6.(.).pX8.V (.).pXhX^.G 5.3.J ).J ).`.`.^.).J ).).6.3.K ^.iX(.).5.N J J 9.:.;.5.0.d.y.NXt.p.BXNXNX<X;Xg y V.V.Z.D._.J J 5.J pXsX!.5.).pX6.J 3.A ).^.D ).J 5.G 5.J 5.C J G ).:.@.!.3.5.A (.sX).pX`.J G J ).aXG F 6.5.pXpXJ (.7.6.).J J 2.Z ).pXaX8.9.dX{.xXY.T.[.~.J pX).pXgXgX{.W.9.9.Z 5.C L J pX6.J J J J 6.6.J 6.5.6.5.D J 4.~.).5.5.F 5.J J J ).!.0.s.NXu.u.u.i./ ; B.C.V.V.u K J J J J ).pXpX_.6.pX7.jX|.{.B ).).6.J pX6.pX).gX1.].].J 6.J pX^.J pXpXpX6.).).J 6.5.pX).uX^.8.).pX0.E.!.6.5.J 6.pXsXiXJ J J pX6.D 5.`.sX`.uXpXpX6.J q.h ",
"6.7.^.^.).6.pXpX).6.pXJ pX).7.8.S pXpXJ ).7.D 6.).G 7.8.!.5.J ).pX(.S dXSX/ a.u.NXNXs.:Xj.y C.B.J.yX!.G 5.J `._.J J 6.pX6.5.F 5.pXpXpXJ 6.J pX).J 6.6.6.6.J 5.J J 5.5.7.7.iX_.6.)._.yXbXwXW.J 6.).).pX).pX6.4.H J 6.7.6.7.3.7.aXJ F G gXQ.H G J H zXe.~.Z Z H H 8.G 5.A 5.A 6.5.J pXJ 6.6.6.pXpXsXpXJ ).sXD ^.nXU.].pXpX7.5.6.6.6.J >.e.y.a.u.u.mXZX! n D h j.V.G.G.i A.p m Z J J H ).).).(.).`.J ).).).J G 0.N _._.`.pX).sXpXaX~.`.sXJ ).pX6.`.[._.^.G 5.D J `.pX).).).`.).).pX(.`.).J J ).).J J 8.1.W.XX{.J (.).(.`.^.J 6.sX'.).7.D ).pX`.sXrX(.).pX(.).6.J J ~.uX).5.uXrXV J 4.7.aXE.K 5.:.e.0.C 0.d.%.u.ZXBXi.u.CX<X:X- y w w % J.,.f L ).6.5.).J J J 6.pXpXrX~.6.6.(.(.6.pX6.J J 1.R.H `.7.MXR.6.uX6.4.Z 6.5.).7.N J D G ).sXH 5.J J pX^.D J ).).pX6.`._.5.6.sXgXfX4.Y.cX|.].J J ).pX).6.7.hX].uX9.9.L 5.G Z F 5.^.J ).6.5.5.6.J 6.pX`.aX^.D J J J 8.E.(.6.J J J D H q.a.t.u.u.a.i.CXz.y C.V.e F.'.J F J J ).pXsXuXpX6.pX).fX{.uXK J ).6.D 6.).J aXcX{.H J pXpXpX4.H 6.6.6.).).pX).6.).).6.6.5.uX).gXrX].7.G 5.G G G 6.3.).).6.5.5.6.).pX6.D 6.).pXpX_.`.sX",
"pX).).5.5.5.C J J ).pXpXD 5.8.fX^.D 5.G &.+.M J 7.G J dX(.6.).J 6.H Z 7.y./ a.i.i.u.a.! - B.A.Z.a sXsX(.rXZ J J 5.J J 6.pXpX).D 5.5.6.J 6.).J pX).5.J 6.pX5.6.).J 6.6.7.6.J 5.D J D G J G 7.4.(.pXpXpX6.6.6.D 6.H pX5.sXaX6.J 7.5.H ).5.5.5.J F H w.zX(.K Z H H aX6.;.@.l L 7.3.H 6.6.5.6.6.J J 6.4.(.J 6.pXD sXsXA J 5.9.H 6.pXpX0.;.#.f.NXu.i.i.s.:XJ.kXh & V.G.A.i C.H.T.R.H uXD H J ).).).).).).6.J pXpXsXQ.(.J 5.(.6.J ).sX`.F pX).J 6.).)._.`.pXpX).pXH ).).).J G J pX).).pXG G ).J J J 3.3.>. X].F J sX).pXJ ).6.J ).^.`.).sX/.J ^.pX).sX`.pXpX^.).pX`.`.pXJ pXpX(.`.[.pXD ^.`.uX^.7.zXxXjX8.6.xXMXu.u.NXNXu.ZX^ Q l.y w V.B.d :.g T.J 5.pX).J 5.J J 5.G 5.2.D pX(.J 7.J 6.).).fX_.(.6.5.yXQ.F ).sXsX(.5.6.F 8.E.(.7.J D 7.6.J 5.).J J 6.J pX6.J ).9.z H pX5.9.dXjXm L J pX9.>.Z 5.J 7.).).7.5.9.jX(.).8.L L C (.6.D J 6.J J pX6.J 5.6.).pX6.J G ).).G 5.5.G J J F q.eXCXi.u.u.NXa.; B.C.w B.a pXdXS J (.).6.J 6.6.7.J 6.pXJ aXE.).pXpXJ 5.5.J J J 6.).J J J pXsX).6.pXpX).J J 6.5.J 6.pXpXpXJ ).pX[.5.6.).6.6.8.,.O.M (.6.6.6.).pXJ 6.sXpXJ D 6.pX).J 6.",
"J J 7.J pXaXpXD G G 5.G pXJ pXpXsXpX7.:.#.#.P.J uX`.J 6.).).(.pX).^.H pXSX2Xa.NXt.i.s.p.- B.C.Z.g K ).J pX).J J J J J ).pXsX6.7.J 5.).5.8.C D G D pX6.J pXpX).6.6.5.7.pX6.J ).pX).6.).6.7.(.sXD G G 6.pX).aX6.G 2.C (.4.9.6.6.9.C !.6.sXaXC H ).2.0.zX8.K L L (.7.0.;.e.g n C ^.S J 6.6.6.).6.J 6.pX6.G J 6.pX5.6.`.6.6.pXpXpX2.-.:.:.#.p.i.NXNXmXa.^ g [.P.h.A.G.i A.r D.Q.pX_.0.N (.J (.).).J ).).pX(.J pX(.5.).J J ).pX).pXD pX_.).pXpX).)._.`.sXpX^.).aX>.K J ).pXJ H J ).J 6.pX_.J J ).aXsXgXB K 2.>.*.l K ).6.D ).`.).(.).6.J J pXJ 7.G F 5.6.).).).).J J pX6.C J ).J C 3.<.B pX).6.6.dXxXjXnXsXzXSXmXNXu.u.NXu.<X;X- y w w e g fX0XM 6.6.J ).pX6.).6.6.J 6.qX~.pX5.*.K J ).pX5.6.`.J J 7.G 5.^.J 5.(.6.6.6.<.R.).7.6.J J J pX6._.J 6.J J 6.J 5.J G zXP.Z 0.2.J J dX`.Y.).6.pXhXH 6.6.6.).J pX7.pXdXhX/.bX{.F Z Z sX).6.6.).5.5.J J J 6.2.D 6.pXJ G 7.3.V ).4.G H uX1.%.a.NXu.u.y.CX- B.F.Z.V.u (.6.`.).(.J 6.J 6.pX6.6.3.D 6.J ).J 6.pXpX8.D J J 6.D 5.J ).).J ).pX6.6.5.).).).6.J ).J J pX).).).8.C (.`.pXpXpXdXSXjXT.J 6.pXpXJ G 7.J J pXuXpXD pXpX6.J ",
"6.5.).J pX6.pXsXpX(.9.N D 5.5.5.8.5.uXxXDXQ.`.J (.pXpX6.J J J ).pXH '.7.zX2XmXs.s.d.a.p.- B.C.V.- h 5.J ).5.J pXJ J 5.J 6.6.aXpX).uX6.`.dX[.).pX8.N J 6.5.).7.D J pX).).aX`.7.G J 5.G 7.pXJ 5.pXpX).D 6.J J dX<.^.E.H 2.7.).8.9.{.!.7.J aXsXZ 5.9.`.jXcXcX].!.2.2.zXbXnXh d E.`.`.J ).pXpXJ pX).6.6.aX`.J J 6.8.D G 6.7.5.J 9.:.&.0.e.e.SXVXi.i.NXZX3Xl.H h h.C.G.G.w A.u z M -.;.T.H (.).).).).).6.).).).).J ).J J (._.6.J 6.^.).).J 6.J ).).J G J 6.5.J 7.jX~.J J ).pX(.).).J J ).).).).G J ).fX,.b 2.4.kXh !.pXuX^.).).`.(.J ).sX`.).pXpX/.^.(.`.).).pXpXpXJ 6.6.tXK J 6.tXB {.'.6.).<.'.pXjXcXbXnXnXAXCXNXu.u.NXNX<X:X& y w Z.e F.I.wXL.G J ).J 6.6.J 6.6.J ).[.).).kXkXm H J 5.6.(.7.J 7.7.6.J J G ^.(.J pXJ hX/.3.~.sX).6.6.J `.J 6.).6.J ).pX6.).6.uX'.).zX].gX^.`. X/.D pX).J pXD J 7.J D G 0.5.2.5.H F fX{.].J 5.G 6.7.3.5.6.J 6.J 7.rXS 6.J 7.A J hX/.5.^.pX!.E.xXBXu.u.i.t.d.mXz.B.Z.V.e F.pXJ J ).(.).pX6.J 6.pX6.iX).6.).J J J 6.pX/.`.J J 7.J pXJ J 6.J 5.5.D 6.pX).D ).pX).J ).5.G J ).7.gX'._.6.7.J 5.J hXbX].J J 2.C 6.pX).J J G J pX).6.5.pXpX",
"7.).J 6.>.A 5.6.pX,.f E.J pX).6.pXsX(.jX0XE.6.pXN J 7.6.J 6.F G 8.~.H pXw./ t.CXCXp.s.Q j.B.G.C.Z.& M H J `.).pX).).pXD 5.6.5.J 6.D `.pXJ pXpX6.7.'.H 5.J J sX).6.6.6.G D pXaX`.).6.5.H pXJ 5.J J 6.J J 6.J 5./.`.6.5.5.7.J 9.F H (.6.2.F sX6.!.hX`.dXgX[.`.-.-.L ^.{.lXqXL.M J 6.J G 6.pXpX6.6.6.6.6.6.7.D 6.pX`.J J 4.D G w.xXjXsXnXeXq.t.u.u.i.i.3XP.(.P.h.V.A.G.A.r J._.C :.L.].).(.).).J (.pX).).(.).aX>.Z sXD (.pX6.).).).).J pX).pXH 6.6.J 6.J ).).6.2.F sX(.).).).).J 6.D H ).pX).sX`.^.q.e.b j J 7.W.H pX`.sXpXJ J ).).J D 6.J pX_.`.pX).J J J 6.6.).).).).dX/.J ).sX{.J 5.J pX`.sX).`.dXcXbXnXmXs.NXNXu.u.s.^ ! j.y w w e I.H 6.fXS ).J J 5.6.J J 6.5.H 6.6.F gXnXY.(.6.J J G pX5.6.).`.`.uX`.J 6.5.J J J 5.^.J 5.7.J ).).6.5.J D pXpXG G J ).6.pX).F aX_.9.).!.(.sXdXG D ).pXiX5.8.J 5.0.-.2.2.Z ).;.j Z J 7.uXJ 5.aXrX(.pX6.5.6.D (.).6.5.3./.H G 9.E.J J H L 9.VXmXi.a.u.MX^ - V.V.V.B.a 5.6.J (.).J 6.pXpXJ 6.6.).pX5.G J J J J ).J 7.6.J 6.V J ).J J ).pXpX(.).).6.^.).pXpX).J aXJ J G 6._.).5.5.sXpXpXJ 5.C J J 7.@.j ~.pX).pX).pXpX5.5.5.5.K 6.",
"pX).pXpXrXD J 6.pXtXE.(.).pXpX6.6.).6.7.).6.J 6.rXF 5.6.J ).J J (.D F H r.f.a.u.ZXmXa.Q & B.C.C.V.Y.n 4.Z ).).pXpXJ pXpXD 5.6.J pX/.D pX6.5.5.7.pXJ J J 5.G G 5.6.J pXsX).).sX(.6.6.).).6.D pX).5.J pX).pX7.D (.6.7.7.7.J 7.0.C L Z dXfX!.`.hX(.6.dX6.9.F gX9.E.XXrXL w.jXhXB j J aX3.S 6.6.6.6.5.6.6.6.6.pX5.6.J J 6.J pXaXsXgXgXdXhXnXVXp.p.p.i.y.1XP.`.$.% A.G.G.G.C.L.0.R.|.].F ).).(.).).).).).pXJ J 7.yX!.gX<.n 6.pX).).J 6.).).pX).).pX).).pX).J ).e.N n J J J ).J J 5.J `.(.H ).).).`.9./.nXnXf 0 z Y.).(.J 7.6.6.`.).6.).uX).).pXJ J pXpX).).).pXJ ).).J ).).pX(.aX~.J pXuX(.J 5.).pX6.).).dXzXa.a.NXu.u.a.NX^ ! & B.V.w h.B J J ).).6.J J 6.J 6.J 3.4.S G 6.D J hXiXF 5.J 5.H 5.6.).6.J 5.G J 5.G 5.J J J 6.D D 6.J ).).J 6.6.).7.F 6.pX7.A J 6.J pX6.F 6.7.sXH F F 7.fXD A G 5.8.(.pXaXgXzX3.(.T.9.w.L m 5.C 5.J 7.J 5.J 5.6.).pX6.J 5.6.4.S J J 8.~.).pX(.J A 0.q.mXu.u.u.y.^ g V.V.V.Z.u D 7.K Z 6.5.6.6.6.6.6.pXpX6.9.V (.7.J J 8.>.H pXJ pXpX).J ).5.G ).pX6.).).pXJ 5.6.5.J J 6.pXJ 6.J H 7.6.J 5.5.pXpXaXuXS J q.wXL.^.6.J ).).6.6.6.6.pX`.(.6.",
"pX).6.6.pX9.z S pXpX).J 6.J 5.pX7.G 5.pX6.pXJ `.pX`.pXpX).pXJ G J J (.#.f.u.CXBXCXa.s.! & V.w w w g L.sX(.).G J 6.).5.pX7.6.6.J J 6.6.J 7.7.D 7.).sXpX6.6.6.H ).pX).5.7.J G 5.6.7.6.J J pX).).6.dX^.J J J aX~.).6.7.7.3.3.3.yXQ.].!.pXsXpX(.6.`.`.pXaXgX_._.nXW.pXhXhX%.V J !.Z M 6.uXH 6.pX).6.6.J 6.6.J 6.6.pXpX5.3.).6.pXgX9.gXsXsXgXVXu.u.u.y.p.( h pX$.% C.G.G.G.V.h $.}.`.iX_.).).).).).J ).).pX`.).).(.5.6.hX!.5.J J ).).).`.).pXpX).).).5.G (.).J kXXX'.).).(.pX).).`.).(.).).J ).5.J dX_.hXeXwXU.U.R.`.).pXpX7.H K 5.).).pX).).).`.).).).).).J pX`.J J ).).).).).J ).).).).9.-.Z ).7.).sX).).lXa.a.u.u.u.CXZX^ ;Xj.y V.V.Z.n J 5.H 5.J J J J ).pXpXuX(.pX).(.pX).5.6.pXG J ).).6.J 6.J 6.J pXD 6.`.J 6.D 6.5.).(.6.6.F G J 6.).6.7.D J 5.pX_.J 6.J G pX(.7.).aX(.pX<.K pXpX^.(.6.pXJ G 6.dXjXcX X(.dXlXZ m v D K J pX6.6.5.6.pXJ 7.J 5.4.J pX`.6.G pXJ J J pX`.pXaXlXMXt.NXu.BX/ g B.V.V.Z.F.).dX'.H G 7.J pXpXJ J J 6.6.pX{.J pXpXJ aXyX(.5.6.J J J ).pXpX).J 7.J ).J 6.6.5.6.pX).pXJ 6.D <.~.J J 6.6.pX`.6.6.6.fX(.7.gXnXW.5.pX).J 6.6.pX6.J pX5.G J ",
"J 3.5.6.J gX0XZ 7.pX6.G J J 6.7.0.K J pXpXpXpX).pXJ 6.6.5.G 6.D ~.^.6.s.y.BXCXu.a.CXa.>Xj.e G.C.V.L.!.5.F C D J J 5.6.J pX4.K 6.D H pX5.5.sXpXpX^.pXpXpXpX).).J 6.6.6.).6.6.J 6.).pXpX(.5.5.5.J 6.).).).pXpXJ G 7.7.9.gX<.M !.[.{.(.J 6.`.).pXH 5.6.aXaX4.Z !.pXpXJ 7.nXwX`.!._.V B 6.J pXpX6.pX).pXpXpXpX6.pX5.5.e.h J pX6.gXgXgXsX XjXt.u.NXNXy.CX1X; ).0Xh.A.i G.G.V.L.}.!.).`.).).).).J J (.).pXJ ).).).pXpX`.(.J D ).).).).).).7.C J ).sXsXpX`.).6.J /.`.J ).(.).J 6.J J ).).J H ).).sXJ J ).6.yX].dX].).(.pXpXpX`.e.&.j _.).).sX).).J ).).pX).).pXpXpXpXJ D ).).).pX4.A H pX).dXyX!.7.<.(.7.(.).lX/ a.NXNXu.a.NX1XQ j.y w B.a j v Z (.7.J J 6.J 6.5.6.6.(.6.H J J 5.6.J pXsXJ G J sXJ J pX6.J J 6.).).).pXpXpXpXC G G 6.).J J J 5.5.6.J (.).J J 6.J 5.5.G J pX6.pX).G uX^.6.D 6.J J 6.pXuXJ ).dX{.sXpXJ SXT.!.!._.1.B pX7.4.J ).6.6.J 6.J 6.).).6.uX(.5.A H J !.<.J dX%.t.BXmXs.i.( g B.V.V.Z.J.D 6.).G J J H 5.6.7.4.D 5.J 6.J 6.6.J pX).).pXpX6.).pXuX).J J pX6.pX(.6.5.J J pXpX).).uXpXpX6.D D 6.J 5.).6.6.6.6.G ).4.D dX'.`.J J 6.6.J 7.G 6.6.D <.(.J ",
"J 1.B ).7.3./.^.H pXpXpXG F 6.pXrX~.J J J 7.G J 7.5.J 7.6.J J ).G H 9.s.p.f.s.u.BXZX1XQ & B.C.C.Z.n M H fX~.Z J J 6.6.pX5.gX<.G J G J pX6.G 6.7.D 7.5.G 6.J 7.J G D pX6.8.^.pXpX5.G J 6.6.).pXpX).J J 6.6.6.pXJ pXw.2.^.yXQ.~.H ).pX(.pX).6.pXpX(.pXpX0.D ].(.J pX8.F J xXhX!.].{.`.pX).J 6.pX6.J pXpXJ 6.6.6.pXpXhX{.J 5.G pXiXyX X XbXCXu.u.u.d.BX2Xz.).Q.j.A.G.A.G.w }.].).(.D D (.J 5.5.(.(.J pXpX).J ).).pXJ ).6.~.J ).).).J J gX7.C c c C `.sX).sX).).pX^.).).).J pX(.).J J pX(.J ).).pX(.).).).).).).`.J ).).).7.SXQ.L.).).).pXpXpXH ).pXpX).J 6.J ).pX4.^.).).).sX/.iX_.J J pX).`.pXiXJ sX^.).kX2XCXBXNXNXa.u.1X,Xj.y V.e u d g _.J 5.J pX7.J J 3.F sX).pX).J 6.5.6.pXJ J pXuXH J 6.D J pX6.J J J 5.G J J 5.6.<.R.).).6.5.G G 6.D ).pX5.G 5.C J pXpX6.D D 5.J ).6.4.J 6.J pX).).6.J 6.6.pXJ ).sXaXaXJ jXQ.F R.pX/._.J pX4.J 6.6.J ).6.).`.J J 6.6.,.V _.J ).F 5.!.fXMXt.i.u.BXu.1XI.y C.V.B.L.7.J 7.A H pXJ 5.6.6.).6.uXD pX).6.pX4.J 6.6.J 6.pX(.6.).J 6.J J pXpXJ 6.J pX6.J ).pXJ J pXpXsXfXS 6.D 6.K 6.6.6.pXfXN D `._.pX6.pXD J ).pX7.J uX^.`.aX(.6.",
"6.sX`.J aX~.).sXpX5.7.6.pXD G J pXsX).G 5.sX).J pXsXpXJ 6.pXH 5.G F 3.DXVXBXa.i.p.s.CX;Xl.e C.C.V.g g V !.sXH ).J 6.6.D 6.6.pXH 6.(.`.sXsXpX5.6.D 5.7.J 6.6.5.J 9.S ).6.aXH 5.6.pX).5.J `.).6.pXpX).6.D ).pXpX`.8.w.`.~._.`.sX(.J 7.D J J 7.C D J 7.1.9.!.Z G J 6.dXsX).sXjXY.].J J 6.6.6.6.6.pX).6.pX).pXpXpX6.6.5.G pXfX/.pXJ J J ).`.mXNXu.NXMXd.2Xz.).h j.A.G.A.G.V.T.sX`.`.sX~.(.fX7.Z !.).).J ).).pXJ J pX).6.).D (.).).).).).6.9.7.5.F L L J pX).).).).pXG H ).).).).).7.H J 6.).J 5.4.(.).).J (.).).).).).pX5.pXyX X_.H ).J ).6.).pXJ 6.pX).).pX`.).uX/.).pXJ J pX^.).6.pXuX~.`.pX2.D (.pX6.(.q.( CXNXNXNXCXu.^ ! j.y V.w w h.s z 5.5.C F 6.).).fXR.J 7.J J J 6.5.5.6.7.H J ).pXJ pX).J 7.G J J 7.,.V A J J ).`.`.J 6.7.J 6.D 5.J H 9.<.S 7.rXZ 7.D pX_.pX6.J D 6.uXJ 6.J 6.6.5.5.D 6.5.6.pXJ 7.4.aX(._.kX^.m J pXG ).0.h (.5.6.6.D J J J 6.J J 6.jXP.H J J ).).Z 7.lXCXNXi.i.p.CXE.y F.V.B.g 7.(.sX`.).J J J J pX5.J pXpXS ).pX).sXuX6.pX).6.).J J ).pXpX).).).pXpXpXJ 6.).`.5.J pXG 6.6.5.6.6.`.`.pX/.5.6.6.5.aX0XR.sX(.6.6.6.6.).J J aXpX6.^.7.J ).sX",
"7.J 5.5.6.J 5.G pX8.J pXpXpX^.G 4.J 7.$.M H 7.2.F 7.pX7.D J 5.pXD J G zXAXVXt.NXu.CXAXwXP.y C.w C.% - W.H 5.(.J 6.6.6.6.7.5.).).).(.G 5.5.5.6.pX).pXpX`.pX6.5.).sX_.5.6.pX).pX6.`.pX`.).H pX).).).(.fXS G J 6.5.0.8._.J N K 6.).J J ).J ).7.1.K 5.).iXjX{.`.H J 6.J pXpX5.aX{.J 6.J 6.pX6.6.pXJ 5.5.5.6.J 6.7.8.J 7.,.l K pXpXpXpXJ (.).VXt.NXMXNXi.CX0X`.E.% C.G.A.G.w a ).).6.J 6.S `.hX{.H J 6.).6.A `._.).sX6.J ).^.).).J 3.D pX9.0.2.5.L (.].pXJ ).`.).).fX'._.).).J G J `.).J ).).J H sXG F ).6.H J J J 6.J 5.J (.).J pXH ).`.pXpX).pX).).pX).).pX).).).J pXpX).).5.H 6.D (.`.).G gXrXR.J ).uX(.lXCXNXNXi.i.t.a.<X:X& V.w V.e K.L.B `.sX/.(.H H pXpXuXJ 6.J J J 5.6.).6.pX(.).J J J 6.J 6.6.uXJ J pXhXiXS G G J G 5.5.5.6.).pX).).pXJ pX[.pX~.sX8.K J J 5.5.pX(.J J 6.).J J 6.7.J pX(.pXaXD J 6.uX7.6.(.H tX X].).0.M J qXR.pX6.5.6.6.G J J J 6.5.G 5.D J J J D 5.Z {.SXt.i.u.u.CX/ d B.w V.y a sXpXJ 6.6.J 6.6.J 5.J J 6.3.~.H sXJ J pXpX).pXpX).).(.6.5.).).).pX).pXJ pX).).J pX(.6.J J pXpXpX`.J 6.J 5.6.^.pXsXpXpXH G 5.J 6.pX(.J A J 6.pX^.J pX(.J aX",
"9.*.S pX).pXsXS 7.uX`.0.N ).6.3.H J pXyXiXG 7.rX~.7.J pXpX6.J ).).(.).zXu.t.u.u.s.y.VXe.R.B.C.V.w Z.L.(.H ).).J 5.6.6.6.uXsX^.pXJ 6.pXJ pXpXJ ).uX).pXJ pXpX`.).6.5.J ).).6.).pX5.6.).4.H 6.J J pXJ 8.6.G J J aXgX6.Z 0.,.M L 5.D (.5.D 5.7.hX`.).J 5.7.J J ).J pX6.5.7.6.(.`.sX7.H 6.6.6.J 5.6.6.J pXpX5.6.pXuXsX`.xX0XY.6.J 6.6.).H _.y.t.MXBXu.SXa.$.).V h.C.G.A.G.G.a *.L 6.6.J (.J J ).).).`.).pX/.).pXJ ).sX`.).6.F ,.;.V ~.).gXzXaXJ !.Z Z sXuX(.6.6.J )._.).).).pXpXH J ).).).pX^.(.7.rX_.).`.`.).).).).pX9.R.).).`.pX).J 5.D ).J pX).J J pXpX).).).6.).J ).).`.dX~.pX/._.J 9.V _.hXgXZ ).).J e./ u.NXNXNXp.a.<X:Xj.e w V.e L.}.m ).6.).pX(.J 6.6.6.6.7.6.J J 6.pX6.6.1.K 5.C 6.J J 5.J 6.J ).J ).).uX6.6.).).6.6.J J J J pX).5.5.J J 5.).J 5.iX~.).pXD ).pX).pX5.J 5.5.J 7.6.).5.D 6.pX).7.F 5.7.pX(.).pX`.6.7.kXL.5.iX^.5.pX).pXpXuXJ J J pXpX6.^.`.D C S pX6.Z Z MXs.y.MXNXNXmXa % C.V.Z.a 5.pX).).).).pXpXpX`.dX^.9.<.Z J 6.).6.).pX).6.6.J 6.,.L pXJ 6.A J 6.6.J 6.J J 2.C J 6.).).J 5.J pXpX^.pXpX).6.J 6.6.6.6.D J J 6.5.5.0.*.B pXpXsXpX6.6.G G ",
"gXbX~.6.).6.6.7.D 6.5.kXW.J 6.uX).6.2.C 7.7.)._.aXpX6.J pXpXJ J J J (.w.CXt.NXa.u.xXMX:.m B.C.V.A.% L.`.(.J J 6.6.6.).pX).pXpX6.J J 6.6.5.6.pXJ 6.5.6.(.pXpX6.6.6.J J D G 6.6.6.e.b 5.J ).J 6.J 7.8.J uX_.J J 7.gXaX2.>. XhXM ~.).J pXJ 6.D J 5.5.J 7.6.).pXH ).5.pXpXpXsXJ 5.5.pXJ 5.4.5.G ).).sXpXJ 6.6.).6.pX6.6.uX X).5.6.7.J J H Z y.BXMXBXmXd.( ; (.<.% A.G.A.G.C.s n ]._.sX`.pX(.).).J (.).5.J J ).).).).6.pXJ `.w.:.q.W.`.(.gXgXcX8.L Z m ).).).).pX).).).J ).J 6.(.pX_.).).).J ).(.).[.pXJ J ).).).).).).hX`.).).J pX).pX`.^.6.4.H J pX).J ).).).6.).).).J ^.6.5.F 5.H ).pXdX'.5.5.`.`.).).pXlX/ u.i.NXt.mXCXmX! u B.w V.e J.T.j L J J ).pX).J 6.J 6.5.(.sX).6.6.J J yX'.tXR.).pXD J J 6.J J J 5.G pXpX`.).J J pXJ ).).J 5.7.J J J 5.(.).6.J ).6.J 5.J G 5.J J pX6.3.J F J ).6.dX^.G 7.5.5.J G sXpXH 5.6.J 6.5.[.`.6.6.J J pXJ 6.5.5.).).6.G 7.J (.6.6.fXB 5.J (.m %.a.y.p.MXt.^ L.B.V.V.Z.& b F 5.).).pXJ J ).).uXsXaXyX~.(.6.J ).J J 6.pXpX).pXjXR.6.).J 3.J 6.6.J ).pXJ zXB (.).J J 8.D 6.5.3.D 6.D J pXpX7.6.J ).pXJ J J pXpXxXXX'.D J 5.5.6.).pXpX",
"pX(.6.D 5.5.6.pX).7.7.pX`.7.D 5.J 6.dX'.6.sXJ G 6.6.J J 5.7.J (.).H D e.p.mXu.a.y.bX2X:.s Z.w V.C.Z.J.pX5.H ).6.6.).7.D J 6.6.pX(.pXpX6.J pXpX).pXpX`.D 7.6.6.pXpX).).9.B pXpXJ jX0XB H J ).).6.6.`.`.).pX6.J 6.gXdXgX(.(.9.'.!.6.5.J pX6.6.7.3.Z J ).).J sX^.).6.J 6.J 6.uXaX<.S pX5.J 8.E.J J J sXpXJ pX6.6.pXsXsX(.5.5.J J sX6.J Z Z MXNXy.i.s.i./ ; (.rX& e H.G.A.A.K.}._.pX).).).).).).).J F ).`.`.).pX6.J pX`.`.).xXyXW.`.6.J aXcX XnX!.!.Y.).).).).).).J 5.H pX).uX~.^.(.).`.pXpX).(.).J uX).).`.).).).).).).).pXpXJ ).).J 6.^.).sXsX).).).`.`.`.pX`.).,.*.B ).sXhX`.(.pX3.J 6.(.uX^.J ).pX6.).lX/ NXBXu.BXZXCXp.! F.y w w e J.L n Z L (.J J J 6.6.).0.N ).D 5.5.uXJ 6.J 5.uX`.J 6.).6.A G 5.J 6.7.F J 6.J 6.).pX).J J J J pXpXpX6.).).).6.6.).J 6.).).pXJ J ).J 5.`.fX3.A F J 6.).pXpXpXaX).6.J D pXJ D J 6.6.).J 5.6.6.J J 6.6.6.6.D (.J 7.3.H fXD 5.J `.8.>.Z ).Y.qXa.i.u.i.u.1XL.B.C.V.Z.e p D D H pXpX).).).pXJ 5.pXpX).J ).).pX).pX).pXuX6.3.(.sX).).,.b M pX).6.7.5.(.`.`.).pX).J pXJ 7.6.tXE.6.6.J 7.6.`.sXpXJ 6.).pX).).).`.`.pXpX6.pXpX^.).6.7.",
"pX).pX6.J ^.sXpX6.6.pX).6.pX).`.).pX).6.6.6.<.Z 6.6.pX6.6.6.J J J D !.lXp.t.t.mXDX,.) ,.a B.C.V.C.u s C 6.F J 6.6.6.pX`.J J pX).J 6.5.pX^.6.D 6.J pX6.5.2.G 6.6.pXJ 5.1.R.6.6.pXJ hXyX_.).D J 6.).6.D J 5.6.J 6.7.6.jXaXF sXW.(.7.).).6.6.6.pX[.pX(.J ).).J ).J pXpX6.6.J 7.pXyX'.sXdX).).).pXJ J 8.2.J 6.pX6.6.6.pXpXpXpX7.D 5.D J !.H y.u.BXi.i.i./ z.J E.h.w G.G.G.V.L.iXJ ).7.H (.).).).`.gXV K (.).6.J pX^.).).6.J {.{.5.3.D ).^.hXfXlX'.T.].).).).6.J J 6.(.(.).).).).).).).).).).).J ).).J ).J J ).J ).J A H J pXpX`.).`.`.`.`.pXJ ).).).).J J ).sX8.,.;.N R.J ).J pXJ 6.E.).uX(.pX`.).).J uX(.kX1XBXmXNXu.a.s.^ Q w Z.V.w Z.n Z T._.Z F 6.).6.J 6.6.%.g uX6.).).pXpXpX).).J G 6.6.J 6.sX).6.J ).gX<.K J 6.J J J 6.6.J ).J G 5.7.).J J J J J J J 6.J J 6.6.(.).pX6.F 4.iXiX_.).pXpXG J 6.pXaXJ pX3.S 6.pX(.6.J pX).6.6.).pX6.J J pXpX`.).6.6.iX_.6.).fXS J gXW.!./.B %.s.i.i.y.u.^ - B.Z.Z.V.Z.J.gXZ (.J pX`.pXpXpXpX).5.^.`.).).pXpX).pXJ 5.5.7.rXH pX).7.1.T.Y.6.8.v D /.).6.6.D pX6.5.6.).pXsX`.pX5.).).pX`.6.6.6.6.6.J ).).J ).6.J pX6.6.J 6.6.J 6.pX",
"6.J 6.pX).5.G 5.6.6.pXJ 6.pX6.J 6.pX6.6.6.6.sXJ J 6.6.6.6.6.J J 5.H Z kXt.mXp.i.BXi.p.:X- B.C.V.e F.P.g aXS J J 6.pX).6.5.H 6.5.5.5.J J J 6.pXpX).J 6.gXuX(.6.J ).pX6./.J 5.J 6.6.5.pX^.6.).6.6.D 6.6.5.J ).).J 9.G aXdX X'.!.aXpXJ 5.G pXaXH 7.pXJ J ).).).).6.H 6.).).`.dX_.J 6.6.aX).6.(.6.aXJ 9.>.B pX).pXpXpX6.6.5.5.pX`.pX).(.!.8.p.i.y.p.i.t.t.z.[.V % A.G.G.G.w s 7.2.v uX_.).).).).).sXyXR.(.7.J (.).`.).pXpX(.).pXpXiX^.J F G 8.jX].T.`.).6.6.7.J ).).`.J J J ).).).J J J J ).).^.J 6.(.J ,.B (.pX).)./.).J J pX).pX).pX).6.).).J J J J ).pX>.*.>.xX$.W.uXS 5.).).`.`.).).).8.B ).pX).).pX).q.( p.NXs.i.CXt.p.:XZ.V.V.V.% I.bXT._.(.H ).).J J 6.J jXE.,.M J 6.J 6.).6.J 6.D J 5.J J ).6.6.J 5.5.pX4.Z pX6.D D J J J J 6.J 6.J ).pXJ J J 7.G J 5.J G G pX5.D 5.pX).6.J ).J J J 6.6.J D G 6.4.G `.(.7.S 6.6.J 5.J 5.J 6.J pXpXJ J G J 6.pXJ J 5.4.C uX(.5.J (.B <.Z %.CXBXu.y.NX<X& e Z.V.V.Z.B 8.~.J J ).).6.pXpXG 5.q.V pXJ J 5.J 6.6.pXpX).uX).6.J J 6.yXW.S pXw.G L G J 6.6.J G 7.).).D J J ).aX<.(.pXJ 6.sX6.J J pX).).7.$.Z 7.J 5.7.pXJ pX2.H pXpX",
"pXpXG 6.6.pXJ 5.6.6.^.pXJ 5.6.).7.N A 6.).pX6.6.J J 6.J 6.7.J 6.D (.Z 9.CXp.mXi.y.VX^ ~ & B.C.C.w D.U.W.dXE.H ).6.6.6.6.).J 5.6.6.J 6.6.J J D 5.5.5.5.J hXpX).).6.6.).5.J pXJ 6.6.pX4.G J ).).sX).).6.pX`.).6.5.7.`.gXuXZ hX!.6.pXpXpXpX5.J 5.G G ).).J J J J pX5.J 6.D D 5.5.5.G 5.6.pX).).).pX6.6.yX'.).pX7.5.J 6.6.pXpX(.6.5.6.J Z gXp.u.i.BXNXu.s.; H 0Xh.A.G.A.H.F.J.5.tXY.!.pX).).).(.`.).sXsX;.M `.`.).).).).).).).6.6.).pX).6.J ).hX X_.5.J 6.7.J ).J ).pX).).).).).).`.).pX).J ^.).pX(.).J iX/.G J ).).(.pX).J pX).6.6.J pXpXJ J 9.N ~.).G e.@.j W.jXU.!.`.`.`.).).).J (.).6./.iX4.(.fXD (._.lX( BXNXZXBXCXZX/ $.Z.Z.V.w Z.XXbXQ.uXC C K 6.J ).pXuX(.e.h Q.A J J 7.G J `.pXpX5.J ).J 5.6.5.J 6.4.D `.).5.5.H pXJ J pXD 5.).).pXJ J 6.pXD 6.^.J 6.J J 5.C J 5.6.).5.^.pXJ (.).5.8.^.pXpXpXD pX`.D J pX^.6.5.J 6.J 6.J 6.6.J 6.pXJ pXJ G 5.D D 6.7./.).5.6.J H F K H lXa.i.i.i.p.<Xl.B.Z.V.V.w N ~.J (.).J J 6.5.pX1.h %.V J pX).6.).pX4.D J pXpX6.G ).6.J iX`.`.J jXrXW.~.D J pX5.6.).).6.).J J J 7.iX(.6.6.6.5.sXJ J ).J 5.7.yX(.6.pX6.J ).pX9.$.(.6.6.",
"6.6.6.).pX6.8.D pX).).pX6.6.J J gXQ.uXS J pXpX6.pXJ 6.J 6.6.).6.).F F 5.t.p.p.MXeXy.( ; & V.C.C.e D.yX(.J sX(.6.6.6.6.6.6.H pX6.6.).).pXpX).).6.7.5.6.H 5.6.J 6.J pX6.6.J J 6.pX).J sX`.J J 5.6.pX5.4.J _.7.D sX`.sX).hX{.J J J 6.).6.6.aX6.6.J J H 6.J J J 6.5.pXJ 5.J J 0.C ).pXJ ).).).).5.5.pX`.6.6.J 5.pXsXpXpXpX5.pXpX).6.J 6.Z rXs.i.BXd.CXNX1X; 0 h h.A.A.A.G.C.Y.hX X X_.).).`.).(.).6.J aXxXT.).G ).).).).).).pX).`.`.6.).pX`.).`.).pXpXJ 7.`.`.).).J ).).).).).J J J ).).sX).(.J J J J ).).).pXJ 5.S J J J ).).J ).).).).sX`.`.jXrXb 2.C kX,.m ).(.sX).`.6.6.).pX6.^.).J `.).5.uXD `.`.).H kX1XNXi.BXa.u.a./ 0XZ.V.w V.h.B 7.5.fXsX^.Z J ).J 6.5.G xXW.6.`.^.pXpXpXH 5.5.4.J J J 5.J 6.6.6.5.`.(.G J 6.pXH 5.6.D 5.5.).J 5.J J 5.G J ).).5.G J 6.J 7.E.!.6.J 5.(.J 6.).J 5.5.).`.7.6.pX).).pXuX6.D D 7.5.J 5.J 5.J J pXpXJ 7.J J 6.6.^.pXJ 5.^.J 8.K pX).J F H !.MXa.i.p.i.MXp.h B.C.V.V.e L.[.E._.pX).).J 6.6.sXcXqXR.J J pX6.J 5.`.`.).pX).pX/.).pX).6.3.G J pXQ.`.sXpXF pX<.Z pX6.6.J ).pXJ 6.).).6.6.pX6.5.6.H J pXpXuXZ pXJ 6.pXuX6.7.pX{.6.6.6.",
"6.7.).J 5.6.sXuX6.6.5.7.6.6.6.J 8.D aX^.6.G 7.7.5.5.5.J 6.pXJ J 6.J (.q.( mXi.y.#.f.t.,Xj.V.C.C.Z.J.aX8.H 6.J J 6.6.).pX).J 7.).pX).J 7.J 5.J 8.<.).uX`.pX6.G D G 6.pX).).pX6.G ).).6.6.J ).).pX7.D ).`.6.pX(.pXpX7.J H aX3.(.5.J J 5.7.7.6.J J H J 6.J J J J pX).`.sXpX6.fXQ.).pX).).6.5.5.7.J J 5.J ).pX7.F 5.8.A 6.uXJ ).6.6.J J Z <.u.i.i.i.p.i./ Q N - h.A.A.A.G.e g `.pX).).).pX).).).).pX).pX[._.gXE._.pX).).).).6.).).6.).).).).J J 6.J 8.4._.(.6.J ).).).).).).).).pXS ).).4.(.).pX).8.!.).).).pXpX8.B J ).).J J ).).J ).G G ).pX).jXrXm _.jXqXL.`.).).).J pXpX).pX^.).^.sXJ 5.D ).^.).6.).(.kXmXmXDXi.CXu.( ! Q e V.V.e F.sXpXsX_.hX{.`.`.).).pX`.).).).).).J 6.pXpX(.pXJ uX`.pXpX8.K J pXpX`.).pXpX).)._.sX).6.6.pX`.).).sXpXJ ).sXH 6.6.6.(.).J ).sX[.).sX7.).J J 5.G J uX`.J 6.pX).`.pX6.J 7.6.).J 7.6.J J J pX5.G J 6.5.6.J 6.D ).J 6.pXD J 5.fX!.6.J J ~.'.Z t.a.i.NXBXy.^ g B.C.V.C.h.L.6.`.J ).).pX).pXpX).6.`.uXA ).6.pX3.~.J 6.6.).pX).6.J J J aX<.Z uX^.6.6.pXpX).J sX`.J J 6.J J J ).6.6.J 6.J J sXgXZ sX6.J pXsX^.2.J D J 7.uX^.).5.5.6.6.",
"pXpX).pX).).J pXpXpXpXsXsXpXpX6.uX^.6.pXpXpX^.aXD 5.pXJ G 6.pXJ J J Z tX1Xi.NXu.i.BXmXQ j.B.V.C.Z.a 2.[.).pX).).pX`.pXpXpX).).J ).).pXpXpXJ ).sX[.).`.7.5.pX`.sX`.`.pXpX).).dX:.b F pX6.J J 5.6.sX[.pXS sX`.pXpX6.sX).J 7.Q.(.pX).6.).dX9.G ).6.(._.pX`.`.sX).J pXJ 0.*.).`.sXsXpX).sX6.).sXaX(.`.sX8.*.z ).^.pXdXQ.^.6.pX6.6.).pXJ Z 8.t.u.i.i.s.i.1X#.a I.h.S.G.G.A.F.].).`.`.`.`.`.`.`.).).`.`.pX).`.sX`.).).`.`.`.pX`.).pX`.`.sX`.sXsX).sX0.Z {.`.).sX`.).`.).).).).).).pX).D D `.`.).sX`.hX'.).).pXpX).[.[.`.).).dXA K 5.:.f sXS (.pXpX).bX XZ 0.Q.{.pX`.sX`.`.).J 5.).`.5.;.9 S sX/.^.sX^.`.pX^.tXt.MXMXu.CXmX1XDX0XB.V.e V.& N ,.M C F F G G G J 6.J J dX<.^.J pX4.J `.^.uX).).5.6.`.hX/.`.pX`.uXuXpX`.`.sX^.pXsX).`.`.(.`.).pXsX[.sXuX`.).`.sX`.sXpXH ).).4.<.D ).`.).sX`.`.).6.J J pX).pX6.pXpXpX`.1.@.K ).`.iXD ).aX`.(.aX^.).pXuX).J ).pX).`.5.J J pX6.J F F L pXt.u.i.qXMXt.p.J.B.V.V.V.Z.B 6.H `.).).pX`.sXsXpXsXuXpXE.).pXsX[.`.sXsX).(.).sX`.sXsX`.sXhX`.`.).pX).pX4.D ).).sX`.pX).sX`.).pX).`.).sX`.`.J gX<.L dX`.pX6.9.E._.pXpX).`.pXpXuX).).pX",
"`.sXsXpX`.`.sXsXsX`.`.0.N uX6.^.`.aXJ ).).sXsXsXsXsX).dXJ ).).pX5.J H F t.CXi.u.NXd.^ :X& V.C.V.C.e g K pXJ (.`.sX8.N 2.F pXuXsX).).pXpXsX).`.`.sX`.8.>.S (.sX`.`.pXpX).`.sX7.nXwXR.pXsXsX).`.)._.`.hX[.`.fX_.sXhXdXpX).`._.`.sX`.[.[.fXtX3.K {.'.J pX(.pXD sX).J 6.kXQ.!.6.J sXsX_.sXdX`.fX/.fXS 6.zX<XP._.`.sX).sXaXuX`.sX`.pXpXsX(.e.t.i.BXi.NXNX( R * g j.V.G.G.A.u H ).).).).).).).`.sX_.sX`.sX_.[.sXpX^.fXN ).`.`.`.`.`.`.sX`.`.sXsX_.sXjXY.(.sX`.`.sX`.`.`.`.sX`.`.sX`.[.gXR._.sX[.`.[.`.`.sX).).`.sX).).`.sX_.9.sXrX>.qXU.B `._.[.`.[.`.hXkXN T.sX[.`.`.`.[.hXq.B _.hX,.,.h R.D [.{.sXsXD uX[.%.a.i.p.BXNXmXCX1X:XB.w Z.w h.g 1.V b -.x x x v v v -.v C uX3.G 2.3.C C C C 5.2.5.F G C G 5.5.G G D 7.F G 6.).J pX).J 7.(.J 6.J ).J 6.pX).6.J ).pX).sX`.`.).aXiX'._.sX).).J ).pXuXpX^.sXpXpXpX^.pXpX).gX0X'.(.`.sXdXD )./.).uXiXiXrXJ sX(.).uX`.9.V ^.J ).pX6.J J Z D ^ BXu.p.p.MX:XF.B.V.V.C.B.g G S G G G J J 5.5.J J pX).J 6.J ).pXJ 5.7.3.D pXJ J J pX).sXpX).`.).sX`.).fX/.`.pX).`.sXsXsX`.`.pX).).pXpXpXJ pXaXjXR.H 0.z ).[. XpXsXsXsXpX).sXsXsXsXsX",
"pX7.pXpXJ J 6.5.pXpX8.y.P.E.E.^.6.aXuXJ J J 6.pX5.aX<.2.J J J 5.aXH (.e./ s.u.BXBXu.) ~ j.V.C.V.C.Z.a d v C L K 5.tXE.tXh N A A 6.G J 7.5.5.K J 6.7.1.'.).D C G 5.8.C 5.C 5.6.iX'.pXJ J 7.).5.5.F G 5.G 3.D J 5.5.aXsX).pXD D 6.(.7.(.tX;.,.n Z 3.6.(.J G 4.D 6.6.(.`.[.8.A D J uXpXG 7.8.^.pXaX4.D ).bXXX).pX6.6.5.5.6.5.7.5.5.5.5.F e.u.i.i.i.u.s.) P * - j.V.G.G.G.w j C C C C 3.C G F G C 5.G 5.F C 5.3.L zXrXL G F G G J 6.6.).6.pXpXJ 5.uX{.J G 5.G G J J J G 5.G 5.J J G 7.!.H J 6.).).).).).pXJ H ).`.`.).).6.aX_.gXgXhX XT._._.).`.pX).).jXXX`.J ).6.6.H ).pXwXW.).).nXI.].dX/.).pX6.pXiX^.).lX2Xa.NXi.CXs.a.( h B.Z.w Z.j.b 6 X.7 6 8 8 8 9 k k &.l 9 7 &.l 8 8 &.x c c -.-.v v c v v v v 2.C C -.v v z v -.-.-.C C v C C C v 2.C -.C 2.C C 2.2.C 2.C -.-.C C C C 2.3.F C C 3.3.C G 7.6.J 5.3.6.5.G 6.pXH D 7.pXrXV 7.3.C J J tXV pX6.).).pXfX'.`.sX4.D uXJ J T.,.s.i.u.BXZXMX! a B.V.V.V.Z.J.c c x x c c v 2.-.v C -.C 2.v C C 2.2.2.2.0.l b C 2.C C C C G C C G 5.5.5.G D 5.2.H G G 5.G J J 7.J J 7.J 6.J J 5.uXiX0.:.b m G 0.N F 5.5.5.J 5.J 6.6.pX",
"2.2.C 2.2.C -.-.v 2.2.nXQ.z C C 2.-.2.C C 2.C 2.2.C 8.<.D 5.G 5.7.G C f./ a.y.u.p.s.^ z.j.V.V.V.C.Z.L.L b l k b c 2.2.2.8.C c =.x c x =.x -.z z -.-.3.C v 2.2.c v -.C 2.v v v -.v -.v -.v v -.v v -.-.c v C -.-.v -.2.v -.C C C -.-.z ;.yXyXW.v v C v -.-.v 2.-.v C -.=.-.L -.v v -.-.-.2.v -.-.2.C v v v -.-.-.-.2.C -.-.-.2.-.>.-.v %.u.BXi.i.a.g.) & % j.% V.A.G.G.S.g =.x x k x x v c =.v -.-.=.c c c *.M -.uXF C C v v v v C 2.2.v -.-.2.C v 2.C 2.C C C v 2.v v C C v v 2.C v z C C C C C C C 2.2.C C C C C C 2.2.C 5.dXsX].].F C C C 3.C C C C 2.C 2.C 5.C 2.C C 3.3.C 8.F 2.C C C 5.G C C 3.C %./ mXu.i.NXCXs./ P.y V.B.F.N 6 < 7 7 6 5 6 6 0 7 7 8 8 6 6 8 8 9 8 8 9 9 8 8 &.l 8 k 8 k k k k k k &.x k l =.l x c c c c c -.c c -.c =.c c -.c c -.c -.-.$.M *.b c c =.c c -.c -.v v c -.v c -.v v -.v v C C -.v -.C 2.-.@.b z -.>.A v C C v C 2.C C C 2.C C C C L e./ u.u.y.%.%.<Xw Z.V.Z.V.B.b X.k k k k 8 8 k &.x k x k &.x k =.k x c c ,.;.j z -.v -.v v v v v v -.-.-.-.-.2.N L -.-.-.2.v v 2.v -.N -.-.v -.-.c v e.e.m j v 2.E.2.2.v C v C C 2.-.C ",
"=.c -.c -.=.c -.v -.c c 1.A &.b =.,.M -.c -.-.v 2.-.-.-.-.v c -.-.C 0.e.CXs.i.p.MXCX^ h j.V.V.V.C.% b &.l 9 8 9 2 6 ..X.8 k &.&.k 8 &.k &.9 x x k &.&.k &.&.&.&.k k x x x &.=.=.k 8 =.x x =.&.x &.x c c c c =.=.l c -.&.l v -.c -.-.&.-.x 2.C -.v c =.=.c c c -.v -.&.=.C c -.c c -.-.-.-.=.c *.c -.=.c c =.-.-.=.-.-.=.-.-.-.-.=.=.x #.CXy.u.i.( ) g.* h.l.j.V.C.G.G.S.j 8 l k &.l l 9 8 x k &.x ,.b =.k z z k l x x x x x x x k x =.x =.=.x =.x x =.x x c -.c -.v -.c =.-.c c c =.f b =.c c v c c v -.C c c -.c c -.5.C C C G C C v -.c c c -.v -.*.v -.C v c c -.-.v v C -.c v v v v c c -.v -.-.v %.1Xa.u.i.u.ZXt.CXqXy Z.Z.s 3 _ 0 9 6 6 6 5 6 < 1 < < ' ' < 1 < 2 2 6 < 1 < < ' < < < 6 6 6 ' 2 6 ..2 6 7 6 6 7 6 6 6 8 &.k k &.k k &.k x x x x x x x c -.3.v -.v x c c c =.c c =.c =.*.z =.c c c =.-.c =.x x =.c -.=.c ;.,.j z -.v =.v c -.v c =.-.c c -.2.v v c b #.s.u.i.p.p.i.^ e Z.V.V.C.V.0 6 7 7 9 6 6 6 6 9 8 o.7 8 8 k 8 &.k 8 7 8 &.1.M 0 k 8 X.k k k 8 k k &.&.&.&.x &.c k &.=.=.k =.k x x -.c =.c -.c =.-.&.*.e.L m c c =.=.-.-.-.c c c =.-.c ",
"=.&.k l =.=.x =.k &.x =.k -.0.N b -.v x =.&.l x =.=.=.=.c c -.k x b v ,./ a.p.f.p.s.<X0X& V.V.V.Z.D.0  .6 6 6 6 6 6 < 2 7 ' ' 6  .6 6 ....6 1 1 < ' < ' ' | 6 4 [ 2 6 6 < 6  .4 @.d 9 6  .6 8 X.8 8  .6 6 6 o.X.k 7 8 %.h 0 x &.x &.=.=.*.x &.x =.k k x =.x &.c c -.*.v c x =.&.l k =.-.=.c x =.c =.=.=.x x =.=.=.c =.=.=.=.=.-.-.=.=.f.a.u.i.t.( 2X<X% k.- j.V.S.G.D.a X.8 &.l ..l 9 9 0 7 7 7  .k 8 X.k 8 8 l k 7 7 6 7 7 6  .6 6 6 6 7 ..k 9 X.7 X.X.7 9 8 X.7 8 X.X.k X.8 7 8 k b 0 8 8 8 8 8 8 8 X.8 8 k X.l k k x =.c k x x x x =.c =.x c x -.C c c x c c =.=.=.c c x &.z x =.x c -.-.c c =.c c e.s.CXNXNXBXCXmXmX$.B.Z.w B.g *.d 4 < 5 9 7 6 6 6 6  .6  .8 6 9 6 2 4 [ l < ' 6 4 < 6 < < < < 5 2 ' [ 2 6 < < < 2 6 6 < 2 6 5 6 o. .6 6 6 6 6 7 6 6 6 6 8 8 7 8 *.z X.k k &.&.7 8 k &.l l X.l k =.x =.=.&.*.l &.l k &.l =.<.C c x =.x c x c =.x x c c c =.x c c -.l r.s.i.t.u.y.p.:Xh.Z.V.w Z.g  .9 8 X.6  .6  .5 5 < [ f < < < < < < 4  .6 ' 7 7 9 ' 2 2 4 < < 4 6 4 4  . .| 4  .6 < 6  . .6 X.7 6 7  .7 k 8 o.6 8 o.:.j :.n b X.X.8 8 k 7 ;.z X.k x =.x ",
"[ [ 7 4 < 4  . .o.f 6 o. .6 X.*.l X.X...o.&.b 8 X.X. . .7 7 X.&.b x &.@.y.a.mXBXi.s.^ :Xj.V.V.C.e d 6 6 6 6 8 9  .6 6 9 | o.' < < < < <  .O.@.d ] ' 6 ' ' 6 ' < [ 2 < ' < < ' ' *.b 5 6 6 6 6  .6 | o. .6 < 9 ....7 < 2 l 9 9 7  . .7 &.k k &. . .[ 2 5 6 ....7 < 7 ....9 X.X.&.7 | < | 7 X.X.k &.X.7 X.X.o. .o.6 8 o.&.X.o...8 o.o.o.e.mXi.u.i.<X2X<X% % - & V.G.S.G.l 9 6 X.=.8 8 8 9 9 6 6 6 6 6 5 < 6  .6 5  .6  .6 4  .6 6 6 4 6 6 6 ..k 6  .6 6  .6 9 6 o.2 6  .6  .6  .6 7 7 5 9 6 6 6  .6 6 6  ...9 8 8 8 7 8 9 9 k [ 9 [ 5 6 6 7 X.8 X.k 8 6 o.8 &.9 8 8 X.&.l X.o.8 k 8 7 l k k k &.&.x k l ;.u.mXu.u.BXa.mX2X; B.C.Z.Z.L dXf 3 6 6 9 9 7 [ 2 ' < 6 6 ' 9 5 6 9 6 6 6 6 6 6 6 6 6  .2 4 6 6 2 6 7 6 4 6 6 < < 6 < 6 < < < < ' 6 6 < < < < 2 4 6 4 6 4 [ 2 5 5 6  .6 < 4  .7 @.3 | 6 6 6  .< < 6  .' 6 7 .. .6 6 6  .6 9  .o.@.l k 8 X.7 k &.&.k 8 7 k &.k k &.k :.s.p.u.u.t.p.VXJ.B.V.Z.u  .6 6 5 6 6 8 7 ..k 6 7 6 6  .6 6 6  .5 < 2 6  .6 ' 2 6 7 ' < 6 < 5 6 ' ' < '  .< < 4 | < 6 6 6 6 o.< ' < 6 < 4  .[ 2 4 &.k o.7 2 6  .6 6 @.$.d o. . .2 ' < ",
" .6 o.<  .5 6 6 O.@.f ' '  .< 1 ] < < ' |  .6 ' ' < [ 2 < 6 6 k 9 6 &.1.q.s.i.i.i.a.^ Q j.V.V.w s q 0 6 5 9 6 6 6 7 7 6  ...&.6 6  .7 6  . .,.z 6 7 o.@.d 6  .6 O.N 0  . .' 6 ..7 6 6 | | < 4 6 | [ 6  . .6 < | | 6 [ 2 5 9 5 6 o.[ 2 2 [ 6 O.o.O.1.N 3 2 ' ' [ *.0 ' ..[ <  . .o.[ &.0 6 < ' ' ' o.{ { , 2  .o.[ < ' ' '  ... .o. . .X.p.i.u.i.^ 2X<Xh.% - h.Z.S.D.b 7 9 6 9 8 X.7 8 8 8 8 7 8 8 X.8 X.7 6 6 9 8 6  .6 6 8 8 6  .7 7  .6 6 | |  .6 4 6 8 6 6 o.7 5  .6 6  .6 ..9 6 9 6 6 7 6 ..7 < 6 7 6 6 5 6 4 6 7 9  .1 l 7 #.*.2 < 6 6 6 6 .. .6 6 4 ..7 4 ] 3 6 < |  .6 6  .l 9 < 4 [ 6 8 7 o.9 O.%.mXu.BXNXCXmX2Xz.B.C.h.H.z l *.&.2 6 9 5 ' &.9  .0 5 o.&.9 6 5 6  .6 < 4 6 6 4 4 5 6 6 4 6 6 6 6 5 6 6 6 | %.h 1  .< < < ' < 9 < < 6 6 < 6 6 < 4 < < <  .6 5 5 < < ' ' 2 < < [ 0 6 < ' 2 <  . .' < 7 6 4 ' [ < < ' 4 4 < 1 ..z 6 ' < < 6 2 2 6 6 ' 2 < o.6 < ' < @.i.i.i.u.u.BX%.u Z.w D.d | 6 6 6 6 6 [ 2 6 6 6 6  . .7 7 ..6 X.X.7 ..2 6  .&.9 6 6 6 7 6 k 6 4  . . .9 6 ....2 6  .5 6 6 4 <  . .' 2 6 ' '  .&.6 ' 4 6  .6 4 4 < 4 o.$.f ] 4 6  . .| ",
"4 | [ 7 4  .< < O.<.b ' < ] } h d < ' ' < < ' [ < ' [ 2 < < 2 < ] < < 9 } f.i.t.i.s.<Xz.j.V.V.H.L j l 6 0 9  .6 6 6 6 ' '  . . .k 7 6 6 6 6 4  .6 4 #.0Xj 6  .6 6 6 o. .[ 7 7  .6 6 | 6 6 7 6 6  ...9  .o.2 6  .6 6 ..k 7 4 ' 2 [ [ [ 2 < < '  .X.&.-.l 6 ' 6 7 k 6 2 ' @.f < |  .&.l 7 ' ' ' ' ' < O.q.n 0 ' [ 2 | ' ' ' < ] ' ' 4 ' ] :.BXi.i.! 2X3Xk.* - h.Z.G.g X.k 8 9 8 6 8 8 6 8 X.7 7 7 6 6 6 6 8 7 8 7 6  ...7 6 6  .7 8 8 6 X.X.6 6 6 6 ..8 7 6 6 6  .8 6 7 7 6 6 6  .6 5 9 9 6 6 6 6 o.l 0 7 6  .6 5  .2 9 6 [ *.9 < k r.{ q 5 [ 2 < < 4  .6 [ 9 6 [ @.g 2 6 4  .6 6  .6 4 ' < ' 2 < ' 6 5 &.,.BXCXi.u.a.mX/ ;XB.F.u d o.7 5 8 8 9 6  .6 6  .6 6 < 4 ..6 4 6 6 6 6 9 6 6 < < < 6 6 5 4 | 2 5 6 4 5  .2 5 e.wXq < 6 6 6 7 9 < 2 6 5  .6 < 6 < < < ' 2 5 4 2 6 o.6 6  .6 6 6 6 < | [ 9 6 ' [ , < 7 2  .'  . .6 4 6  .2 6 2 2 | ' 6 [ 2 < [ 2 < 4 o...< < ' 6 ' o.2 :.NXi.i.i.s.! Z.e D.a o.6 7 8 6 6 4 @.l 7 7 7 6 6 6 6 6 6 7  .6 8 7 &.2 4 6 6 6 6 6 6 6 6 6 6 6  .X.6 6 6 8 ..2 6 6 6 6 ..7 6  .&.0 6 ' 9 [ 2 2 &.7 [ 2 6 | | [ 2 6 4 |  .6 o.2 <  .",
" .6  . .[ 2 6 ' 5 ' 2 6 4 O.nX}.j 5 o. .| < < |  . .4 | 6 6 7 < ' < < 3 } r.r.s.i.u.^ z.h.V.D.Y.2.j 7 7 0 6  .6  .6 [ [ 0 6 ..7 6  .6 6 6 6  .' ' ' 6 7  .6 6  .[ 3 6 o.9 6 6 4 6 o.l 6 6 < 6 5 | 7 6 6 8 k 6  .6 6  .5 6 | 7 9  .7 o.8 +.d d o.6  .7  . ...0 5 o.7 7 6  . .2 6 < | o.7 '  .o. . .5 6 6  .o. .o...|  . . .o.| 5 7  .o. ...r.NXi.^ ( <Xh.k.z.& D.T.b 8 8 9 7 6 8 8 X.l 9 X.8 6 9 8 8 8  .6 7 7 8 7 ..7  .7 6  .6 6 6 6 6 6 7  .6  .6 6  .7 7 6 ..9 7 6  .6 6 6  .7 < < 2 7  .6 6 7 8 7 6  . .9 9 ..&.9  .6 9 8 ..5 #.%.s f 7 7 ..7 6 6 o.@.f 4 O.,.j  .6 6 6  .6 4 6 6 o.l 7 6 6 6 6 6 2 5 r.mXu.i.s.p./ ;XD.a a 0 6 ..7 9 6 6 6 6  .6 6 6 7 7 6  .7 6 9 6 6 6 9  . .6 6 6 6 6 6 6 6 6 6 6 6 6 6 6 < 6 k &.0 4 < < 2 6  .6  .6 5 6 < < < 5 | 6 6 5  .6 < 6 6  .' < 4 6 6  .6 o.6  .9 ;.@.d 6 2 6  .6 6 7 6 7 ..l  . .< < 6 6 6 6 [ 2 < < 2 [ < ..7 4 ' ' 6 o.6 %.u.BXp.u.qXF.h.J.8 7 8  .6 9 7 ..7 8 6  .6 5 6  .6 7 7 6  .6 6  . ...6 6 6 6 6 6 6 6 6 [ 3 6 4 2 [ < 9 4  .7 6 2 6 4 6  .7 6 6 6  ...5 #.h 0 6 o.@.l  .6  . .9 6  .' 6 6 o.&.9  .",
" . .< | &.f 6 7 O.@.g 6  . .l ..o.2 6 o. .o.@.2 | o.@.9 6 6  .6 2 [ | < O.e.:.p.i.s.^ z.j.D.a X.l 8 8 0 8  . . .6 6 o.x k 7 6 6 6  . .6 6  .6  ...7 8 6 6 6 6  .*.z 7  .| < 6 6 6 6 7 6 6 [ 6 O.f 9 o.0 9 o.[ 6  .6 [ 7  . .9 6  .| 6 } @.g 9 o.6  . . .[ 6 6 9 6 6  ...o.o.6  ...6 6 ' 7  .o. .o.2 ' 6  . . .| |  . .|  . .o.6 ' < < o.' O.d.CX( ) t.% -Xz.j.Z.N c 8 8 8 7 b 8 8 8 8 8 7 7 &.9 6 ..7 &.l ..9  . .6 X.6 6 [ 7 8 ..7 6 X.7 6  .6 6 6 6 6 6 6 6  .6 6  ...7  .6 7 o.[ 7 f <  .7 7 6 6 6 6 o.l 7 2 5  ...9 6 7 9 ..7 | <.N 6 6 5 o.9 o... .*.l 6  .*.l 6  .6 4 4  . .0 O.3 9 6 7 7 6 6 6 6 0 #.y.t.i.CX) Q ;XK.W.d < < ' < ' 1 1 < < < | < < < < ' < < < < < < < < < < < 6 6 6 6 6 6 6 6 6 6 6 6 6 6 6 9 6 6 6 6 8 8 l ' 1 6 6 6 6 6 6 6 9 6 6 6 ..7 6 6 6 9 6 [ 7 &.5 6 5  .6  .6 6 ' 2 *.z 6 7  . . .6 6 < < 6 o.o.7 6 6 6  .6 <  . .o.f 9 o.6 5 | [ 2  .|  .9 o.i.p.s.p.%.Z.h.b o.6 7 X.8 8 7 7 X.7 8 8 o.#.d 6 k 7  .4 6 ..7 7 7 X.X.6 7 7  . .6 6 6 ;.b 5 @.wXR.d 6  .7 6 O.2 6 6  .6 4  . .7 6 7  .6 6 ..6 ..6 6  . . .7 6  .6 6 7 6 4  .' 4 ",
"6 o...6  .7 6 6 o.&.6 | o. . .6 X.&.6  . .| &.6 | 6 &.7 ' 1 6 6 2 [ ' 6 8 :.#.r.i.s.! : k.D.d 6 < 5 6 9 4 |  . . . .6  . . .6  . .6  .6 6 o.7 o.2 6  .< | [ 2 6 6 6  .o.[ 9  .6 6 6  .6 7 7 7 o.l 9 ..7 9 O.&.6 [ 2 l 9 o.7 7 6  .X.X.:.h 9 6  . . . . ...7 7 7 6 6 6  . .7 ..7 .. .@.j 7 o.o.9 o.o.7 6 ' 6 o. . . . . . . .< o.6 [ @.{ 3 l ;.p.<Xg.r.& & ; * q 3 9 k k &.b k 8 k k 8 7 &.9 X.8 8 8 8 8 X.k 8 ..8 8 X.8 ..l 8 8 8 &.k ..8 o.8 8 k X.7 8 X.8 ......7 6  .7 8 8  .[ *.8 0 2 8 6 6 [ 2 6 6 7 8 7 l 8 6 &.l 6 7 9 6 o.l 5 | X.@.9 &.&.< 8 8  . . . .4 6  .&.9  .6 6  .2 O.z 0  .6 ..7 6 6 7 0 ;.e.mXNXs.<XP.R P h l < < ] 3 ' f [ 0 1 1 ] < < 4 ' ' < < 1 1 1 1 < < 1 < 1 1 < < < < < < < < < 1 < 1 < < < < 1 1 1 1 < ] #.h q | < 5  .6 6 4 4 5 6 6 6 6 4 6 < < o.6 7 6 6 6 7 6  .6  . .9 5 ' 6 ' 6 o. .6 6 6 6 5  ...7 6  .6 6  .6 6  .7 &.5 ' < <  .&.9  . .6 6 < :.a.y.s.%.h.a 9 ' 6 6 5 6 < 6 [  .9 6 6 o.>.b | < 4 o.6 9 6 6  .6 6 o.l 5  .' 5 6 6  .6 o.[ 2 *.z 7 6 ..7 6 &.z 8 7 X.o.2 6  .6  .6  .6 6 6 6 6  .4  .7 8 6  .7 7  .o...6  .7 6 ",
"6  . .O.l 6 6  .6  . .6 6  . .7  .'  .[ [ 2 6 [ 7 6 | 4 O.l 9 | ' 2 6 6 4 ;.e.r.f.NX1XQ j.s 0 4 | 1 1 < < < < < ' ' < ' < 1 ' ] ' < < < < < ] [ 2 ' < O.{ 2 2 1 < 1 ' [ 6 < ' < ' < ] 2 < 1 < < 5 6 [ 5 < ' 4 ' @.f 6 < < 6  .6 6 6 | ..6 2 6  . . . . .6 6 .. .6 6  .6 6 | 6 '  ...k 8 | 4 l f ' &.6 O.f 6 o. . .o. .o.o.o. . .6 o.;.1.b ' } #.^ 2XqXk.l.$.P , 3 q 5 6 8 9 8 8 X.6  .{ 0 X.6 6  .6 6 6 o.7 5 6 6 6  .7 ..7 6 6 6 6  . .o.[ 6 6 4  .8 6 6 6 7 7  ... .6 5 4 ' { 0 6  .0 0 |  .6 &.0 6 8 9 6 9 9 7 8 9 6 7 6 8 8 o.8 X.8 X.7 7 9 O.@.0 7 X.7 6 ..7 8 X.k X.k =.k k &.8 &.f 6 7 8 X.8 8 9 4 5 O.p.ZXa.^ ) #.P @ + + T # 3 + + > > > > > 3 > > _ > , , _ 1 1 , , 1 1 , ` 1 1 1 1 1 1 1 1 1 1 1 1 1 1 1 1 1 < 1 < < 1 < 2 7 < 1 < < < < 1 < < < 1 < < ' < 1 < < < < < < < ' < | < 6 6 X.6 2 [ <  .6 |  .6 6 6 6  .< 6  .< | < ' 5  .6 < < ' <  .2 6 < 4  .2  .6 ' < | %.p.f.MXe j 2 ] 1 5 < 1 6 6 < 9 < ' ] ] ' 3 < ] 1 < < < 1 ] < ' < < 6 < < { { < < < < < 6 6 < ] < < < < < < < ' 4 4  .7 4 ' < 4 [ 6 | 4 4 4 4 6  .[ 2 |  .6  .<  . . .6 6 6  .",
"1 ' ' < < < ' 6 ' < ' ' < ' < ' ' [ < O.z f '  .6 <  .6 | 6 4 { 2 6 ' ' ] 1 ;.r.;.r.s.:Xs q 1 ] 1 9 < 1 1 ] ] 1 ] ] 1 ] < ] ] 1 ' < 1 1 ] ] ] < 1 ] 1 ] &.5 ] ' < 2 2 ' < ' < ' ' ] < < 1 1 1 1 1 ] < < ] 1 ] ' 6 2 < | 6 < < < 4 < [ 4 4 < 1 1 < 6 | | 6 6 6 6 6  .' 6 ' | | | 6 6 | 5 O.{ ' 2 1 ' | .. .< ' ' < ' ' ' ' ' ' ' ' ' 4 | | ' o.:.^ 2XVXj.* 0Xs 5 d q 0 5 6 4 ] _ > , ] } + > > > > _ > > > _ > , , , , 1 ] 1 1 1 1 ] ] 1 ' 2 < ' ' 0 l [ < < < ' ' '  .< < ' ' ..9 < 5 5 1 < | < 5 < < 1 < 1 1 < < < [ 2 5 4 4 < 6 5 5  .' l 9 4 6 *.l 6 X.o.o.< [ 1 1 ] 1 1 ` ` > _ > { # + > _ Y Y T T U o U Y g.E g.g.} 3 + @ T E + U   # T   o U   . o   .           X X X X . o o o o o O o O O O + + + + + + > , > > > > > , , > , , , , ` , ] 1 , 1 1 1 1 1 ] 1 1 1 ' < 1 1 1 1 1 1 1 < ' 2 ' ] < < ' ] 1 ' ' < < < < ' < < 6 6 6 ' < < < 4 6 o...6 < < < [ _ 1 < < 5 O.@.0 } s.f.p.d + > 3 >.[ ] 0 , , 1 _ _ , _ ' 1 < 1 ] [ 3 1 1 1 1 1 ' ' < < ] 1 ] @.3 < < < 1 1 ] < < < 1 < < < 1 1 < < < ' < ] < < < ' < ' ' ' 1 < < < < ' < < ' ' < ' ' ' < ' ' ] ",
"> > , _ _ > , , _ ` ] 1 1 1 ] _ _ _ _ ] ] , , , ] 1 1 ] ] , ] ] 1 1 1 ' 7 b O.r.} E { p.$       X @ o @ U U o U + + R Y T T + O o + Y O U O O Y Y Y O + + Y + O + + + Y O Y + Y Y > > + > + + Y + > > > _ _ _ > > > > > _ > > > _ > > _ , , ` , , _ _ , , , , ] _ ` , , , , ] 1 1 _ ] , { f 1 ] ] _ > , ` ] ` ` , ` ] ` ` ` ` ` ` ] , ` ` _ > ' ^ 1XAXL.$ $ P @ @ @ U U I I I       o I I             X X U             X X U X o o U o o o o o + + o O O + T T T T T T o O O O O O O O O O T O o U o o U o o o o o o O o o U o U o U U U o o o o o o + + T T I I I I I I I   I I I I . I   I I I I I I I     I I I E g.= R R o . o + T   o o T @ T . q R I I                   .                                   X @         o T U X X X o o O O O + T O O O O O + > + > > _ > > Y O > > > _ _ + > > > > { 3 > _ > > > > > > , _ , , ` > , _ 1 1 1 ] 1 1 1 1 ] @.3 ] 1 1 ' *.2 } f.r.#.d , + & kXr.T o I   I       X X X X U U X U X X X X U o o O O O U O U O O O U U O Y O O Y O O O O Y Y O O Y O O Y > > _ + _ > _ > > > _ > > _ > > _ > _ _ _ ` > > _ > ",
"U o U o + { E U U o U X X U U U U X o U X o U X X U X U X o U U o o o o O O T E T 3 _ E # # + + # # Y U . . . . . R R # # . # R . # R # R . R . # # . # W R @ @ . . o . R o . . . . R . . . . U o o o X X X o o X o o o O O T o O Y T U O o O > O > , _ > { Y + 3 [ [ _ Y U + o o T T + T O T T Y T 3 O T Y Y + + + Y Y Y Y O Y Y Y + Y Y Y Y O ) i.SX0X) $ $       I I X o o @ O @ # E U o U . g ,.R $ + E   I I       I         . I I       I   I I         I   I I I     I       I I       I       I .   I I   I     I   I     I     U I I I I I     I I I I I I   I I I I I X U U U U U U X U U U U U U   X X U U +.#.$.$.%.W $ $ R T U U o U U       U X X     X . # = = : ; Q ; : = ; : : : W = : l.x.! Q W R # . . . . . . . # # . @ @ . . . $ # @ + = g $.{ @ + > q g rXq.+.$ g } U T @ + Y + Y Y T U U X X X X X o X + T o o X U O o T U X o O O O O T O T Y U U O O O O _ +.g.#.d @.f 3 E ! W # # = = Q W : = W : W = ; : : ; ; Q ; = Q : : Q W = : : Q W = = = = W = W # = W = # R # R # = W # R # R # R # R # # # # # # # @ T $ { T @ , 3 b :.+._ T ",
"*.@.f l.a >.MXQ ;X~ : W W = ; z.;X; Q Q ; ; z.z.c.,Xz.;Xc.,Xc.c.;X;X;X;X; c.,X;Xx.v.9X>XN.v.v.M.M.n.4Xv.N.N.v.N.N.4XN.9XN.4X4XN.N.N.8X8X9X4XN.N.8XN.N.9X9XN.9X4XN.9Xv.N.4X4X4X4XN.4X4X4Xv.4Xv.v.v.v.4Xv.4Xx.v.v.4Xv.v.v.x.U.x.4Xx.x.>Xx.4Xv.v.4Xx.x.V D W.yXxX<.j M tX%.#.f E.g.# { T Y @ # Y T U @ # T o U U X X U U X U o U o U U U U U U U T E p.%.@.<X; $ Y @ @ o o X o @ P { #.; R I $ W # - $.~ # R T     o U I X U U o @ o I   X I U I . . . # I I . . . I . . . . I . . . I   @ + @ O _ + + T T O $ f %.#.} > Y > 3 > 3 P , f 3 > { @.:X:Xx.z.:X;X; ; Q ,X;Xc.,Xz.z.>Xc.x.v.N.4X>X;X>X>Xc.x.,Xc.,X;Xz.;Xz.>Xx.z.eX:Xc.N.8XN.>X>X,X,X,Xc.c.c.c.,Xc.c.c.,Xc.c.x.N.N.N.M.M.8X8X8X8XM.M.M.8X8X8XM.M.M.8X8XM.9X9X9XN.4XN.N.N.N.N.N.9XN.N.N.N.8XN.N.N.N.N.M.M.8XUX! @ P q P 3 #.f.M j #.@.5 9 ] 3 < +.` T T R T @ @ @ # T @ R U @ . . . # = W R # : : W W : Q W = = W = = W = = : ;X>X4Xv.4Xv.>XN.M.9X8XM.M.M.M.8X8XM.M.M.8XM.M.M.N.M.8XN.N.9X4XN.M.M.9XM.M.8X8X8Xv.v.M.M.M.4X9XM.M.4X9X8XM.8X8XM.M.8X8X4X8Xv.M.8XM.M.4XN.4X4XN.v.8XN.v.N.8X9X4XwXM s 0XeX%.#.",
"n.8XN.M.4Xv.n.7XM.M.8XM.8X8XM.8X7XM.8XM.m.7X7Xm.m.m.m.7Xn.6Xn.6X5Xb.7Xm.7X7Xm.M.7X8X8XM.6XM.M.n.6Xv.n.v.v.v.4Xv.4X4Xv.+X4Xv.4Xv.+X+XGXGX4XGXv.+XGXoXv.4Xv.4Xv.4Xn.n.n.4X4Xn.4X6Xn.6X6Xn.6X5Xn.n.n.n.6Xb.6Xn.6Xn.m.GXoX5Xm.M.n.6XM.m.m.m.7Xb.b.M.9XIXUXwX>.@.@.*.b , +.+.g.d [ r.R.p.2 @., + T T U U U O O U o o O T @ @ @ @ = R T # R # R R # W Q ;X,Xc.4X9XN.N.9X9Xv.N.>Xx.4XN.9X8XM.N.4Xx.9X9XN.x.4X>X>X;X,Xc.x.>X,Xc.c.x.>Xx.;XQ z.z.x.>X>Xx.4Xv.v.v.x.>Xv.>Xx.>Xx.v.>Xx.x.>Xx.>Xx.z.0XP.P.;Xz.; ;Xz.>Xv.4XqXp.e.jXXX}.|.*X=XI.I.=Xv.N.N.-XN.M.8X8XM.8X8XM.8XM.M.M.M.8XM.M.8X8XM.M.M.M.8XM.M.8XM.8X8X8XM.M.M.8X8XM.M.M.M.M.n.v.n.n.4X8XM.M.M.8XM.v.6XM.4Xn.8Xv.4Xn.v.+XU.U.wX4XoX4XGXGXGXGXoXv.v.4Xn.oX4XGXoX6Xn.n.n.5X5Xn.b.b.n.n.6X6X5Xm.b.5Xb.#Xb.b.5XoXb.#X9XUX>XP.[ U . $ } { _ f wXz.z.;Xz.;X;X>X>Xv.N.9Xv.v.N.N.9XN.9Xv.N.N.N.N.N.M.8XM.M.M.M.8X8XM.M.8XM.M.8XM.8XM.M.M.M.M.M.M.M.n.M.n.v.U.+X+XU.GXGXU.wXGXv.+XU.U.wXU.GXoXoX4Xv.+XGX4Xn.n.oX6Xn.oX4XGXoX6XJXn.oXoXJX6X5Xn.n.6Xb.b.5Xn.b.6X5Xb.n.5Xb.n.5Xb.n.n.oXoX@XHX@X5X#XJXFXFXUXUXAXAXg I.eXwX8X",
"#X#X$XGXJX%XHX$X@X$X$XoXoXJXJX@XHX#X@X#X@X#X5Xb.#Xb.@X@X@X@XHXHX#X#XHX@X#XHX#X#Xb.b.7Xb.b.n.b.b.#Xb.#X#Xb.#X#Xb.b.m.5X#Xb.#XHX5XHXb.b.5X5Xb.5X5X5X5Xb.5Xb.5X5X5X5XHX#XJX@XHX#X5Xb.b.b.5Xb.b.5Xb.b.b.5X5Xb.b.m.5XqX0Xn.m.b.b.#Xb.#X#X@X5Xb.m.M.GXVXAXIXAXp.@.@.l :.@.{ @.#.Q = ;Xh <Xc.4X,Xc.,Xx.x.>Xx.x.>Xx.v.v.v.4Xv.v.v.v.N.9Xv.N.9XN.N.N.M.M.8XM.M.8XN.v.v.v.>X4Xx.I.oXoX4Xv.n.4X6Xn.HXJX4Xn.n.v.oXoXoXoX6X6X5X@Xb.n.@XGXv.4X4Xv.6XGXFX+XoXwX4X6XoX=XGX+XoXGX+X+XoXoXGXoXoXJXHXn.n.b.8XM.M.M.8X8X8X9X9XUX3XAXIXGXoX@X+X=X-XN.M.M.M.M.M.M.n.oXoXoXoXoXJXHXoXJXn.n.@XoXoX@X6XHX#X#X@X$X$X@X#X$X@X#X#Xb.5Xb.b.@X#X#X@X#X#X#X#X#X@X@X#X@X@X#X@XoXJX#X@X@XHX@XHXHXJX+XHXb.#X5X5X#X5XHXb.b.b.m.5Xb.b.5Xb.HX@X#XHX#X#Xb.b.b.b.b.#X#Xb.#X#X#X#X#X#XHX#X#Xb.#X#XHXn.#X#X#XUXUXIX9X3XW P E I $ -XM.M.8XM.7Xm.m.n.n.oXoXoXJXoXJXv.oX6Xn.b.n.n.n.oX6Xb.b.n.$X@X#X#X@X#XKXwX+XoXn.#X@Xb.#Xb.5X5X5Xb.n.#X%X@X#X#X#X#X@X@X#XHX#Xb.b.#X#X#Xb.7Xm.m.6XoX#X#X#Xb.b.5X5Xb.HXb.b.5Xb.b.#XHX5X5Xb.5Xb.b.b.b.b.b.b.5X5Xb.b.b.#Xb.5X#Xb.5X#XHX#X#X#X#XHXHXKXKXPXPXeX3XDXDXP.s d.j.=X",
"I.JX$XJXJXoX$X@X@X#X#X#X#XJXJX@XJX#X#XHX@X#XJX$X#X#X#X#X#X#X#X#X#X#XHXHX#X@X#X#X#Xb.5Xb.b.b.b.b.b.#Xb.b.#X#X#X#X#X#XJX#X#XHX#X#XJX@XHXJX#XHXJXHX#XHX#X#XJXJX#X#XHXHX#X#XHXHXHX@XHXJXHX#Xb.5Xb.b.b.b.5Xb.5XKXwXwXIXx.=XHXb.b.b.b.b.b.b.b.m.n.GXAXCXSXxXVX3X^ # d ;XM.M.M.M.8XM.M.M.M.n.v.6X6X5X6X8XM.8Xn.6XM.n.n.6X6X6Xn.b.n.GXoXn.n.6Xn.#XJXHX5X6X5Xb.b.b.b.n.n.n.#XJXn.n.HX@X7XKX+Xb.b.b.7Xm.b.7Xm.m.m.m.m.b.m.m.b.m.7X6Xn.m.m.m.m.7X7X7Xm.5X7X#Xb.b.7Xb.b.b.5Xm.m.b.b.b.b.b.b.#Xn.b.b.b.b.b.b.b.KXKXUXUXUXUXUX6XIXU.wX%X=X-X-XM.M.M.M.n.n.n.#X%X#X%X$X%XHXb.n.@X@XHX#X#X#X@XJX#X@X#X#X@X@X#X#X$XFXwX*X%X@XHX#Xb.#X#XJX#X@X$XHX#X#X@X$X$X@X@X#X#X@XHX#XJXHX@XJX@X#X@X$XHXGX+X#X@XHX#XHX@X#X#XHXJX#X#XHX#X#XJX#X#X#X#X#X#X#X#X#X#Xb.#X#Xb.b.b.b.5Xb.b.b.m.m.b.b.6XAXAX9X9X+XUX:Xx.3X,Xk.=XKX@XJXJX$XJX$X@X$X$X$X$X$XHX@X#X@X#X#X#X#X#X#X#X#X#X@X#X#X#X#X#X#X$XeXGX+Xn.#X#X#X#X#X#X#X5X#X#X#X#Xb.#X#X#X#X#X#XHXHXb.#X#X#X#X#XHXHX#Xb.5XGXU.oX#XHXJX#X#X#XHX#XHX@X#X#XHX#XHX#X#XKXoXb.5Xb.HX#X#XHX#Xb.5Xb.5X5Xb.b.b.5X5Xb.5Xb.b.5X5XHXHXKXIXIXjXqX2XDXVXz q l - % ",
"y }.*X$XHX#X#X#X#X#X#X#XJXJXJXJX#X#X#X#X#X#Xb.b.b.b.b.b.b.5Xb.b.#XHXHXb.5Xb.n.b.b.b.b.b.b.b.b.b.b.b.b.b.m.m.b.b.b.b.m.#XHXHX#X#X6XoX5X5X5X5Xb.5Xb.5X5XHX#X5X5XHXHXb.b.b.5X5Xb.b.6Xm.m.b.b.b.b.7X5Xb.b.b.b.6XwXoXn.v.+X$Xb.b.b.b.n.b.#Xb.JXIXxXZXAXAXVXBX3X3X+X-X=X+XoX$XKXJXoX$X$XJXKXOXOXKX#XJXHX#X5X5Xb.#Xb.5X#X#X#Xb.n.#X#X#X#X#XKXoX#X#Xb.5X7X5X5Xb.n.n.n.n.#X@X#X#Xb.5Xb.b.IXU.*X$Xb.b.5Xb.b.b.b.b.b.b.b.b.5Xb.b.b.5Xm.5X5Xb.b.b.7X6XJX5X7X6Xb.5Xb.b.b.5XHX#X#X#X#X#Xb.b.b.b.n.b.b.b.b.b.m.KXGXeXAXAX3XUXUXAXwXGX=XoX=Xk.-XM.M.M.m.n.n.#X#X@X#XHX$X%X#X$XoXoX$X@X@XHXHX#X#Xb.b.n.b.b.b.JXPXbXxXtXK.}.+XOXOXPXvX+XoX$X#X7XJX=X@Xn.oXoX#X@X#X@X@XHXHXb.HXHX#X@X@X@X#X$XGX@Xb.5Xb.b.7Xb.b.b.b.7Xb.5Xb.5XoXn.5Xb.b.b.b.b.b.b.b.b.b.b.b.#Xb.b.#X#X#X#X#X#XJX@XJXIXIXIX9XUXIXAXUXwX-XM.- * U.@XHXHX@X#X@X#X#X#X#Xn.b.b.@X#X#X@X#X#X#X@X@X#Xb.n.b.b.b.b.b.b.b.IXv.#Xn.n.#X#X#X#X#Xb.#X#X#X#X#X#X#X#Xb.7Xb.#Xb.b.b.b.5XwXU.@XoX@X5Xb.#X#Xb.b.5XHXb.5X5Xb.#Xb.HXoXb.5Xb.5Xb.b.b.b.5Xn.HX5Xb.5Xb.b.b.5Xb.b.#Xb.#X@X@X#X5Xb.#XHX5Xb.#X5X6X7XIXAXeXAXMX2XMXZXqXI.U.L.% ",
"w u K.%X#X#X#X#X#X#X#X#X#X#XHXb.b.#XJX#X#X%X#X$X$X$X$X$X$XFXOX$X$X@XJX#X#X#X#X$X$X%XGXwX+X%X$X$X$X$X$XOXyX+XOX%X$XFXyX,.*.P.%XJXoXFXFXJXKXJX$X$X$XJXJX$X$XKXKXJX$X$XJX$XJX$XoX$XJXoXOXOXOXOXFXFXFXFXOXOXOXOXOXOXFXOXOXOX&X&X&XLX*X&X&X|.vXUXDXBXVXBXNXu.2X<Xh - G.XX<.L.+X@XoXGXU.oXn.M.5Xb.HXKX+X%X#XHXHXHX#XHX#X#X#X#X#X#X#X#Xb.HXHX@Xn.n.#Xb.b.5Xb.m.b.b.b.#X#Xn.#Xb.b.b.5X@XoX6Xn.n.b.b.b.b.5Xb.b.b.b.b.b.b.b.5X@Xn.b.@X5Xb.b.#X#X6XGXJX5XGXoXHXb.7Xb.7X5Xb.5XJX$XoXb.b.b.#X#X%X$X$X$X$XOXOXIXAXVXAXDX2X3X2XAXPXwXXXM D.k.k.n.m.n.n.n.#X#X#X@X@X@Xn.#Xb.JX#Xb.#X@X$XJX$X@X@X@XoX$XoXFX$XKXIXKXIXn.+XI.+XbXgXU.+XOX*X&X}.+XwXI.=X+XoX@X$X@X$XHX#X$X$XJXJX@XJX$XJXJX$XJX@XKXoX$X$X$XJX$XFXoXOXOXFXFXOXFXOXFXOXOXOXOXOXOXOXOXOXOXOX&XLX&X&X&X&X&X&X&X&X&XLX&XPXeXqX>.AXUXUXUXUXIXD.I.z.% s a =X#X#X#X#X#X#X#X#X@X#XHXb.b.b.b.#X#X#X#X#X@X%XKX+X$X$X$X$X$XKXGX%X#X#XJX#X$X$X@XoX$X$X#X#X#X#X@X#X%X$XoXKXoX$XJXJX%X$XoXoX%X$X$XJXJXFXOXJX%XFXFXOXFXFXOXFXOXFXOXFXFXOXFXOXFXFXOX*XOXPX*X&X&X&X&X&XLX&X&X&X&XLX&X&X&X&X&X&XLX&XLX&X&XFXPXVXAXqXAXCXCXDXZX$.d Y.L.y ",
"w w y J.+X$X$X%X$XKX$X$X$X$XJX$XKXKXJX$X$XFX*XOXOXFXOXFXFXFXOXOXFX*XLX&X&XLXLX&X&XLXwXLXU.|.|.|.|.|.bXe.rXT.'.W.XXbXMX$.P.+X|..X.XvX.XvX.X|.&XvXvXvX|.vXvXvXvX|..X.XvX|.vX&XLXLXvXvXvXvX.XvX.XvXvXvXvX.XbXXX.X|.vX|..XvX.X.XvX.X.X.X.X XXXeXUXVXmXBXBXmXZX<XW * * n |.K.=X@Xm.M.n.oXoXn.8X9XJX6Xn.%X#XJXHXHXb.b.GXGX+XoXb.b.5X#XJXoX#XHX@X@X$X$XJX#X#X%X%X%XKXwX+XOXOX$X$X%XFXGXOXOX$X$XOXOXOXOXOXOXOXOXOXOXOXOXOXOXGXU.&X&X&X&XvXvX|.&X&XLXPXIX|.*XOXOXOXOXFXOXOXOXOXOXOXFX&XPX&X&XLX|..XcXvXcXnXDXBXBXCXZX2X2XjXxXxX<.].% h.h.J.0XP.=X$X%X%X$XKX$X@XKX#X#XJX$XJXJX$XKXKXOXOXOXOXOXFXOXOX%XwXwX=XKXFXKX=XbXnX+X+XPXPXvXvXcXT.}.|.kX@.I.LX*X&X&X&X&X&XLX&XLX&XLXLX&X&X&XLXLXLX&X|.vX.XvXvXvX.XvX.XvXvX.X.XvX.XvX|.vX.X.XvX.X.X.X.X.X.X.X.X.X.X.X.XvX.X X.X.X.X.XAXeXwXUXAXAXUXIXUX0Xd ; B.G.y e I.%X$X$X#X#X#X#X#X#X#X#X#X$XKXJX$X$X$X$X%XGXtXU.=X$X$X$XoXOX$XOXOXOXOXOXFXOXOXOXOXOX*X&X&X&X&X*X&XLX&X&X&X&X&X&X&X&X&X&X.X|.vX|.|.|.|.LX|.|.LX&X.XvX.XvX.XvXvXvXvX.XvX.X.XvX.XvX XcX X.X.XvXvX.X.XvX.X.X.XvX.X.X.XvX.X.XvXvX X.X.XcXkXp.%.eXAX2XVXAXUX) $ P s B.",
"w r w e J.}.&X|.vXvX.XcX X X X XcX X XcX XjXXX XcX X{.hX{.hX{.hX[.hX[.{.hX[.[.{.[. X X X X X X X X XhXwX+X|.|.XXXXcXPXU. XhXhXcX X X XcXgX]. XcX XcXcX{. XcXcXcX X XcXcXcXuXN /. XcXcXcX XcX X XcXcXcXcXcX X{. X X XhX{.hX[.hX X{.[.hXhX`.w.VXZXCXMXt.qXeX2X>Xk.% p K.K.K.I.I.I.U.U.eX}.nXIXwXW.6X#X$XJXJX$X$XqXrXjXU.+X$XoX$X$XOXwX|.&X$X$XOXOXOXOX&X*X*XvXtXbXT.W.U.|.|.bXQ..X X|.|.|.vX|..X.X XcX.X.X XcX XcX X X X.XcXiX'.cX@.M W. XcX{. XbXLXXX XcX XhX[.{.hXhX].{.hX`.sXhXhX`.pXsXiX[.hXhXxXDXNXMXCXZX1X2XnXlXjX|.*XK.h.h.P < a K.OX&X*X*X&X|. X.X|..X.X.X|.|.bX0XXX&X&X|.vX|..X.X XvXAXGX+XLXLX&X|.IXoX=XbXbXbXvXvX|.=XeXbXwX>XI.cX X X XcX X XcX XcXcXcXcXcX X X X X XcXcX X XcXcXcXcX X XcX XcX XcX X XhX{. XcXcX XhX[.[.[.[.hXhX[.[.[.`.sXsX`.[.sX[.`.jXAXeX3X2XVXAXAX2XmX- : B.i G.w u I.OXOXOXOXOXOX*XLX*X&X&XLX&X&X&XLX*X&X&XqXL.I.|.|.|.|..X X X X X X X X X X X X XcX{. X X X XcXV ]. X{. X{.[.[.{. X{.dX[.].hXcX{.[.[.[.[.[.hXiX/. XhX[.hX{.cXcXcXcX XcX{.hX{.{.cXhX{.[.[.hXhX[.[.[.hXiX[.hX[.[.`.`.`.`.[.hX{.[.{.xXr.qXwXMXy.3XAXDXDX<XS $ * V.",
"w w w w C.T.(.).6.6.6.6.).J J J J pX).J 5.pX`.).pX).).).).).).6.J J ).6.).).).J ).H J ).J J J J H 6.F )./.H H J J ).J G J ).H ).pXJ 6.pXdX'.J J 5.5.5.pXJ 5.5.7.G G G aX).MX%.g (.pXpXpXpX).pX4.(.pXpXpXpXpXJ J J 6.).6.6.6.6.J 6.J 5.6.).zXlX2XCXBXmXwXqX^ <Xl.y p s s p g R.}.XX].bX0XzXxXmXh OXFXOXOXFXOXeXeX&X+X+XbXQ.U.|.*XjX0XXXE.T.jXhX{.cX{.cXfXC uXbXnX<.g T.[.{.jX{.].{.{./.^.'.[.[.hXtXM C A /.iX[.[.[.sX`.).sXyXyX$.Q I. X`.sXsXJ sX[.{.).sXJ pX).).pXsX`.).aX<.~.sXpXsXiX`.`.`.`.pXhXeXZXi.CXCXCX2Xe.lXfXY.].F.h.V.V.y a g R.'.]._.`.sXA Z ).).(.).).).).0XP.J (.).).).`.`.).(.yXPXFXIXbXbX*XXXW.W.jXcXvXvX*XI.G w.}.XX|.{.pXJ 7.-.Z `.).).pXpX).pXpXsX_.).).J ).5.pXpX(.7.6.5.pX4.H pXJ 5.5.5.J J ).6.J J pXJ pX6.).J J 5.6.7.J J ).6.6.J J 5.5.5.).jXAXmX2Xa.SXnXAX:Xz.z.y i r A.r u W. X X X{.hX_.hX{.`.`.`.).`.`.[.`.`._.jXI.H.`.`.).`._.`.).).`.).`.`.).).J ).).pX).^.H ).).)./._.).`.).7.A (.J J pXsX{.).5.5.).).).6.5.J 0.;.l M 3.A F 5.5.J 5.J 5.5.J 6.6.5.5.6.J ).3.C 5.).6.5.5.uXJ 6.J J J 6.J J J J 3.H ).lXqXnXnXVXMXmXAXAXAX! I.eX% y ",
"w w w w i m F 5.J J 5.J pXpXJ J J J 5.J 6.6.5.J J J J J J 5.G J 6.J 5.J J J J D H H J J J J J J 3.z (.J J J J J H J J D J 2.C C 5.D 5.3.F 5.5.5.J 6.pXJ 6.5.5.pXJ 5.G 5.F jXGXW.5.J 5.5.J J 6.`.).6.6.).pX).).pXJ J 5.J 6.pX).).6.6.pXpXJ gXVX2XCXBXBXrX) <X! - h.m L.w u p K.T.!.].9.w.zXe.%.U.[.Q.hX{.yXhXqXbXwX}.fXQ.Q.uX(.,.$.XXgXiXT.sXjX~.3.`.`.lXN m 2.p.h }.].).J aXiXF G (.pX/.J ).).3.gXzXM Y.).).).5.5.J 4.pX).).hXbXXXpX6.).6.7.).D pXJ J 6.V ).pX).pX).`.uX6.sX).6.).pXpX`.pX).pX).`.tXAXAXa.CXZX( } >.xXz 2 P h.C.C.C.u e L.^.Z 5.G 7.E.Z J J J 6.H 5.G 6.rX^.S G G J N C J F G J J hXnXLX*XnX'.T.cXvX|.|.XX!.gXQ.Y.G G G 9.z V yXM c F 5.5.5.G 5.J J J J G G 5.5.G J 5.7.5.5.5.pXJ J 7.5.5.J J J J 6.J J J J 5.6.6.J 5.5.5.5.J J J 5.J 6.5.J aX~.).J xXmX1XVXlXlXVXUXP.z.y i i i G.w a pXG G G G J J 5.J J J ).J J J J J G 5.Q.Y.J 6.S J >.K J G J J J G J 5.F F G 5.G J J F J J C G D G 5.5.`.J 3.F G 5.C 5.G J J 5.5.5.J 9.;.:.z j n w.b J J 5.5.G 5.5.G G 5.6.J 6.J 3.1.R.J O.0 H J G 6.J J D ).J ).J J 8.E.!.).lXp.gXxXmXMXBXZXmXZX:X=XUXj.y ",
"w w w w i m Z J J J J J G J 5.J J J J ).6.J J 6.6.6.J J 8.K 6.C J J J J J J J (.J J J J J J J H q.h L J J J J C F G J J pXrX~.J J 6.5.iX(.5.5.J J J ).pX6.9.A J J 6.6.J 6.J J J 5.J 5.6.J G 7.D J pX).6.3.).6.5.J 6.J J J 6.5.G pXpX6.6.(.dXSX1XmXBXBXp.s.<X! & e a K.J.i p p j m 2.:.=.:.%.P.`.D A aX4.N 5.jXnXW.Q.<.}.jX3.8.0XT.sXzX^.T.aXsXq.@.!.[.xXvXQ.E.bXI.!.J J J J pX8.!.6.J ).pXC F fXE.jX|.!.J >.>.z L ).J J ).).6.C C 6.J ).8.V ).).J ).).pX`.).pX).`.uXG 5.pX6.).pX(.pXpX5.).^.pX7.J kXVXAXCXCXZX2X<.].q.q.;.s h.C.C.C.G.Z.n sXH J pXJ ).H F J H ).J 5.J 3.F 6.J J D H %.$.Z J J J J G pX{.(.iXbX].`.{.{._.).).).{.Z G 5.G 8.Q.H `.jXrXm 7.5.G J J J 6.J 5.5.J 5.6.J 4.N 7.6.6.pXJ J pX6.6.J J J J J 5.6.J 5.J J 5.J J 6.6.5.J J J J J J 6.pXJ ).).).).lXAXmXAXAXxXMX<XP.z.y i r r G.C.H.6.5.J J G F J ).).6.J J J J J J J J J 8.N J J (.5.rX!.J ).J J J J J 5.J G G J J 5.F J F 6.rXB 6.J 9.B H 5.6.G >.>.*.L pXG 5.6.J 6.J q.e.Q.bXL.!.gXyXS 5.5.J J 5.5.5.5.G J 6.D J pX[.`.gX$.L.(.8.N J J J (.J J J J ).`._.).J d.qX.XnXVXMXu.a.NXZX<XT.VXj.y ",
"w w w w p m Z J 6.6.J 5.J 6.6.J H J ).5.6.J 5.6.J J ).J fX].sXiX(.pXpXJ J J J J (.J ).J J J J G q.jXj Z J C 2.D Z J G G v C N -.v J J J 5.5.J J 6.J G 5.5.6.`.J J J ).pXJ 6.5.6.5.J 5.J 5.J J ).>.D J 7.uXJ 6.6.J J 5.J J J pX^.J pXpX).(.6.SX1XmXBXBXNXZX1XqXj.V.J.i H.H.H.p g g tXkXtX0XW._.J 6.G F fXrX~.pXyX].7.hXz 0.D G jX{.`.tXgXb M H xXeXd C 5.).jX9.-.n J ).6.J ).8./.^.).C H aXrXZ 2.D ).dX_.9.$.T.!.Y.J J ).G J 6.fX~.).).).uX/.pXD pXJ ).J pX).).).6.6.1.V ).6.6.pX6.J ).pX^.J 8.4._.qXd.VXCXCXBX2XP.jXBXtXzXL.h.G.w C.C.V.n 5.J H 5.3.F J F H ).J 5.6.J fX!.6.J ).).H gXwX!.J F J J J J G J G G J J J J J J J C F J J G J 5.>.F G G hX(.5.5.5.J J J 5.5.5.J J 5.5.J 4.rX5.5.5.G J 2.z J 5.J J J J J J 5.5.J J 5.5.J 6.5.6.6.J J J 6.pX6.J J J J J ).J jXAXCXu.mXDXBX<Xh ; B.i i r r w p 5.5.J ).).H J G 2.G ).).J J J J J J J iXQ.J J J G G J J 5.C 2.z J 5.J J 6.J 5.K fXV H J G J J J J pX`.5.G 5.J iX0XQ.n 2.J 5.J 5.5.J ,.;.n XXQ.5.J 5.6.5.5.J 5.5.5.J J J ).6.J 5.J G G 6.XX^.5.pX/.J ).J J J ).J J G H H ).uXxXbXbXnXAXeXBXZXNXZX! s y.l.y ",
"w w w e J.m m H 6.J 5.J ).6.).J 5.G G 5.5.J 6.6.J J 5.J ).6.G J J G J ).).J J ).J J J J J J J J zXgXE.n J 1.R._.F J F 9.$.0 6 &.h H 5.G 5.J 5.G 5.G 5.5.5.5.5.pX6.J J 6.5.G 5.J J 6.6.J J ).J 7.iXJ 3.N J J 6.6.J 5.J J J J J J 6.6.pXpXJ ).lX1XCXBXNXNXmX1Xt.- y p i p p H.G.J.].sXcXbXXX).J 6.7.6.J G uX_.6.6.G G 3.6.).pX).fXjX[.jXzXR.XXpX).MXI.Y.pX).,.O.N Y.Z ).pX(.J uX).).7.<.Y.6.sX).dXE.6.).).tXFXXX'.W.pX(.7.>.Z pX).sX).6.J ).J 6.uXJ J J ).).).pXD 6.).iX`.pX4.).6.pX).6.J ).pXsX`.Z kX#.#.CXmXNX2X; ;.q.nXzXg h.G.i u u Z.Y.pXJ J 5.sX(.J J H G G J J J pXH J J J J J J H G J J J J J J J J J J J J J J J J 7.N Z J J J J 5.iXJ G F G 5.G 5.J J G F 5.5.5.G G G 5.J G 5.5.5.7.^.F 1.$.F 5.J J J J J 5.6.J J J 6.).J 6.6.J J J J J J 6.pX^.pX).).J J J pXMX/ i.CXBXmX^ Q ; B.i r i r w p pX6.H J ).).J 9.$.Z J 8.A 6.D J J J J J G 6.S J 6.~.J J ,.M q.e.b J J J J J pX~.5./.H J J G C C G F C 5.J J J G J hXiXV F 6.5.5.6.F kX0Xg j 5.J 5.5.5.5.J 5.5.J 6.5.J 8.l K 6.5.6.J 5.J 5.J J 5.G J ).J J J J J J ^.(.H J F fXjXcXSXVXqXBXa.NXZX:Xd } - y ",
"w w w e H.}.T.J J 7.5.(.pXpXJ 5.J 6.J 6.H ).6.pXJ J pX(.J 6.^.).pXpX(.J J J J J J ).J J G J ).).fXgXQ.R.5.`._.J J J J J yX0XP.XX_.5.J J J J 6.6.5.J J 5.5.pXG 2.G J J G 6.).J 6.5.5.J 6.J 6.A J 5.J 9.P.J J 6.pX6.6.J J J ).J ^.sX6.6.).).J zXZXVXVXNXBXa./ :Xl.y p i H.p i i p ^.sXpXpX6.).6.6.pX6.5.J J 5.G pX).uXpX).pXpXJ 4.jX'.fXnX}.C pXpX0XQ.pXJ 1.O.0 K.XX^.).).pX(.^.).J 7.Q.).3.J J ).`.J J 6.).iXyXQ.N D ).gXyXZ D 3.A pXpX).pXpX6.6.).).J (.6.J 3.6.).J 6.).6.pXpXpX).pX).).).).pXpXH 1.p.p.ZXCXNX1X;XyXzX9.lXL.% G.G.H.C.Z.Y.6.J 6.J J ).J H J J J J G J J J J J J J J ).3.L H J J J J G J J J J J H J 5.J J 6.yXY.J J J J J G J 9.N G 5.J J 5.G G F F 5.7.J J G 5.J 5.5.J 5.J 6.5.J `.6.5.6.J 5.6.J G J 6.2.F 5.G J pX6.6.J J J J J 6.J J J 5.J ).).).).qX1XMXmXi.BX<X! ; y i r i r w p 5.pXH J D G J pXyX(.J uX^.6.`.6.J J J J J pX).G J J J G tXW.jXnXR.J J 5.D J J F J 5.>.G J J 9.V J 5.>.Z 5.G C J J G G pXJ G J 8.K G 4.LXvXR.H 6.J 5.5.J J 5.J 6.5.pX(.e.$.g 5.J 5.6.6.D ).J J 6.).J J ).J J J J H (.J F F G 5.sXgXSXVX<Xu.CXNXNX^ b :.& B.",
"w w w w V.T.aXJ J pX`.H 6.J 6.).).pX).).`.J pX).).pXJ J J J J J J J ).).J J J J J J ).).).J J G uXyXQ.D (.).J J J G F J G hX'.G G J J G J J 6.6.J J J 5.J 5.$.f M sX5.G J J 6.5.J pXJ J J pX).J J 6.).).).).J J 6.).).).).).pXY.yXgXJ J J J gXZXAXy.ZXu.mX1X<Xl.y H.H.p i H.p H.`.).hXpXsXpXpXpXpXpXpX).J 6.(.J ^.aX6.J J 6.5.6.J aXG Q.jX^.`.pX`.pX0.S qXxXL.}.pX).).).).).).).pX>.L pX`.).).J ).).6.J pXJ J 1.h Z 6.J `.pX).e.M (.6.).pXpXpXpX).J ).J 6.aX@.m pX).).6.6.J pX).pXpX6.(.pXJ pX).J q.ZXBXa.u.BX2X0X6.e.:.#.- h.i i i C.e n 6.).).).J J J J J J J J J J J J J J J 7.2.L rX'.).J J J J J F C J J G G G G G J G ^.(.J J J J J J G 7.Q.H 5.5.J 5.5.J J 6.G J 5.5.J J 5.J 5.5.J 5.J 5.J J 5.6.6.6.D J 6.).2.z /.D 6.8.K 5.6.).J ).J J J ).6.J 5.uX(.).).`.sXd.2Xp.MXVXu.) = - B.i r r i w p J J 5.J ).J (.).J J J J J J J ).).J J J J J J ).).).).J ).J J ^.).J J ).).J J H J 9.1.Y.6.J ).`.G 5./.J G 7.>.B 7.J J G 5.J 2.V _.5.J 0.z ^.5.6.6.J 6.5.J 5.5.J J G J lXXXT.J 0.N J 6.J J J J ).pXpXJ J J J J 6.F J J (.J 5.J H 9.lXMXs.NXNXNXNX^ $ Y * e ",
"w w w w w L 7.J ).J J J 6.6.J J J J 6.A J 6.pX6.5.J pX).6.6.).).J J J J J J ).).).J J J J J J J F J pX).G J J J J ).H J ).G 5.J J J 5.4.H ).6.6.5.5.J 5.J 0.jXIXh N pX).J J D 6.G 5.).).5.G J ).).).pXJ J 5.J 6.6.6.J ).).J pXF *.8.).J ).J dXVX3XBXu.VXVX1X3Xl.y p p p H.p G.i ^._.pXdXuXaX6.pXpXpX).pXpXJ J J G 7.6.J 7.D 5.6.6.7.^.G gX`.pX).0.-.rX!.gXUXK.!.pX).).).).).).).sXjX!.6.).).).).6.J 6.D D ).1.XXXX4.~.).J <.>.q.W.J pXJ ).pX6.6.pX).(.pX(.aXbXW.6.).J 4._.pX).6.).pXrXS sXJ J `.).%.1XNXZXmXMX1XqX,.#.R.IXj.% F.C.C.C.V.m J J J 6.).J J J J J J J J J J J J G J 6.hX~.1.K J J J G G 5.#.h H 5.4.V (.J J J J F G 5.5.F G 5.J J J ).5.5.G 5.3.J 6.5.N J G G 5.J J J 6.J 6.6.5.J J J J J J J 6.6.F ).J kXL.8.K ).aX^.H 6.pX).).).).).pX6.J J (.).J J G 7.BX( ZXnXDX/ ^ - - V.i r r A.C.p J J 6.J J ).J G J J J J J J J J J J J J J J J G G G J 6.J J D G G J J J J J J F J 7.Q.Z 5.J J G J J G 5.J 6.Q.J J J J J 5.J 7.~.J 5.G zXW.F 5.G 5.5.5.5.G J J 7.;.@.Z aXXXJ 5.fXQ.J J J G J H 0.l L 6.).6.J 6.J J D 2.z F J pX(.zXe.%.CXNXNXNXNX<XrX$.% e ",
"w w w w C.R.pXD J 6.).J J pX).pX).pXpX).J J J 6.6.J J J J pX).J J J ).).J J J J J J ).).).J J J J F J J 8.S J J J J J H 5.J J J J J J ).J J 5.5.5.5.J J J gX/.dXqXh (.6.J 6.J J 7.S J G 8.V J ).6.J 6.pX6.J 5.5.J J J J J 6.J 6.pXH 6.J 5.J !.qX<XBXu.NXu./ ZXz.y p i p p p r J.5.J 5.5.5.7.6.6.6.J 6.6.sXpX).6.6.pX4.pXuX).9.V 7.J 6.7.pX6.J ).tXW.hXuXJ nXE.B pX).).).J J ).).J ).pX).).J J J J ).6.uXH 6.yX_.5.pX(.6.J `.hX{.(.J ).J 6.J pXpX).).J J 8.S ).pX_.iX6.`.).6.6.`.uX).gXE.5.).).D J %.CXNXZXBXBXCX^ #.$.T.e.- h.w w C.w e Y.J J J J ).J J J J J J J J J J J J ).J J H J hX(.J J J G F 7.wX].G J ).).J J J J J J F 5.J J G 5.J J J 5.6.J J 5.).5.G 1.M L pXJ 6.6.J J 7.5.J 5.5.J J J J 5.5.D 5.6.J 5.G iXQ.0.N K D (.pXJ J J ).J J J 7.).).).J J J 6.H 6.xX1XVXxXVX1X( ; - V.i r r r w p 6.J 6.(.J J J J J ).J ).J J J J J J ).(.6.J J fX*.N >.K 6.J J 6.V J J J J J 5.H J J ).J J J J J J 5.J J 6.J F G J 5.J J J 5.5.).J 5.J pX(.J 5.5.5.6.J 6.).5.*.M jXbX~.5.5.5.J G J J 5.5.J J ,.+.> d (.J 6.J ).).).).gXQ.B J J !.q.e.qXmXBXa.NXu.^ >XqX% e ",
"w w w e L.sXpXpXJ J J 6.J ).).).).pX6.J pX5.J 6.).).J J J J 6.J J J J 6.).).).).J J J J J J 6.J J H J J ).).J J J J (.6.J J J J J J J G J 6.5.6.6.J 6.5.5.).`.sXxXP.J 6.J 6.6.J ).pX;.B pXpXJ G J ).J 6.6.6.5.).J J J 6.*.F pX^.6.^.J 6.pX).C %.^ u.BXBXZX1XZXP.h.H.p i p H.r g 7.K 7.J J 7.^.aX5.J J ).6.6.).pXJ 7.E.).6.6.pXsXpXpXrX(.pXpXpX6.).pX6.pX(.zXkXY.6.).).).).).).).pX).pX(.pX).).).).J 6.`.pXJ J 6.).pXJ J ).;.0 J J ).pX,.B pXpXpX).).).).sX`.J J ^.<.(.pXJ pX`.)./.dXJ fX4.(.pXpXG %.CXNXZXBXNXZX) { R 3 { * B.w C.w A.V.n pXJ J J J J ).J J J J J J J J ).J J J J J J G J J J J ).J ).H J J J G G J J J J F G J J J G J J J J G J 5.5.J J G 5.J aXyXY.6.G 5.J ).6.5.J 6.G ).J J J 6.4.uXH 6.J 6.J J J 9.9.XX!.).G J J J J J J ).J ).).).).pXJ J ).(.pXw.<XmX%.y.AX2Xz.j.Z.G.A.A.i r p 6.J J J J J J J ).J J J J J J J J ).).J 6.pX(.1.,.Z Q.R.7.D J 6.).J J G J ).).(.J J J C N J G J J J J J J 6.J J J J 5.J J 5.J J 5.6.4.5.D J 5.J 6.6.5.J 8.>.Y.].J 6.J pXpX6.J pX).8.D ).6.J tX#.W J.(.6.).).J J J H ).[.`.).).H %.W.wXmXu.a.u.CX:X9XUXk.y ",
"C.w w w B 6.).hX>.K ).).`.).6.5.G 5.6.J 6.1.B pXpXJ ).J J J J J J J ).).J J J J J ).J 5.H J pX).(.J D J J J J ).).J @.M 6.6.5.D J J J F G 5.J 6.6.J J 6.).J 5.J iX~.J 6.6.J J ).J 7.0XR.5.J 6.).(.6.J 6.J 7.).).pX).J 7.yX!.6.).pXpX6.J ).).gXMX2XVXmXi.CX1XNXh % p H.i H.p i p 6.D J sX6.fX^.pXaX(.).J 6.).6.6.6.J ).6.pXpX5.G pXpXsXpXpXpXpXpX6.J pXpX).sXyXR.pX).).J ).D J J ).).pX).).).).J J ).).J pX`.).).J ).).).aXp.& g 6.J 5.yX{.5.).pXpX).pXJ ).6.4.(.6.J ).6.(.).pX).D 7.4.(.[.pXJ pXsXlX1XNXNXNXNXZX<X# d z P.k.y w C.C.C.V.n 5.J J J ).J J J J J J H J J ).J J ).9.N (.J J J J J J J ).J J J 5.C H J J J J 6.4.Z J J J J J J J 6.J G G J J 5.6.J J J `.J 5.3.F J G 5.6.J 8.S J 6.J J J J J 6.J 5.5.J J G fX{._.).pXJ J J J ).J ).).).).J J J 6.).).J J 6.r.t.VXqXMXy.2Xc.l.e i A.A.i w p pX).5.G J J J J J J J J J 6.J J J J J J J 6.F zXtXm Y.5.J `.J 5.J J J ).H J J F J J 6.1.Y.J 4.F 5.J J J J J 5.J G G J 5.G 5.J J 5.J 6.).).5.J 6.J 6.J 8.q.<.Y.5.G 6.J 5.J 5.J J 6.dXJ J J J C eXx.T.6.J J J J ).).).J F J J J J nXP.;.t.u.CXmXZX! x.2X& B.",
"w w w e B 6.!.dXqXR.pX_.6.6.6.6.6.J ).pXJ sX^.6.pXJ J 6.J 6.J J ).).).pXpXJ J J J J pX).J J J ).).J D 6.A ).(.J H q.0XZ G 5.`.).J J J J G J G 5.J J 6.5.6.J J J ).).J 5.J 5.G J ).).`.pX).).pX2.x F 6.6.6.pX).pX).).J ).`.).J ).6.5.6.J A ^.9.d.CXMXt.u.t.1XZXL.y G.p i p p H.i (.pXZ 4.7.J pXJ pXpXpXaXA J pX).pXpX6.5.5.).fXE.J 6.6.pXpX6.6.5.6.).).pX).).).pXJ ).pX).pX/.).).).pX).).).).pXpX).).6.6.J ).).J ).J J J 8.AX=XY.6.).6.H 6.pX6.J ).6.D ).J 4.~.pXsX4.K `.D 6.J ).6.6.hX`.8.G <.B 7.e.2XmXNXNXNXZX<Xz.c.|.I.h.e w w w C.V.n 5.J J J J 5.).).J J ).(.J 6.A J J H gXQ.F J J J J J J J 3.F J F 9.E.Z 5.J G G J ).J G 5.J J J J G G J 6.J J J 6.J J J 6.J J J pXJ 5.5.J J 5.6.J J 6.J 5.J J J J 6.6.J ).J ).J 5.J D J J J ).).6.J J J J 6.J J J J J ).6.H 0.) s.qXVXVXDX2X:Xz.y H.A.i i w J.pX).aXV F 6.3.S ).J J ).).).J 6.J J J ).8.N H pXbX}.(.pXD G J J J J J J J J ).J J J 5.yX].7.).6.S J 6.J J J J J 6.6.C G J J 5.J J 6.).pX>.K G J 6.6.J pXxXXXR.7.J J ).6.J ).).6.C J J J J q.h (.bXR.7.D J J J J D J !./.J J J !.hXlX%./ NXNXmXCX! - 2X& y ",
"w w w y n pXF C fXpX).J 5.J J 6.6.).J 6.6.J 5.J 6.J 6.).J ).pX4.K J J J 6.).pXJ J J J J J J J S ).J J pX^.J G J J rX'.).J ^.J J J J J J J J J J J J J 6.6.).J 8.S 6.6.5.G 6.(.6.*.l H 6.5.J 6.%.h !.5.J ).pXJ J J 6.).J J J J J 6.).pXpX`.{.e.p.MXi.BXVXMXVX/ g e H.i H.p H.i H.).pXJ C pXpXpXpXpXpX).aXiXJ pX6.J 6.pXfXV ).pXsXpX6.`.pXpX).sX4.`.pX).6.J ).J 7.D ).).J H J ).6.G ).).pX).).J ).).6.pX).).J ).J pX).).pX).xXQ.J `.<.h (.).6.).pXN 3.^.).dXE.D ^.).gXR.5.6.(.).).).).).6.dX/.{.iX1.e.a.ZXNXNXNXCX<X,X= b f % Z.w w i w V.n pX).).J J J F J ).).).J ).sX/.J J J J ).J J J J J J J 5.rX~.J J ).`.J J J 6.J J G J G G J J J J J 5.G J J 5.G J 5.J J 6.J 5.G G 5.J 6.J 6.3.G ).J J J 6.J J J 5.J 5.J 6.J ).pX).).pXJ ).D J J 5.J J ).J 6.).J J ).J J 6.(.e.s.1X%.qXVXBXCXZXz.y G.r G.p w p 7.J pXfXZ pXiX(.J J J C F 6.).J J J J J rXQ.).J J (.G J ).).J 6.(.J J J J J J J J 6.D J J 5.J ).).G J J J J J ,.B pXiXH 6.J J J J 5.J 7.iX).7.F 5.J J J dX{.J 7.J J J 5.J G G 6.uXH 6.).J sXXXJ J J ).uX).).J D ).(.H A (.6.).Z 2.xXmXa.BXNXCXa.<Xl.( j.y ",
"w w w Z.Y.6.).J 5.J J J pX6.J 7.^.).pX).pX6.).J 6.6.5.J 6.J ).aXE.J 6.J ).J J ).).pX6.).).).J (.J 6.J J J J J J J (.J J J J 6.J 6.J J 6.D J J J J 5.J 6.uX(.J fXE.5.6.pX).5.5.:.$.L.B 5.J ).J hX{.7.J J J 6.J J J J ).J J ).6.J ).J 6.H W.gXd.VX1XZXSXBXNXs.ZXP.Z.p H.p i i r H.).pX6.).^.6.6.6.6.pXpX6.6.pX6.6.^.).pXsX`.pXpXpXdXuX).pXsX<.K rX(.pXpXpXJ ).).fXB J ).`.`.).).gX~.J J ).J J ).).G J ).).6.pXJ pX).^.pX).).gXE.).).iXQ.).pXpX`.;.z m `.D J sXuX(.6.dX`.pX`.).`.aX6.(.pX).).pXD sXjXSXy.CXZXZXBXZX<X,X= , = k.w u w H.G.e n 5.F ).J H w.>.Z J H pXJ J 5.G J G J J J J J 5.J J J 5.J H J J J J J ).J J J J J J J G J J J J G G J 7.A J J J J 6.J G J 1.j (.6.3.F 6.J J 9.S J J 6.J 6.J J J 6.6.J J 4.J G J J J 6.).J uX(.6.pX).).J J ).).`.).).J J ).J y.u.i.nXnXVXeX2X^ l.y i r i i w a pX).J pX_.J J J J ).pXfX3.L 5.J J J J 5.H 5.6.J J 9.B pXJ J D ).>.M ).J ).6.J J J ).pX^.J 6.J J 5.J G J J J J jX'.J J 5.J J J J J J J J G 5.6.J G J J 5.5.J J 6.J J 5.C J J J J pXJ ).5.J (.G 5.).).J J 5.G 6.(.J 6.H ).J J J G F gXa.CXNXmXCXCX<XP.2X& y ",
"w w w e g 6.).6.J J pXJ J pX).).pXJ J ).6.pX6.J J pX).).pX).J pX).5.J H J 6.J J J 6.).).).6.S J J J J J 5.H ).J J J J J J J J J J J 5.J J J J J J 6.J J J J ).J J J 6.).8.h 0XjX}.XXB K ).).).J 5.6.J ).5.J J ).6.J J ).(.J J ).pXpX6.J K 0.zXp.a.NXu.i.u.CXmXE.e p i H.i G.r J.pXpXpXJ D dXpX6.6.J 7.6.).6.6.pX).6.J pX6.J ).pX6.6.).pXG jX'.).pX).pXpXE.).).`.dXD ).J J ).pXsX`.6.J ).pX).).dX@.j ).6.).).).).).).6.pX).pX`.).pX).).).).).gXqX}.'.A `.).J `.).).).5.J ).pXD 7.`.).6.).).pX[.(.hXBXt.NXNXCXNXZX<X4XUXM.-Xk.w G.V.C.w V.R.pX(.J 6.J dXbX!.).J J J J 6./.D 6.J J J J 6.).).).J ).).H J J J J J J J J J J F G 5.J F J J 5.J J J pX`.).6.J 5.G J J G fXW.(.6.yXH J J 6.).pXJ J 6.6.5.J J J J 6.J J J J pXH 3.v F ).6.J J J J J J J ).).).J J 6.6.J 5.5.SXDXa.kXMXp.p.s.! - Z.i r G.G.w p 6.J J ).6.J ).).).J 6.).hXrXS ).6.D J 6.D J 6.J J uX_.J J J 6.F kXL.F J 5.J J J ).).J J J J J 5.5.J ).).G J J 5.J 5.J J 6.J J J J ).5.5.J 5.J pX8.F 7.G J J J 6.J J aXE.J ).J J J G C <.~.pX<.B J J 6.J pX^.).).J ^.H 5.A H J J H jXVXa.BXNXCXNX<Xh ( k.y ",
"w w w e J.6.J pXpXJ J pXJ ).6.5.J ).pXJ 6.6.J 6.).J pX6.J ).pX).J ).pX*.S pXJ J J J H J J ).J ).5.J J 5.J J J J ).J J J J J J 6.J 5.J J J J ).J J ).).J 5.J J 5.J 5.J pX1.K.bXnXW.!.8.B ).J J J J pXJ C 6.).J J J ).D ).).J ).J 6.6.pX).J 5.q.VXmXu.CXNXNXCXs.f B.H.p p H.p G.p G 6.6.J H 6.7.pX).9.N (.6.6.pX6.6.).pX3.J pX5.3.).pXJ pX).).sXJ ).).pX).pX).).J ).sX).pX^.J J ).).pX).).pX).).pXyXE.).).).J J ).).pX).).).pX).(.pX).).6.J 5.7.bX].aXE.J 6.).).aXN 6.sX4.H pXpX(.).aXV _.pX).J J 6.NXCXNXNXVXmXNX^ h UX9X-Xl.e C.w w C.C.Z pX).J J ).J ).(.J 6.J J 6.H pXuX).pXJ J J J J J J J J ).J J J J G J J J J J J rXZ J ).J G J ).).J 2.C J J 6.J 6.4.J 5.J G J pX6.6.pX).J pXJ G 5.J J 6.6.6.J G G 5.5.J ).J J ).gX<.n 6.J 6.J pXJ J J ).).J J 6.J 6.J 6.5.7.zXDXUXqXp.t.kX2X~ & e i A.A.p w H.J 6.V F J ).).pX).J ).J J sX^.J pXpX).6.).3.G ).J J D J 4.D 6.J sXQ.J J 6.J 7.H ).5.J J J 6.J 6.J J ;.l ).J 7.J J 5.J J J pX).J 2.N J ).).6.8.F fXD G `.J ).6.6.).J ).).6.J ).pX).uX/._.J J iX^.J J 5.).).J J J J J J pX/.(.J (.!.4.1XmXi.NXt.i.<X~ ( j.y ",
"w w w e L.6.J J 6.).J 6.6.F 6.7.G J 6.pX6.pX6.J J 5.G J pXJ J ).).(.w.0XY.7.).J J J 5.;.b x L ).pXJ J 6.J 2.S J J J J J J J J J ).6.H J ).J J J J J 5.J ).pX).pXpXV H 5.wXn 3.bXXX{.jXR.).sXpX6.J J 7.V (.pX).6.).).).J J J J J 6.pXpX6.6.7.w.i.CXu.u.NXNX1Xa.h h.H.H.G.p H.r H.J 6.5.(.6.>.S sX).dX X).7.(.pXpXpXJ pXhX(.pXsXrXS pXpXpXpX6.6.J 7.V ^.8.(.pX).).).).).).).pX(.).).J 6.J 6.6.).).).6.).).pX6.).).).pX).).5.J ).pXpXpXJ 6.6.).`.).J (.pXpX).6.C D 0XR.pXsX).pX).pXG 6.`.).pX).).).6.u.CXBXNXBXNXZX3Xl.nX8X+XP.B.w w C.w w Z 5.J J J J J ).J G J J J ).J J 5.J 6.).J J ).J 6.D (.J J J ).).J J J J J J ).J ).).J ).).J J G G J gXR.5.C H pX5.).J J 6.J F J 6.J J J J 5.6.).).J 6.J 5.J ).pX).6.6.J J ).J J aXbX!.J J ).).).pXJ J J J J J J 6.6.).J pX`.jXDXMXp.y.BXd.( Q - e G.r r G.C.J.pX).).).J G C v J J J 7.D J 6.J 5.C J ).6.,.n 6.J J J J ).).).J J 5.J J ).J ).(.5.5.J J J J J 6.J 8.q.P.S 5.J J 5.J ).8.>.v *.@.V Y.K 6.2.G sX).J fXS J 5.C 6.J J 6.5.G J J G ).J J 6.D 6.J J J J 6.(.J J J J ).J ).J J J J ).(.J 5.p.mXBXNXCXy.t.;X<X& B.",
"w w w Z.Y.pX).J ).).).pXuX).).gX~.(.).6.6.pXpX).pX).7.A D ).J 6.H J q.W.(.J J J ).H w.,.C N m F 6.).).).dXrX(.J J J J J J J J J J pX(.J J 6.J J 6.3.H J J J 6.J J `.6.J kX@.n J J 6.).8.[ b J 6.J J pX`.J 6.J J J 5.J J J J ).6.6.6.6.6.pXdXe.NX1XBXNXNXt.p.p.P.% p G.p p p r L.pX).).D 6.yX!.6.6.J 0.N `.pXpXpX6.uX).6.6.J 7.0.M H pXpXpXuXpX).sXQ.J iX^.pX).).pX).).).).).6.F ).).).).).).).pX).aXC H sX`.).).).pX).pXuX^.>.M ).).).).pX6.J pXuXJ 2.F `.9.$.B `.[.J 8.D ).).sXfXS J 3.K ).).J dXNXt.NXNXNXBXNX2X- ).`.gXz.y G.w C.w F.S J J J ).).J J 6.D J J J J ).).).).).).J J J J 6.(.J J J ).J J J J J J J J J J J J J J J 5.J ).J J J J 6.pX2.z 6.6.J 5.J pXJ J J 6.5.J J 5.J 2.&.l H 6.7.S J J J 5.pXJ J 3.H J J J 6.6.J G v G J ).).J J J J 6.6.5.J 6.J ].9.d.d.mXBXBXBX2X! - Z.i i i r r p J J J ).0.M q.b n 6.J ).`.6.).).aXrXR.6.6.jXR.D ).pXD J ).6.J J J J J J J pXJ G J J J J G J J 6.J 6.hX{.J J J 2.F 6.J w.0.c #.B T.T.Z 7.1.n J 8.S pX).J 9.@.H 6.G G 6.^.(.6.<.H uXD ^.(.).J ).).J ).).).J J J J J ).8.B J J J H (.gX1XVXNXi.CXNX^ $.2X& B.",
"w C.w C.~.5.J J J pX).).).pX6.uXdX*.F 4.).6.6.J J J pX`.sX).6.pX(.6.iX].pX).5.).J H kXw.v n Q.Z ).J J J J ).J J ).J 6.>.K pXJ J J J 5.J J J ).J J uX).J J J J ).).J 6.J 7.bX'.J J 6.6.fX! d M 6.J J J J J J ).J pX(.).).).J J 4.J pXpXpXH gXlXSXmXVXNXNXmX1X#.d h.H.H.H.H.p A.Y.aXJ pXuX(.sXpX6.4.uX1.E.~.6.pXpXpXpXpXpXpX).fXzX'.(.6.5.6.pX).`.).).pX).pX).J J 5.).).).).pXfXS ).sX).).).pX).).).0.E.!.).pX).A G pX).).).).bXW.J pX6.).J sX).).0.v 0.M C uX{.`.J G sXdX^.J J J D sXaX<.m F ).).6.VXmXNXNXNXNXNX1X- *.V 7.l.B.w C.w C.F.J J J J ).J J J J (.).J J J J J ).).J 5.J H ).J ).).J J ).J J J ).).).J J J J J J J J ).J pX(.J J 6.).).J ).d.@.d L 6.J H J J J J 5.6.J 6.5.J kX<.R.S J pX).J 6.6.uX(.).).iX(.6.J J J pX(.1.@.B H J 6.6.J J J 6.6.pXJ 6.!.S d.p.y.mXmXBXBX2X! j.w i G.i i C.p 6.J J ).jXW.jXXX_.J 6.J J J J J J `.`.6.6.).uXS J ).).J G pX).).J J J J G J J J J J J J ).pXJ ).).4.F G J J 6.rXS 5.J q.e.c gXR.T.}.).J hX'.J 4.H J 6.J gXeXZ 7.uX).).).J 5.J 8.z ~.J J 7.D J J J J J J J J J ).J H pX'.H ).J H Z 9.mX1XCXu.NXZX<X0X( & V.",
"w w C.w B 6.J J J ).J J 5.6.pXJ 9.yX!.sXpXpXpX8.G ).J J pXpX`.).(.).).J J 6.).J 6.J dXbXbXP.'._.J ).J J J J J J J J 6.iX(.J J J J J J ).).).J 6.J J ).).).).J J 5.5.5.J J J pXJ 6.J pX(.bXwX!.6.J J J ).J J J J J ).J J J ).pXuX).J J pX).7.zXMXp.t.u.NXNXDX<Xl.h.H.i i H.p r n 7.pX).pXD 6.6.aXuX`.hX[.pX6.6.J 6.pX).pX`.).sXjX<.N ).1.S pX).J 6.6.).6.J 6.).).).).).).).).gX>.K A pX6.J ).pX).9.,.T.sX6.).pXq.M J pXpX).J 6.pX).6.).).pX>.!.7.1.!.aX'.'.(.6.(.dX>.M ).sX`.6.8.N L pXhX0XB 5.D 5.MXZXNXVXNXi.BX1X; h Y.6.; B.C.w w C.u S J J J J J ).J ).).).pXJ ).J J J J 6.pX).J H ).J J ).(.J pX8.K H J ).6.H J J J J J ).J J J 5.J ).).).5.6.5.lXjX&.d F J J J J 6.6.3.Z 7.J pXJ ^.Q.sX).).6.J J ).).pX).J J J 5.J J J J H J sXyX(.).J J ).J J J 6.J J ).).].9.e.p.#.s.u.eXVX2X:X& e G.G.G.G.w H.pX).).pX).).H 6.6.).pX).J ).J ).).).J pXpX).uX^.).J J pXD J J 6.J J J 5.J J J G J J J J 2.K ).5.J pX^.pX).).J ).).).6.iXnXnX:.f J.G 5.J G J 7.$.B J 6.6.J iXJ D pX).J G 5.4.(.zX$.m 6.D ).`.J 6.A J ).).J ).).6.J J J J H J 7.K !.9.t./ CXBXNXZXa.E ) j.V.",
"C.w w e R.6.J J J J pXpXJ 6.J aX_._.pXJ 7.7.5.gX'.).pX(.J pXJ 5.J F G 5.D J pXJ ).).).J pXiX(.J H pXJ 6.J J ).J J J J ).).6.J J J J J J J J pX6.).J J J J pX).J pXpXpXV S ).pX6.J J ).).J 6.).6.J ).J J ).).pXJ J J J ).J J pX).pXpXJ J /.aXzXMXVXNXNXNXVXCX<Xc.y p p G.p p A.Y.aX).).).J J 5.6.).6.D pXpXpXpXpXJ ).pXpX6.J 8.,.N Y.).dX^.6.).).pX).6.6.J J J ).).pX).3.L ).9.%.M d C 6.).J 6.J fXXX(.6.).).J jXyXH 6.).).).).J ).pX).).aXQ.H 8. XhX`.].'.pXpXS 6.hXQ.(.(.pXpXhXzXM (.7.kXR.pX).6.lXCXBXBXCXNXi.mX0XP.!.9.h B.C.C.w w F.~.pX).J J J J J J J J J J J J J J J J J J J J J 5.J ).).J J sX_.J J 5.J ).J J J J F J 6.J J J (.6.5.G 5.J 6.yXIXnXY.Z (.6.J J 6.J `.(.pX).J 8.Z G J ).7.J pX).J J J 6.J J J ).).J J J J 5.>.F H ).).J J ).).pX6.).).J _.!.9.lXZXMXt.ZX,.p.1X<X& V.i C.G.G.A.J.pXJ H J pX).).).pX).6.J J ).).J J J 6.5.J ).).).J pX).).).6.J J ).).6.J J J 6.,.b G J 6.tXY.5.J J J J J pX6.J J 6.J pXJ dXnXVXJ.T.6.J 6.).J 6.yX(.C G pXpX5.J J G 6.6.pXpX/.J 6.bX_.6.^.F 5.).6.uXJ J 3.D J J J J J J J J J pX{.Z 9.a.t.ZXNXNXZX( l.3X* V.",
"w w w w S 6.J J ).6.J 6.).pXpX`.`.5.5.5.6.pXsX).J J pXJ J 5.`.).).J J J (.J ).).J J pX).).J 6.D J J ).J 6.4.H ).J J J J J J J J J J ).J J J 5.D ).pX).8.N H 5.6.J 6.pX/._.6.5.5.J 8.S ).pX).6.6.J J J H J J J ).J D J ).J 6.A J 5.6.pX(.A aXgXMXqXt.NXu.NXa.CX;XB.p G.H.p H.A.n 6.).).).pX).).sXJ pX(.J 7.).pXsXsX>.F sXsX).zXd.L.'.6.pX).pXJ pX2.G pX).pX).H J ).pX).kXN Z gXqX!.m m ~.).).).pX^.).).).pX).).J ).).pX).pXJ 2.^.).).).pXJ (.sX5.Z dX{.D ^.8.D `.D J 6.J J 6.pXG fXQ.).pXjX!.pX6.pXkXmXBXt.u.NXBXu.Q L.J 9.P.B.G.C.C.V.F.J J ).J J J J ).J ).6.H J J ).).J 6.J J ).J J J J J J J G G G G J J ).).J J ).).6.S J J J J J J 5.pX).J ).).J pXeXM j J pX).J J J 3.K J 6.7.<.!.6.J 3.J ).J 6.5.J J 5.).).).).6.J pX(.J pXyX_.6.-.C C J J J 6.pX6.J 6.Z A 9.e.u.ZXNXmXMXt./ <Xj.e G.r r i r p 5.).J J ).).).J pXJ ).).).J ).).J J 6.pXD J J ).).J ).J J 5.D (.6.J J ).).).6.jXQ.B J ).[.).J J J J ).0.z J J J D J J 5.5.aXIX=XY.pX).6.6.6.J 7.q.h K 6.5.6.).).(.6.).6.J 6.V H J J D ).).J J pXJ ).6.E.(.J ).).).J J J H J H H ).w.a.mXNXCXNXCX2Xz.<Xk.e ",
"V.w w F.S J ).(.).uX).J J J ).).6.6.6.9.S J J 9.N D 5.J ).).).6.pXpXJ ).).pXJ ).).).J J J 5.6.rXH G N J J uXH J J D J J J J J ).).J J ).6.J 7.D J 6.J aX/.J J 6.6.pXJ ).J 6.6.).J sX(.J 6.6.pXpX).).).).J J J J ).).).J J 6.iX).pX6.).).7.G 9.SXMXeXa.i.NXCXCX;XB.H.i p i p a a 6.J J pX).J J 6.`.`.sX7.J J 6.H w.,.j 6.pX6.dXqXW.6.pX).pXpXpXpXkXE.pX6.).`.pXJ J G H zXnXn D nXwXN M _.).).).).J ).).).pX).).pX).).).pX).gX>.Z pXpXpXpXpX2.;.x n pX0.f Z dX`.6.(.).pX).).J pXdX(.5.5.).fXV 6.6.(.lXa.i.CXBXBXNX/ l.T.6.9.P.y G.A.w V.p J J J ).J J H ).).).pX).J ).J J J ).).J 6.J J 6.G H J J 5.J J (.J J J 6.^.J J J ).J J H J pXJ J J J pXJ J J J J gX$.Y.J J 6.6.J 5.rX~.6.J 6.`.(.pX).iX).5.J 6.pX).6.J J J J 6.E.J J J J J ).).gX0XE.>.B uX^.).pXpXJ ).).G 0.e.BXZXVXu.i.t.ZX<Xl.e i r r i A.J.).(.).J 3.K pXJ J pX6.G ).uXS 5.6.6.J 6.pX).J J 6.J 6.J J aX*.L pX6.J J J G J J jX'.5.N G J J J J J J gXP.J J 8.;.M 6.6.).).).`.pXJ J 5.J pX6.7.yX[.J J J ).).).).6.J pXJ J `.J ).).).H J pXJ J ).).).).6.J 5.J J J J J H J J Z ).w.CXCXNXCXNXs.1X- ! j.e ",
"u V.C.w Z 6.J ).J 6.5.J 6.J F J pXpX6.sXpXG J dX{.).)._.J ).6.5.J ).J ).J 6.J ).J J 7.A J ).`.sX(.e.} j H pXJ J J pXH ).J J J ).J pXJ G J J 6.).).6.6.H J J J 6.J 6.J J J J J J 7.J J J 6.).pX).`.pX).J ).J J J J J 6.6.J J J J 5.J J 6.6.pX9.d.p.#.NXBXi.CXp.Q B.p p p G.p J.J.pXpXJ J 6.6.7.).pXA 5.6.pXpXpXJ 7.nXR.S 6.aXD _.pXpXpXpXpX6.6.).hXsXpXpXJ J ).J aX<.Z tXhXXX!.J sXqXh N sX(.pXpX`.).J J 5.6.).).pX).).pX^.pXbXQ.<.K ).pXuXd.#.a B >.e.$.T.pXsXsX`.).aX_.pXJ J uXpXpX).J sX/.(.pX(.%.CXNXCXNXu.p.1X: j H zX; B.G.G.w w i (.6.H J J J J H J J J J J J J 6.J 5.2.F 5.D J pXuX(.J 5.J ).J J J J G J J J J J J J ).J G G 5.).J J 6.5.J ).J J G sX[.6.F 5.J 6.J uXS 6.).pX).J J J J 6.J J J ).J J ).).).J J 6.A 6.K H J J D ^.{.pXyXR.J J 6.7.J ).).6.7.pXlXi.MXmXmXBXmXCX<Xl.e G.i A.G.e a J J J J uXS J pXJ J pX^.(.sXpXD J pX).6.(.J J J J J pX).J 7.qXB J 6.J J 7.>.Z pX).^.1.{ M pXJ J ).J J J ).6.J gX%.Y.5.6.,.L ).J 5.J 5.J 5.C J J J 5.J J J J ).J J J J 6.<.S J J J J J J J J J J J J C G 6.J J J J J J ).J J J !.pXw.s.a.NXNXmXCX/ c.^ * V.",
"h V.w Z.n 6.J F J pX).pX).sX(.G 5.J ).6.pX^.pX).).pX).pXJ J 6.pX^.pX<.Z pX).).G J J pX/.J J J 6.J kXIXK.M G J J ).6.).J J J J J 5.J ).pX).6.6.C F J pX).J ).).).pX).pXJ ).).pXJ ).).).J ).J 6.(.pX).).).).6.J ).).J J ).pX`.pXJ pX).).6.pXpXgXd.t.mXBXu.NXmX! - Z.H.H.p i p A.R.6.4.^.).J pXuXJ 6.^.pX).J 6.5.6.pX`.iX).pXpX/.J J J 6.pX6.aX^.pX6.6.`.).dX_.pX).).hX~.sXyX!.pXuXF jXMX@.M `.J ).).pX).8.S ).).J ).).).).pXA J sXyXQ.(.pXJ cXeXP.Y.dXSXP.m 7.J ).J 6.pXA J pXJ J pX).pXJ ).).).pX(.lXCXu.CXu.u.i.a.,XL.0.@.; B.C.G.C.w u J ).J 6.D J ).(.).).J J J J J J ).pXyXE.<.!.).6.J ).6.J J J 6.J J J ).H G J J J J J J ).).J ).).6.J J pX^.).).J ).;.b ).J J 6.J ).).).J pX).).J 5.J J 6.6.).).).pX).5.3.H 7.A 8.R.sX/.J 3.H ).J 5.D H 6.J J J pX).J 6.pX`.pXlXMXMXt.BXNXNXZX<Xl.y i i r i w a ).).).).).).(.pX).).).).J 5.J 6.J ).).sX).J G J 9.N J 6.J ).`.pXD D J ).pXyX(.J J H zXwXY.G J J J 6.).).J 6.J 9.$.T.6.5.<.'.J 4.D J 6.J fXE.pXJ 5.J pXJ pX(.J G ).).6.6./.^.).pX).J ).D J ).6.J J pXrXB 5.D J J ).).J J J J H !.7.zXp.s.u.t.i.mX<X; ^ * e ",
"P.V.w C.R.6.J J ).).J J ).pXpXpX^.J J 6.).).pXpX).).).pX).J J J ).6.hX!.6.J J (.).).).).6.J J J pX)./.bXR.~.A (.6.).).6.J ).).).).).).).6.J gX#.B pXJ ).).J ).pX).pX6.).G J J 7.G J J ).J ).).).6.).6.J J pX).).).).).J pX).pXpX).pXpX).pXsXw.SXqXMXZXBXNXs.1Xz.y p H.H.p i i B 6.pX(.6.J J pX6.J J J ).pXpXpX6.).pXuXJ 6.).5.pX).pXJ 6.6.).pXJ ).pXpXJ `.pXpX).J J J J pX).(.pXrXuXAXAXY.pX).pXJ J 6.iX_.6.pX).H 6.6.J ).E.pXJ J 6.pXpXpXC G bXW.aXbXU.R.pX).pXJ ).9.,.M sX`.).).pXpX^.).pXJ pX_.qXa.NXa.NXu.NXNXz.^.f.f l.Z.w G.C.w F.J J J J ).(.).J J J J J ).J J J 6.J ).).`.(.pX).J J ).).J J J (.).).J 7.*.B pXJ pXN H J J ).J pXpX).).).J J J ).8.t.g q K J 6.).).).J J J J 7.G ).pXJ J ).G J J 6.J 9.E.H 6.iXsX(.G J 6.rX~.J 7.>.(.J ).J J ).J 6.J J 6.J dXe.MXt.NXu.NXNXCX1Xl.V.i i i i r J.pX(.).).).J J J ).J 6.J 6.).).).).J J 5.J 6.4.Z gXQ.J 6.^.).5.5.).).pX(.).J pX).).J 6.bXXXH 6.J J J J J 6.6.J #.$.M 5.6.<.J ).).pXJ ).pX).).J pXpX).pX6.J J 1.f Z ).).).6.J 6.A ).).).).).J ).).).).pX^.).).J ).J J J 6.J H ].`.6.q.s.i.CXs.#.p.( = <Xk.e ",
"L.V.C.w S 6.(.).J 6.J J J 5.6.D ).pXJ (.).pXpXpX).J 6.J 3.).pX(.).pX).J ).pX).H J J ).J ).pX).J D J J pX{.pX/.).J ).J 6.).).).).).).J ).).).pXnXR.5.J J J ).J 6.6.J ).uX`.).:.f !.).).pX).6.J ).6.J J ).6.J ).J J ).J ).).pXpX).).6.J pXJ 7.w.jXVXt.u.u.mXZXs.; B.H.H.H.H.p A.n 5.6.J J 6.F J pXpX).).5.7.5.pXpX).6.).pX^.pX^.).pXpXpX).pXpXJ ).J J pXpX5.J pX).`.`.).).).).).J pX).uXbXQ.pX6.D ).pX~.pXG ).).pXpXJ ).pXJ H pXpX).J 5.J pXhX^.A 6.).).`.7.(.).pX`.J gXnXW.^.`.pXpXuXsX`.6.5.).`.H qXZXu.CXNXNXMXZX; rXSXQ.l.B.w r G.e J.J J J J J H J J F ).).).).pX).).).).).).J J ).pX).).).J ).).).).H 6.J pXyX!.6.J aXrXZ 5.J J J J ).).6.5.6.J G >.F bXGXU.L.6.J ).J J 6.J J J pX/.J J J J 6.uX(.J 6.J sX[.J ).J ).pX^.H J ).J J 6.`.J J ).).).).J 6.J J ).).6.lXMXmXmXNXNXNXCX/ - V.i i i i w a pXH J (.6.).).J J 6.pX).).).J J pXJ pX6.).pX`.pX).).6.^.J 6.6.).6.D ).).).J ).pXJ ).).J pX6.uXJ ).2.>.C J J 1.SXjX0XB ).).J F J 6.J J 6.J 6.J J pX).6.6.2.Z kXU.Y.J 6.J 6.J uX'.).).J J J J G J J 6.4.(.7.J ).J 6.J J J J !.B 6.8.r.a.BXZX1XeXVX2X- ! k.e ",
"G.V.w w Z pXF J J 5.J ).).).pXpXD 7.4.Z 6.pXpX6.6.J J e.@.j pX6.J ).).).).pX`.).J J J J J J ).sX`.).6.(.G J H 6.D J J J J J J J J J J G J 5.H ).4.K ).J ).).6.J ).J J J pXJ VXE.L J J ).6.5.).J 6.J J J pXJ J ).).).).).6.D J J 6.pX6.).pX7.gXgX%.VXNXNXNXCXmX; B.H.H.H.H.H.r g pXJ 5.4.^.).J J pX).6.pXpX).).).pXsXpXpX6.J 6.6.J 7.V ).pXpX).pX).).pX6.`.).`.).J J pXJ ).).).pX).pX).J 6.).fX~.J sX).pXfX>.#.q F pXJ 6.4.S pXpX).).uX(.7.N 6./.).pX^.J iX).pX).J pX).`.sX).6.J J J J J 7.^.(.J pXtXt.mXt.a.i.MXCXQ b nXU.l.B.i w w e J.6.J J J ).J J J J F J J J 6.J J ).J J J J J J ).J 8.A J J ).J ).J J ).J J 6.J ).).).).J J J ).).J 6.J J pXpX5.rX(.G iX X`.5.8.C G J J J ).J J G 5.J J J J J 5.J 4.S J 5.G J ).J J J 6.C F pXJ ).).J J J ).D J J ).).).J pXD jXmXp.a.i.NXNXNX2Xl.y i i i G.C.p ).).J H J J J J ).J J J J ).pXJ J ).pXpXJ ).J J 6.6.).`.).).pX).pX`.J J J 6.J 5.6.J J 6.J 5.J J 6.$.h W.).6.gXnX+XXXpXpXD ).).J J 6.J J J 6.J J J 5.J 7.<.Z pXhX^.J J J G J J 2.z J 5.A J 1.B J J 6.).J J (.J J J ).J 6.F Z E.3.5.SXZXi.NXVXVXNX2X: Q & u ",
"V.w C.e B pX).H J pXJ J J J J 6.pXpX`.).5.J 6.6.6.6.5.xXnXg Z sX).J J pX5.J J 6.).J pX).J J G J `.pXpX).).J H 6.).J J J J J ).J J 6.J ).J pXH J pX/.J 6.D J 6.J 6.J 6.5.5.F fXwXY.Z J J 7.(.J J 6.pXJ J J ).).).J J J J J `.J pXJ 6.6.J 6.aXgXw.y.BXNXu.NXCX1Xz.y H.H.p p p A.J.pX1.h !.J ).6.J pXpX).pXpXJ 6.J J 8.A pXpX6.).).pXsX`.6.5.J ).).).pX`.9.N J ).J ).).).`.(.pX).).`.).uX).pX).aX<.S G J 6.`.lXqXL.m N J ).iX^.J ).).).).aX,.R.Z 6.pX).pXH 7.A J 5.).J 6.J J 5.pXpX6.J J 6.pXJ pXJ H y.mXmXCXCXNXi.a.! - R.gX- B.H.C.A.V.L.6.J J J J J J J J J J J J 6.J ).J 6.J ).).).J J 5.dX~.).).).J J J ).J J 5.D (.J J J ).).).J J J 5.J J J J 5.H J ).).J 5.5.5.w.M S J J J J 5.G 9.M J ).).).J 5.J ).).6.6.rXS J pXJ J ).iXS J J ).).J J J J 6.(.J J ).6.J _.fX,.BXZXmXmXNXNXZX1Xl.y i i i i w J.J J ).(.6.).pXF ).6.J 6.J J J J 8.K J 6.J J J ).pX(.6.G 6.6.J J 5.J 5.J J 6.5.J 6.J G J 6.6.J J J [.{.).5.7.D /.{.J J pX).).>.N pX6.J J J 6.J J J ).).6./.J J 5.).).).pX`.J 4.q.L.Z pX`.J hX'.J 6.J J 8.V H 6.J J ).6.).^.H C 5.(.zXVXmXu.u.t.i.2Xz.;Xl.D.",
"C.V.C.Z.R.6.J ).).5.J ).7.G J pX)._.pX6.J 6.6.6.6.6.).`.yXQ.(.J J 8.A F pX).6.H J J J J J 6.).(.-.G pX^.).).).6.J ).).).J ).J 6.J ).).J 5.J 6.G H 6.5.J pXJ J ).pXJ 5.7.(.`.J J sXJ J 6.J pXpXJ J J 6.J J J J J ).J J ).J 5.D J 6.6.pXpX).6.gXlXp.mXNXu.u.a.1Xz.B.p H.H.H.H.H.~.J fX].).J 6.J J J J 5.7.5.J pX).J pX`.).pXpX).pX6.6.J pXpX).6.F ).pXJ gXP.!.sX).J ).).).).).5.C J 5.J J J ).aXhX`./.).).(.1.yX*XcXE.!.J J pXJ J J J ).gXbX_.iX).J pXaX<.<.R.pX/.(.pX).).6.J J 6.J pX).6.7.^.).`.(.lXa.i.ZXs.NXBXCXQ j.E.9.l.y G.r w C.u D J J J J ).).).).).(.pXJ J ).).J J ).).).5.J J J ).).).6.J J J J J J ).pX_.J J ).).).pXJ ).J J ).pX6.).7.^./.(.).J 6.6.J 6.lXY.^.J J 5.5.7.J `./.(.).6.).6.pX(.J 6.).).).pXJ J ).J G J ^.(.J J 6.H 6.J H 6.J J 6.G J ).F 9.lX%.MXVXCXNXu.u.ZXl.y G.r i i w J.6.(._.).pXJ pX).J 6.J pX).).6.J aXiXH J J J ).J J J 6.^.).pX).).).J pXJ J 6.uXJ pX`.^.J J ).).).).J G J 6.pX).J 5.J J 6.J pXtXP.).pX).).6.J J ).6.J J 6.J 6.J J J J J J J J 6.{.{.8.K J J J J J ^.).J pX{.3.A J J J J J J J ^.'.pXw.t.mXBXNXNXi.( ; ~ j.D.",
"V.V.C.w ~.6.(.).J sX).5.6.pXD J `.J 5.pX6.5.pXpXpX6.J 6.J J pX(.J pX[.(.J 6.pX).J ).4.S ).).).9.@.Z `.).).pXJ J ).J J 6.).J pXJ J J J 5.).).6.`.).5.6.).6.).J J pXpX6.).).J 6.J J (.J pXJ J pX6.).pX).pX).6.S J J J ).J J pXD J ).).).6.6.6.aXMX( y.a.u.NXCXCX;Xy p p p H.A.a 6.).J 5.6.(.pX).).J 5.5.J `.).).pXpX).pXpXJ J pXpXpX`.pXpXpX).sX/.(.pXpX).pX).6.pX).J ).).).J gX<.Z ).).).pX).).).pX).pX_.1.*.R.{.w.B '.).6.G ).).).).6.6.).).J 1.N S pXsXhX'.J ).J ).pX).).pX6.J ).J 8.N _._.pX).).e.1Xu.a.a.u.y.a.,X& ).9.; B.F.G.w C.C.Z ).J J J D F J J ).H ).pX).J J J 6.J J 6.7.F J ).).).J 5.J J D J J J J J 6.7.H F (.6.6.J J J ).J 5.pXJ uX(.6.6.J J 5.6.J J hX{.J ).J 6.).pX`.J J J 5.J pX).).).6.A 0.*.C F 6.J J 6.J ).8.V ).J uXH J ).).J ).).6.6.J J J 9.,.MXlXt.NXmXNXu.a.- V.i r i i w g J (.F 5.J 6.J pX).).).pX*.z J pX5.^.pX2.K J J J J ).).6.C J J J 6.V J 6.6.).pXJ ).D J 6.J J pXG F pX).).).).J 6.).6.J ).J ).pXiXA J ).6.6.6.F J 6.pX).).).6.D J ).J J pXJ ).J J J fX~.J ).).J J J J J J G fX'.J J J J J ).J H D 4.gXmXa.u.NXNXmX( ;X~ * e ",
"V.C.w Z.R.pXJ J ^.H pXpX).pX).J 5.5.J J 6.(.).pX6.J pXJ ^.).).pXJ (.).pXJ J ).,.B ).pX(.6.J 5.fXhX_.J 5.J pXpXJ 5.G J J 6.C C J J J 6.pX5.C _.).8.D ).J 6.J pXJ J 6.pX`.pX).pX6.F H 6.J 6.J 5.).J ).).).).).).J J ).J ).J ).1.~.).7.A ).pXpX7.SX1XNXu.u.NXCX/ z.y H.i H.H.H.p J J ).pXD H sX`.).6.).pX).).sXpXpX).6.J 6.pXJ J 6.pXJ pXpX).).7.G J ).).).).pXJ pX`.).).(.8.A J bX].).pXpX).pX).6.).pX).F 1.U.W.pXjXW.J ).gXE.).).).3.D ).).6.4.uXyX~.).6.).pX`.0.N (.pX).pXpXpX).J sX#.g _.J (.).pXSXa.BXa.BXmXy.( ~ l.5.1.- B.G.G.w w w Z 5.J J J ^.H J H (.).J J 6.J ).).pX).J 6.pX).J J J J 6.J J pX).J ).6.D J 6.(.(.).F 5.6.J J J J 6.J J 6.J J J ).).6.J ).).).2.C J J J J J J J 6.).J J J J ).6.J 6.7.:.*.L.).4.D J 4.S J dX'.J 3.F J (.F J J J J 6.pX).6.J e.$.kXBXs.BXmXBXZX( - V.G.r i i e J.).J 8.K J J 6.H ).6.).e.<.P.Z pXiX(.6.iX_.J 6.(.J 5.G 9.V (.).).pX).J J ).).).).pXsX).).fXS ).rXR.6.J J J 6.J J J 6.J G J J 6.6.1.M pX6.6.5.J ).4.S pXJ 6.pX^.).2.A ).6.J J J J 6.J ).J J J ).J J ).).J pXJ J pXJ J J J ).).(.W.gX9.u.CXu.u.NXVX2X; :Xk.V.",
"w w V.C.S 5.J H ).5.J ).6.).).).6.J H ).pXpX5.G pX).).`.J 5.J J sX^.G 7.6.H pXyXR.5.6.J G J ).).J _.pXpXJ J J J 9.E.).pXJ q.h Z ).).6.6.tXR.(.6.uX`.5.7.(.J ).).).pXJ J ).).).e.{ 3 C 5.J 5.).).J J J J ).8.C J J J ).D J 5.^.).J aXE.).6.pXaXy.( i.u.NXNXCXqXU.V.p G.G.H.G.J.pX).J 6.sX!.J 6.6.).J J pXJ 5.5.5.6.6.).).pXpX).pXpX5.J pXpX).8.E.).).).).6.pX).pX).J J J 9.0.j H pXJ J ).pXpX).).).).pX:.M ~.5.J pX<.H ^.pX`.6.).sXiX(.J ).).sX`.).8.K pX).).J kXW.(.pX).).pXsXpX).w.qXK.H pXZ ).).MXCXmXCXNXs.i.( ,Xs F tX- B.C.G.w w V.~.5.J J (.J ).).J F J ).J 5.J (.J J 6.5.J 6.5.G H J J J ).).J 5.H ).6.).J J 6.J F J J pXJ J ).J 5.J 5.J J J J J 6.J ).6.G J q.n ).J ).J J J J J J J J ).J 5.5.J 2.;.#.L.].5.pX).J pX(.).J G 5.rX~.).).J J J J J J 6.J J J zXjXxXMXNXu.u.MXa.2Xl.y i A.G.i w a 6.J pX_.J 6.J (.J 6.5.e.n ~.).6.).J J J 3.J ).).pXpX/.`.[.J J J 6.6.D ~.).).).J J ).).J ).).J `.).5.J J J ).).6.J J 5.6.*.N ).pXdX'.J 6.pX).).G <./.J J ).J ).e.#.Y.6.J 6.^.pX5.D J J J ).J J J ).J J J J pXJ 6.J J J J J 6.Z L 9.9.VXmXNXu.i.i.( ; Q j.V.",
"V.V.C.e R.pX).).J ).).J 6.J J 7.4.`.(.J 5.6.sX).(.pX).6.6.`.).).(.pX8.S ).).J pX4.D ).pX^.).J 6.(.F 5.6.J J pXJ `.`.J pXJ hX|.H J 5.J J sX`.H 6.J 6.5.).pX^.J J 6.J pX).).).J xXAX9.d m ).6.J J ).).J J J uX'.).).).).uX).).).J pX).).6.6.6.9.lX1XNXNXNXBXa.0X XJ.r H.H.i r a J ).).).).6.<.D 6.).pXD J pXpX6.J ).pX).J 6.6.J J 7.uX(.pXpXpX`.`.).).).pX6.).2.K sXpX).).gXlXj Z pX).6.5.D ).pX).uX`.:.rX}.).pX(.pX/.`.`.6.).).).pX7.A J D 5.J ).J q.B F ).6.D `.`.J ).).pX).6.).aXrXXXQ.J sX<.M 5.tXmXBXa.s.u.u.( : % Y.q.l.B.w i A.e H.J J J J J J J J J J H J J 6.D D D (.5.pX).5.6.^.(.).pXJ J J J pX~.J J J J J 6.J H H J 6.).).G G pXJ ).).J J J J pX).J 6.sXJ jXW.6.J 6.J J J J 5.J ).).J 6.6.).pXq.0XwXW.7.5.D 6.V J J J pX).)._.).J J J ).J J J 5.G J ).6.dXkXkXVXmXNXNXi.t.CXl.y G.r i i C.J.5.J G ).J J ).H 5.5.pXxX^.m 7.J 6.).).pX^.).6.D J J J J 5.6.J 5.6.`.`.6.H ).pX).).J 5.J G J J G J J ).).J ).pXpXpXpXJ 6.SX$.b l K pX7.D J 5.).1.B pXpX).6.6.J lXU.H ).6.>.H pXsX~.J ).J J J J J J 6.J J J J J J J J H J J ).J K 4.dXqX/ NXCXi.a.( ,X,X& V.",
"C.C.w e R.pXJ J J ).).).pX).).6.`.`.).6.6.).).).).pXpX).`.).).pXpX6.iX/.`.5.G J ^.^.pXpXD ).).).).J ).pX).).6.(.).J 6.J pXA F pXJ ).).).pX).J F 5.7.D F ).`.J ).J ).J 5.G G 5.H nXeXW.~.J J J ).J J J J ).(.J J J 6.J 6.J J J J J 6.J 6.6.7.aXzXmXBXu.u.i.a.%.c p i p p i r L.).).).).J 6.`.).`.).pX`.).J 5.J pXG J 5.J pXpXpXJ pXpXJ ).pXpX).J ).).pX).iX<.<.f j 6.).6.H jXwX!.7.,.z b B sX^.J ).,.0.T.D 5.).`.).J 2.C sX^.uXpX6.dX/.H aX~.`.pXJ jXhXR.J pX`.).5.`.J 6.).pXpXJ 8.E.).6.).(.gXV G 0.t.u.a.CXt.d.2X: % !.q.- B.i i w V.L.6.J J ).J J J J J J F J J 4.uXS ^.J J ).J pX(._.).).).).).).).).).J J ).pX6.6.).(.).).pXJ 6.<.Z 6.).).5.J ).).J J 6.sX).).pX).pXJ J J ).).pX#.M (.J J 5.6.J 6.J yX.X XF 7.rX~.).`.J ).).).J J J 6.J J J J J J 6.pX).).J pXaXzXxXi.t.NXNXmXZX1X- V.i i i i C.Y.6.J ).F 5.H 5.J <.V J gXbXT.).pX).).).J 6.J J ).J 6.J J J 6.J uX_.).J pX^.J G J J ).6.).).).pX^.).6.F J J J J 6.6.pXpXJ q.xXtXM f K 7.(.6.J C D `.J D 6.J J 5.`./.J J pXyXH J J J J J J J J J J J 6.uX4.N J 6.J ).).H J J J J !.dX7.%.CXNXCXNXs.^ z.:Xk.e ",
"C.C.C.e s 5.J ).J J ).pXJ J 6.pXJ J 5.6.).).pX).J 6.pX).J J J 5.).).`.).7.q.B 6.S J G 6._.).pXJ 6.).H 6.).).pX).J J pX4.H pX(.J ).6.J J pX).uX8.K ^.pX,.L C 5.F 6.J 6.6.pX6.H J J /.aXG J J J J ).J J J J J J J ).).).pX(.7.~.).J ).pX6.6.).gXr.p.BXCXBXi.a.qXh w h r H.i r n 5.H J 6.J ).6.D J 7.H ).pXpXpX6.J sXpXpX).J J pXuXpX).).5.J ).6.J ).6.J J J 0XXX0Xd d J `.`.`.iXJ 9.nX&XL.R.6.pXJ 5.1.XX[.pX).).pXpX`.d.[ b pXJ pX6.).sX`.).).J pX).sX{.`.).).).pXuX^.pX).6.J 6.5.pXQ.).).).).gX1.c :.a.BXmXa.a.#.s.Q % Z q.- V.G.G.r V.L.6.).).J 5.J J J J J J J J ).pX_.J pX5.A ).).^.J J J ).).6.J J J J J 6.G G 6.D _.).G J pXpX).hX).G J 6.pXJ ).).J J J J J J pX6.6.J J G J C } :.n J J pX).).6.7.A G 5.6.(.).sX).7.>.J J H J J J J J ).J J J J J ).).).).).J 6.jXxXmXNXi.u.u.NX1Xl.V.i G.i i w n J J 6.4.D J J 6.).).J J ^.sX6.J J J J J 6.J ).).).pXpX).).pX).).J 6.).pX).).).J J J 6.5.K pX).pXJ pX(.J ).).).6.J J ).aXkX9.[.XXkXg R.).J 1.} q L ).).6.).J 6.J J ).).).J ).pXpX(.6.D J J ).).6.5.J J dXQ.J 6.J J ).J J J J J Z 5.9.MXa.i.mXNX/ %.;X) % V.",
"V.C.w e F./.(.J ).J J 6.pX).(.pX).pXJ ).).).).).).).).).).pXJ ).).J J ).dXyX_.sX`.pX`.).H 5.5.^.).).5.G J ).J pX).J J `.).).).).J pX).J J J J hX/.).pXyXiXV `.(.).).).).pXuX).J 6.J 9.E.).6.D J D pXJ J J ).J J H J J J pX).).).).J 6.pXpXJ 9.MXmXi.NXNXi.CXp.h u h B.H.i r g ).(.).6.J H pXsXJ J (.J 6.6.6.).).3.D sX).aX>.K pXpX5.,.N H 5.5.~.pX6.).).5.6.bXwX*XU.b &.b -.@.b V .XcX X(.pXpXpX`._.).6.).).pX6.J ).qXnXL.~.pXpXsXpXJ ).).7.H ).pXJ J 5.pXpXD ).sX).pXpX6.).aX<.!.pXpX).).).sXlXC e.t.s.u.CXCXp.g.W % m lXl.V.G.r r V.L.pXH ).J 6.(.).).J J ).J J D ).).).).gXV F ).J J J J J 6.J ).J J ).J pXpX/.)._.^.pXpXH J ).J J pX4.H J 6.J G 5.D J J J (.J 6.6.pX).pXpX).%.,.7.R.~.J pX).6.).aXuXH 5.).`.3.G J pXE.(.).>.N J J J J C J J J 8.K J J J J J pX).6.lXVXNXBXNXNXNX1X- V.G.i i i w n J J J J J ).).pX).).).pXJ 6.pX).pX).).).).).J J 6.).).).).pXpXpXJ J J 5.J J 5.J J D 6.q.R.H 6.J 6.).).J J J ).pXpX).6.J jXxX_.!.bXU.!.2.;.:.q.L.T.5.6.6.pX).pX).).J 6.J pXJ J J J J (.).J J J 5.J J 6.J J 5.6.J J J J J 6.H !.].tXpXy.1XBXmX/ ) #.#.~ h.C.",
"C.C.C.Z.a 6.6.J J pXJ ).).).5.C J pXpX(.).pX6.6.J J J ).J 5.J J 6.6.5.F G 6.J 7.A _.pXsXpX6.).(.pX6.pX`.).J ).).pXpXJ J 6.(.J 6.J J J ).).J J G 6.).6.J pX{.`.sX5.6.G 5.J 6.6.,.M ).pX_.J sX).).(.J 6.3.(.6.J ).J J J J J ).6.J 6.J J 6.6.6.gXxXmXu.u.u.u.a.t.Y.J.I.Z.p H.A.L.(.).6.6.).).6.6.pX).A G 5.J pXaX*.G N z J pXrX].).).gXyX].J pX`.).6.).J pXrX!.dXyXQ.nXbXwXW.%.V L.R.6.J ).pXpXuXpXpX).J ).).J 6.7.D H ).bXQ.J pX).).pX4.D (.pX`.A ).pX).pXG J `.(.6.J ).pX).).9.V Z ).pXJ J ).6.lXhXlXCXCXy.a.CX1X) - * m lXl.y G.w A.V.R.pX).).pXpX).H ).J H J J ).(.H J J J ).aXJ F ).J J ).6.J J J J ).).6.J (.pXJ H J J pXpXJ J 5.J 5.(.pXJ 6.7.F ).pXJ pX(.6.J pX).).J 6.).).nXIX|.}.Z J J 5.J 2.C ^.).(.).5.(.pX).(.).5.J tXE.J J H gX<.H J J pX^.H J J J J J ).9.w.t.i.BXmXNXu./ l.V.G.i G.i w n pXJ ).).).J J ).).).).).).J 6.J J ).6.).J J J J ).).pXJ 6.J J J 6.).).).).).pX).).`.pXhX{.J pXpXJ (.6.J pXJ J 6.J 6.6.J aXxXyX].).K ;.o.N wXlXJ.Z 5.6.J J J pX>.K pX6.J J ).J J ).J J D J J J ).).).J ).6.D J J J J J J J ).Z Z tXaXy./ i.s.( qX/ ! ! h.w ",
"V.C.C.V.u M J J J J J J 5.J w.$.L 6.).).6.J 6.).pXJ J G pX).).).).`.sXfXZ J ).aXiX!.pX).pX`.).G F pXpXJ pXJ ).J J J pX).).).6.J ).).).J 6.J 6.J G J pXpX(.(.J J sXsX).).pX6.).jXW.6.).).pXG ).).6.^.pXrXF J ).).).J J J J J J ).6.).).pX6.pXgXq.mXNXNXNXu.a.BXT.B.H.H.H.H.A.g 5.J aX).(.6.6.6.).).sXpX).).J zX0XT.xXR.!.9.&.L aX6.pX`.9.V ).pX).).pX).pX`.(.uXiX).`.`.hXbXnXbXT.R.aX).D J ).pX).pX).).5.G ).6.pXsX,.B J 6.J ).5.C 4.`.sXJ J sXyXD S sXJ gX>.K J 6.(.).pX6.H zXE.T.6.J sX).`.pXgXjXSXBXCXBXa.MXAX3Xz.% a q.l.y G.w r w B pX).).6.J J ).J pX(.pX).(.).).J H ).J pX`.`.).).J J pX).).).).J J pX).J J ).^.H H 5.J ).pX).pXsXH 5.6.6.aX~.F ).(.J J 5.J ).J 6.7.5.H J 7.nXvXW.Z 7.5.G pX<.!.(.(.).J pX,.M (.J 6.5.H ).).uX_.pXG `.J J (.8.N (.6.J J D J D gXzXmXi.i.u.u.u.1Xl.y G.r G.i w a ).).).pX).).pXH J J J J 6.).).).).J ).).6.5.D ).pXJ J 6.J pXJ J ).).pX5.F ).J 6.J >.K 6.H 6.J 5.).J J pX).pX6.).6.D ).pXJ gX{. XjX7.lXB }.cXAXg Z ).pXpX).J 6.tX~.J pX6.).).pXJ J 3.(.^.(.pXJ ).pXJ J J ).).pX>.Z ).).J J J ~.n zX9.e.a.i.CX/ %./ W Q h.C.",
"V.C.w C.}.{.(.).).).).J ).).gXnXn D `.).pX4.H ).6.).7.^.(.6.D ).).6.5.sX^.J 6.).`.`.6.5.G G 6.sXH G 5.J 5.5.C J 6.6.J J J J ).).J ).pXJ 6.J J 7.:.f (.6.(.).7.0.z H 8.K ).sX).).J J ).D 7.uX(.6.).(.J sXsXH J J ).8.S ).J J J 6.J J J 6.pXJ dX%./ BXmXu.NXmXu.n e p H.H.H.H.a M (.aXpXH pX).).).).6.pX).).8.2.yX].hXhX).zXkXg J pXpXJ hX{.J ).).J ).).pX).).J 6.).D J J J jXbXW.6.5.`.`.).).pX0.K pX).gX'.J 6.J 9.D ].J ).).pXtX>.m pXG ).pXG F sXD J ).gXQ.].sXA J J 8.D J `.Q.).pX7.*.Z 6.J aXjXMXu.t.BX1XMXy.2X>Xk.p kXl.y G.C.C.V.Y.6.J J J J ).).).).).).).J F ).).J G J J J J J J J J G J J J J J ).).).J J J ).(.J J ).5.J J 6.pX6.G G J pX).).J 5.J J 6.J J J 6.uX`.).8.D J dX/.5.J 6.D D iXJ ).J 6.7.A jXW.F J J pXJ 5.C ).H 9.rXF J ).H pX'.J 6.pXJ J J J fXgXmXNXi.u.NXNXCXz.t i i i i w J.J (.(.).).H ).).J J J J J J J J J pXJ 6.).pX^.J 5.J J pXJ J ).).).J 6.dX<.S 6.pXpXrXR.pX).J 7.^.).8.z Z 5.G J J pX).J J J pXsX-.D jXzXU.Y.5.jXP.R.pX).pXJ J 6.).).^.6.).).J J ).).uX(.).).6.).3.D pX6.J J J 6.yX_.J J J J J H L 8.w.e.mXNXmX2Xp.t.;X;X% V.",
"V.C.V.L.pXJ ).(.).).).).).6.5.cXXX(.J pXpXsX).6.6.J ).`.pXpX_.).J pX).).`.).pXJ G J pXdXJ pXF J ).`.).pXpXfXE.Z 6.6.(.).pX).).J pXJ 6.J ).sXD 8.eXW.H pXH 5.8.fXyXH sX/.6.D 6.J J J J J pX).6.).6.J ).J 5.).).J J sX/.D ).).5.J 6.6.J 6.6.J `.qXt.u.a.u.i.CXp.n V.H.H.i H.p V.L.G 5.pX).6.6.J J 6.6.5.J 8.V /.E.(.J 5.6.pXbXXXH 6.J J J 6.).J pXpX(.pX6.J J 5.J J pX).^.`.`.sX6.).pX(.J J ).6.jXQ.pX).pX3.A ).sXe.z n aXS ).).jXbXR.4.uXD J fX'.).sX).pXsX_.J gXiX!.pXuX^.).).5.).).gXz.!.pX0.B cXDXNXmXy.ZXZXi.2X,Xk.T.q.- B.i C.A.w B 6.J C F ).J J J J 6.H J 6.H F 7.J J J J ).6.J J J ).).J ).).J ).J J ).0.@.M ).G F J G 6.).J J 5.6.sXJ ).6.J 5.2.F J J J ).).).`.).).7.6.J D J 6.uX).0.M (.J 4.J J 5.3.~.).aXN H pXD ).9.R.J D J ).).6.(.).).J J J pX).J ).J pXgXy.u.u.NXCXNXa.h V.i A.i G.w g J H ).).).).J J ).pX).6.D J 5.J J 6.J J ).).pX).pX).J 6.J J J 6.5.J J pXjXS 5.6.J (.5.J pX6.6.`.J q.V n aX^.6.J J pX).).pX).aXjXn dXbXXX(.).(.).7.G J pXJ J J ).J J pXJ J ).).).).).).J 6.).J uX).6.).).).J J (.).).J 6.J ).).Z A w.y.CXt.i.VXqXt.c.,X% C.",
"V.C.e n sXpX).J ).).6.J J 6.).H (.6.D J 5.J pXpXpXpXJ G J ).(.6.).).).J ).pXpX7.4.J 6.pX`.sXpXG H ).pX).pX`.`.sXpXpXJ H 6.).).J ).).).pX(.6.9.H {.[.).).5.4.^.(.pX^.J ).sXpXpX6.D G 7.*.Z pXJ J 6.(.).pXpX).).).).G D ).6.J uX~.pX).pX).iX_./.lXmXi.s.u.y.CX%.m Z.H.i H.H.H.C.Y.5.F J F J pXpXF ).pXpX).aX/.(.sXD J 6.6.J J 6.6.J 6.(.pX6.J 6.J _.pXJ pX).).pXJ ).).).^.D J pX).pX).).).).).pX).6.).J tX0X'.3.A lXP.'.fX_.6.5.G 6.iXD pX/.).`.).D pX5.J J 2.K G sX).pX).).pX6.6.G J sX{.H pXhX].7.lXmXa.y.u.CXNXCXc.D.Z tXl.B.G.C.C.V.g J 7.$.n 6.J J J J J H J ).).J J ).6.J J J ).).J J J J ).J J J J J ).J xXwXW.J ).(.).).J ).6.).pX).sXsXD J ).9.S !.(.).).5.G F H 7.*.z H J (.6.J J 6.tXR.J G ).).J pX^.D F 6.iX(.3.D J /._.J ).J 6.>.B ).C G pX<.S J 6.).).6.J 9.a.NXNXNXt.u.CXg V.G.i G.G.C.L.).(.F J ).).J J J 6.J uX`.).pX).J 6.6.J J 6.pXJ J ).J J ).).J pX`.).).J J pXJ pX).J 4.S 5.8.S J J dXbXrX(.6.6.).D 6.J J pX6.pXiX/.J ).5.J ).6.J 7.~.H 5.J ).).).pXJ J 6.J J J J ).J J J pXJ J J 6.J ).6.).pXJ ).J J J J ).J J (.D gXy.s.BXmXi.VXAX,XQ h.C.",
"V.C.e L.pX).J H (.pX).pX).pXJ uXD J ).J uX(.5.J J 6.6.J ).pX).pX).J 6.J (.).pXpX`.).).6.J 5.pX`.H J ).6.).).J J 6.pX).).J ).).).).).6.5.J 7.4.~.J J ).6.D `.`.J 6.J J J J ).pXpXpX<.^.bX!.7.).).).`.).6.).pX).J 0.o.M J ).).).).J ).6.(.uX^.Q.lXCXu.NXt.e.CXMXm Z.p p p p p C.n aX(.pXpXH pXpXJ J 6.6.6.).).).7.^.J pX`.).pX6.).).pX).6.pX).uX`.).6.).).pX).pX^.).).).6.).^.pX).pX).).J pXJ ).pX).pX).).`.7.uX'.Q.[.5.^.).pXfX'.pX).sX`.).).).7.K J iX`.pXhXuXV H 6.(.pXJ pXpXpX).).F pX).J H ).aXhXmXCXNXi.t.BXZXc.D.`.1.& B.G.C.C.V.Y.pXpXyXH 5.6.D J G ).H J J J ).).).).pX).J J J J ).6.H J J 6.D 6.(.5.).pX).pX).).).).).).J J ).6.).J pXsX).J uXQ.(.).).J pXpX(.5.sX%.d '.pX).pXpX6.J `.`.gXN N G J 6.J dX*.m 6.D uXS J J J ).J J 7.yX!.6.rXR.J pXpXpX).(.7.A `.zXmXNXBXNXt.p.s.L.V.i i i G.V.g J H ).H J J J J ).J G 2.C J ).).pX6.).).J 6.G ).6.J ).).J J ).J J ).pXJ 6.pX6.J ).`.).).).hX`.).).J 0.e.f ] b (.pXJ J J 6.6.).).J 6.6.pXG F ).6.pX`.9.N H J J J 6.6.J ).pX).).J ).J J J J 6.J 6.).J J ).J J J J pXJ J ).).).).H (.zXMXmXi.t.a.mXa.Q :Xh.C.",
"V.w B.g 6.J ).(.J J J 5.J 6.J F pXJ J ).).pXpX).pX).sX`.(.).).J 5.).pX_.).6.G ).J ).pX6.(.pX`.).6.G G 6.(.).pX6.D 6.V J ).J J D ).6.pX6.J ).[.).J 6.J ,.@.M 5.pXJ J J J ).6.5.pX).sX(.).pX).).).J J J J J J 6.(.kXQ.T.).J J J ).pXJ pXJ 8.S V e.a.BXBXZXSXa.r.L.B.H.G.H.H.H.w Y.pX).J pX(.5.).).).).pX).).).pX6.J `.).pXpXpXpX).6.).).pX).).).).6.).J J pX6.J `.6.J 6.).).J J ).6.J ).`.pXpXJ ).).).sX6.G 7.(.S D 6.0.@.b C ^.).pX).J `.pXJ J aX{.(.3.K uXpX8.{.7.^.`.6.).6.6.).pXJ J J J uX~.(.`.sXa.NXCXNXNXBXZX:XJ.).kXl.B.G.C.C.V.g 6.).).pX(.sX`.@.d !.).).(.J J J ).).).pX6.J J J J 6.J J ).pX^.pXC J J 6.J J J J J J J J pXD 5.J ).6.J 6.5.).).6.J F 5.J 7.G F 5.G rX0X~.6.5.C ).).`.).pXpXyXiX~.7.A H 5.yX].pX^.J uXS J ).J J J ).).J J `.`.0.b H J pXJ 4.'.F gXCXNXBXt.u.mXf.a V.i i i G.w L.pXH H J J ).6.).J 7.<.rXW.(.J J J 6.J J J 7.rXH 7.J J 6.6.J 6.6.J J 5.7.J J pX`.).J 6.5.G G 7.5.J 8.e.kX0XV L.B 6.).sXJ 7.H ).6.4.J ).J fXR.J 6.J J aXQ.).J J 5.J pX0.K ).).pX).5.J 6.~.).pXJ ).).6.J J J J J 6.A J D J J J ).!.^.9.MX1Xu.NXCXVX2XQ Q h.w ",
"C.C.V.a J ).J J J J J 6.).pXpX(.).).`.J J ).pXpX).sX).).7.*.L pXuXD G J G 6.pXJ J J 6.6.H ).pX6.pX`.^.).J J 6.6.4.(.uX(.pXpX6.(.J J ).pXJ H J uX`.`.pXkXbXP.M J dXA H J J 6.pX).).J ).).J J J J J J pXJ J 7.V ).sXQ.).J ).pXJ J J J 6.D 6.^.<.q.CXMXi.s.i.1XxXT.e H.H.H.G.H.C.R.).J J J J J ).).6.).pXpXJ J 6.fX~.).6.J J pXpX).pX).J ).).pX).).).J 8.V ).<.R.6.4.).).).).).).pXpX).J C J pX^.).6.).uXiX`.pXF J _.,.$.i.h f h J ).pXJ J 6.J J (.pX6.tXR.5.6.{.).uX).6.`.6.pXpX).pXsX).pXJ (.).J F :./ BXa.u.NXBXZX,XL.5.q.& Z.G.C.w V.Y.6.(.J ).J J pXrXW.!.J ).J 6.5.A F G J ).).`.).pX(.J J J G C J 7.uXZ ).).5.6.D F J G J G J pX7.F ).).pX6.6.H 5.pX6.J F H dX`.).J 6.J A z C aX1.B ).).J J 6.).).J uXsX8.S 5.D J J uXJ J J J 8.K ).J J J G J pX1.L.(.J J ).).H aX5.mXNXNXt.NXNX1X& V.i i i G.w g 6.H J J J G J ).6.).hX).).).6.J J J J J ).).sXpX).J J J J 6.D )._.sXpXpX).).).6.J ).J pXD 3.K ).pX,.V |.PX+X}.pXJ *.z J 7.H G J pX).).).).pXJ ).).).).).pXpXJ pX).6.tXE.J F 8.N H pX).).J 5.4.S 6.^.).pX(.J ).pXyX(.).J (.).).H (.tXi.CXBXBXmXmXZX0Xz.h.C.",
"w V.C.u S pX).J J J J ).).).).).pX).).`.).5.6.J J G 5.J 9.qXL.J 5.`./.).pX(.pX).).pXpXpX_.5.J ).pXJ ).5.J ).6.pX/.).).J J pX).pX).).J pXpX(.).(.6.5.5.dX{.{.{.`.pX%.M J J pXJ pX).J J 8.<.(.J J J ).pX).J pX/.J J J pXJ J 6.).).pX).6.6.(.4.V %.1Xp.u.mXMXmXqXY.y p p H.H.A.L.).J J ).pXJ J J J ).J ).pXpX).pX`.).J ).pX^.).6.J ).pX6.J 6.J ).pXJ ).pX[.pXiX(.6.`.pX).).6.).).).pX6.e.z m ).J 5.).6.D 6.uXaX^.!.0.yXQ.wX}.eXP.j J pXsX).uX`.4.S 5.`.`.pXpX^.J 5.).pX).pXpX).).).6.`.`.pX).).).pX5.e.mXMXCXNXu.y.CX:X>.C kX& V.G.C.C.F.S J H J J ).6.F `.).J (.).J ).pX/.).).J ).6.J J ).).).).).:.f Z J `.`.J J ).6.).).J J 0.&.j pXaXV H 6.6.pX`.pX6.J J ).).F J pX5.J (.(.kXP.!.).yX].J J pX).6.D 6.(.).J sX`.uX(.).6.A J 8.V J uX^.J ).).4.V (.).sX`.J 6.(.pXJ J uX:.r.mXu.NXNXs.( j.t G.G.r i V.a 5.(.(.).6.(.).6.J ).J pXJ J J ).).).).).J 6.J ).J 5.).).).).pXJ 2.*.K pX6.).J J ).5.J pXpXgXR.6.8.xXW.S J (.7.J e.;.d B pX).).J J ).pX).J J ).J J 6.D J J 6.J J J J ).pX).(.gXyXB pX).J ).6.`.`.).pXD J ).6.J J ).pXJ J H J J H G 8.BXa.BXu.t./ s.Q ;X% w ",
"V.w w C.~.J J ).).uXH ).).).J 6.).J J J 7.D J ).sX6.F 8.~.cX{.7.D (.pX).).).).).).).pX).6.6.).D 5.`.J pX).).).).pXpXJ J J J J J ).6.).6.`.).).J 7.D (.sXdX(.D J J xXW.(.pXJ ).pXJ 9.N J yX).J J J J ).J ).J ).pX).).pX).).J pX,.K 6.7.pX(.9.,.#./ MXBXmXVXa.p.d B.H.G.G.H.G.R.pXJ J J pX).).).).J 6.).).).).pX).pX).J ).6.G pX6.J J 7.(.).).J pX).).).6.).sX`.gX[ M pXJ ).).J 6.6.7.jXXXR.6.D ).J pXpXJ J pX`.pX`.].fXB T.jXSXh Z 7.S pXpXpXhXsX/.^.6.pX6.J 6.).J J pX6.J 6.J 7.).).pX).).).).aX9.q.a.MXCXCXmXMXs.! 0X].tXl.e G.A.e J.(.).J ).).).aX~.J ).).H ).).pX(.J ).`.`.J 6.uXF J G J J 5.DX}.H ).J J J J 3.K ).5.J 5.w.yXT.^.sX`.).pXpX6.J 6.).6.A H ).pXJ J sX).).G 6.`.pXpXJ J J J J 5.J `.6.J 6.).J J J 6.G pX/.J sX^.J J 6.J J J )._.F 5.C J 6.).H 6.).J 6.%.f.u.NXNXCXmXCXL.t G.G.G.i C.Y.S !.(.J 6.J J pX).J J J 6.6.F ).pXJ J 6.J ).).J 4.V ).J J 5.5.5.1.<.Y.6.pXpX6.(.pXuX(.).pXpX).pX).{.iXJ pXJ J 6.MXxXJ.R.pX).).).).J J 6.pXJ 5.5.J J ).J 6.6.).pX).(.J ).).J ).`.(.6.J ).5.<.H 6.J J uXH 7.C ).6.A J pXH J J J H ^.sXy.s.i.t.t.1X2X; Q h.C.",
"C.C.C.C.~.pX).F ).).).).J ).J (.).`.).pX6.).(.6.J sX`.uX!.6.).uX_.6.(.pXpXJ J J J 6.pXJ pX).).pX).pXD J J J 6.D J pX).).).J J ).5.J 6.6.J F pXpXJ pXD D ).J pX).5.).`.5.6.J J pXpXfXQ.!.J 6.J ).J J ).pX).J J ).).J J J pXJ 6.jX].8.H pXH 9.jXMXCXMXu.NXNX/ s.g B.H.H.G.p G.Z 6.pXJ J J pXJ J ).6.J ).).).6.).).pX6.J J q.h H sXpXuXpX(.).).).J ).).).).J J J gX:XL.pXD ).).).).pXpX).).).pXsX).6.J pXpX).8.H )._.H tXE.p 1.eXbXm 4.(.7.).6.5.J 6.6.rX~.pX).).).sX(.6.).pX).pX).).).).6.C C H 9.aXzXCXp.t.NXNXBXCX! R.`.$.l.V.G.A.V.a 6.H ).J J J 6.).J ).J J J ).).J J F G J 6.J ).6.J 6.J ).J iX{.).).).J J J gXR.H 7.H 6.hXXX{.J pXJ J J 6.pX5.J 6.pX/.^.G J pX).J 7.J 7.<.Z 6.J ).J 6.5.D J 0.*.H 6.J G 6.D J pX^.J 6.6.H 6.J F J 5.G J J H 7.<.!.).pX).J G J ).6.e.e.NXu.NXa.CX1X- V.i i G.A.F.^.`.(.(.6.).).J J J ).J J J ).).J J J J 6.pXJ ).6.uX`.).).).pX/.`.`.{.`.7.>.F J G G pXpX).pXpX).J 6.5.5.`.pX).J 7.lXbXXX(.pX).).6.J ).5.D ).J 6.uX).).pXJ J J J 6.).).).J J J J 9.*.M H A )./.J 6.).).6.J fXR.).pXkXh (.J J J J (.S 9.i.CXi.t.i.1X2X:X;Xh.C.",
"w C.V.J.pXJ pX).H ).).).).pX).J H J 7.6.7.H (.pX6.G D ).J D J ).6.J ).J pX).).).pXJ ).).).).J ).).).sX).(.pXJ ).J 6.J ).J J J 3.).).J 6.J pXG 6.J J pXJ 6.J H 6.pX).8.K ).J ).J 6.(.pXpXpXpX).J ).).).).).).).J J ).J J ).).6.^.pXsXuXJ uX6.zXt.t.i.NXNXt.a.1X- y p H.G.H.p D J J ).J J ).).pX3.J J H 6.6.).).5.6.6.pX6.dXXX!.pX).).sX`.).J 6.J ).).pX).).).J 6.Q.sX6.).5.-.S 8.N ^.pXpX,.M pXJ pX).).).5.aX_.).).J 8.bXW.[.jXxXV n pX`.(.pXE.0.K pX^.(.pXpX(.J pX6.).).`.pX).).).).5.7.rX~.F 9.sXlXa.VXu.t.u.i.a.Q R.aX$.& V.G.G.C.u ).).H 6.F J ).).(.).).J J J J ).).).J G ).).6.pXJ 6.(.).).J ).).6.J J J G 8.'.6.6.).).(.F C J G J J G J 0.;.1 M J J 5.sX(.J ).).).pXpXsX(.J 6.J J pX`.`.).xX0X!.pXpX4.S ).J J J 6.).).pXJ 6.D H uX~.).).).sX{.).J J ).J J J H gX0XqXs.i.u.a.u.^ u C.i i i r p H ).).J ).).pX6.J J J 6.6.H ).).6.J J ).).).).J 6.).J 6.).J ).).).).G G pXyX^.pX;.f H pXJ J pXpX6.J 7.V J J pX6.pXyXQ.J pX).).pX).J J uXJ J J J pXJ 6.J 6.).pXJ J ).J J J J J J 9.jX}.^./.J 7.A J 5.J pXJ ).).J J sXQ.J 3.S _.J Z 4.9.i.1Xi.CXBXmX2X:Xz.% C.",
"V.V.V.u 6.F J pX).H J ).).pXJ J J 5.6.6.`.[.).pXsXsX`.J `.).J J pX(.).).).6.J ).6.).).).J ).).).pXJ 6.).).J 6.H ).6.J 5.J J aXrXS 7.D pXJ J D ).pX).pXJ 6.(.).).6.J rXR.6.(.J ).6.(.J 6.J ).pX).).J J ).).).J ).J J J ).).pXJ ).).6.6.6._.dXw.t.CXNXNXCXt.r.ZXI.y H.p i H.A.n 6.J ).).H ).J 6.iXH uXD J J J J 6.J 6.J ).).).pX6.J ).).pX6.).pX(.).J ).).6.).pX).).6.).9.#.h Z aXQ.H 6.6.jXW.J ).).).pX6.<.B ).J J 6.).^.pX6.D yXbX'.6.J ).).6.tXQ.pX6.D pX`.pX`.`.pXuXH 6.6.).).pXJ ).).sXsXJ aX).kXa.MXCXi.BXNXZX:XB pX0Xj.V.G.r C.F.V ).(.pXpXJ J J G J ).).J J J J 6.C 6.(.H ).).).pX).).).6.(.J 6.pX).6.J aX_.).7.A J G ).).(.).6.J J J 7.e.e.#.d z N ).J 6.J J J ).pXpXJ ).J 6.J J J J J pXsX[.`.uX6.5.J G F 6.<.K pX2.C 6.(.(.J ).).).).).).J ).).`.).6.).^.!.gXqXVXCXu.p.t.a.! e C.i G.G.A.i Z (.6.).D J 6.6.J ).6.H ).J G G (.pX).).pXJ J 6.).).).pXpXuXH 5.).pXpX^.J pXpXdXs.L.!.pXJ ).J ).pXJ pX/.J 3.A ).).).6.6.J ).J J 6.J ).7.<.B pXJ J 6.6.J ).J J ).).6.J ).J 5.D (.7.E.).J 8.N H /.J ).(.pXJ J J J J J J pXiX~.V J H ~.gXi./ i.u.y.i.CX:X,Xh.C.",
"V.C.B.L.6.J J H ).).).).J pX).).pXJ `.sX_.J (.aX7.6.pX_.`.aX).).pXJ D ).6.).).).pX).5.J J J ).).pXpXJ J pXpXpXpXS 6.6.).).(.).[.pX).`.5.`.`.).D J ).6.6.(.).J ).pXpX).pX6.J J J `.).6.J ).J J ).6.J J J J J J J J ).).).J 7.).(.5.6.pXsX!.9.w.mXt.BXu.s.a.p.i.h B.H.H.i H.A.p ).).J ).).).6.J 5.).).pX).pX).6.).6.6.).).J 6.J ).).6.J J pX).pX).J 6.D pX(.).).J J 6.).kXwX].pXJ J pXJ ).).).).).pX6.pXpXsX`.5.J _.sX`.).).aX(.G J G pX).J A uX^.5.D fX^.).(.7.C J ).sX).6.).`.J uX^.aX>.Z pXpXsXsXq.CXp.a.mXy.CXi.:XB pX$.& B.i C.C.C.R.).J J J 7.H J (.(.J J J J J ).aXE.(.J H J J ).).).).J J J J J pX6.).).pX).J 7.1.N ~.).J J J J 6.6.J 8.q.hXIXXXV Y.J J J ).J J 5.A pX).).).6.J J J J J 5.6.J J 6.pXpXH `.).6./.'.pXq.B ~.aX>.Z J J J J H ).).).).).pXJ (.J Z 1.kXy.a.NXNXNX1X:Xe r G.G.G.A.F.!.J J ).).).6.4.(.6.sX_.).).aXE.(.6.J J ).pX).).).).5.D ).).pXpX3.C ).).).6.pX6.eXW.J 5.J J 6.J J 6.J J 5.fXE.(.pX).pXpX).J 6.6.J ).5.).hX{.).).J J ).).).pX).).6.5.J J 6.pX(.J pX/.J ).fXQ.(.J 6.).J ).,.M ).J J ).).J sX2.S (.!.D gXy./ u.CXt.qXCX^ ~ h.C.",
"a V.Z.L.aX).).(.J J ).).pXJ ).).pX`.`.pX6.5.G 5.7.H `.).5.6._.pXpX`.).).pX^.J J pXpX).pXJ ).J J 5.J pXpXJ J 5.5.).D J ).).).J J ).J 6.`.^.uX).pXS 6.7.(.).pXJ J 5.J ).6.pX^.).J J ).).).).).).5.6.J pX6.D J J ).).).).J pX^.pXA uX^.pX)./.gXzXmXNXi.u.CXt.qXf.g V.H.H.H.H.G.J.J ).).J J J pXpX).6.D J J 5.J pX).sX).`.).pXpX6.J 6.6.).6.J J J 7.<.>.K sX).pXpX).pXJ J ).J 3.D sX).pX).).pX).).J pX).).).6.J pX).;.f ).6.5.S pX4.).uX(.pXpX/.).9.V !.sX^.`.).gXE.Z 6.J pXuX`.pXpXJ J dXrXZ pXpX).dXlXCXNXBXmXNXu.BX0XV 5.$.j.V.G.C.C.F.~.).).J ).pX).).).J J J J ).J J ).`.).J H ).).J J J J ).).J ).J J pXJ J 6.J 6.6.jXyX!.6.H 6.J pX5.).pX4.nXyXXXLXyX_.J J J J J J 6.(.6.J ).6.J J ).).J J pX6.G G <.S pX).J J J C G J gX'.(.7.yX'.).).).).J J ).J 5.J pXpX).J H 9.jXVXu.i.mXt.CX<X% A.i A.i r H.H H ).).).J 5.uX(.).).6.J ).pX`.J J J J J ).).).J 6.).^.).6.J 6.q.B J J J J ).`.`.pX6.J ).pXJ ).pX).).pX).`.).G J pXpX).7.D J J ).pXpXG C 5.J 7.;.7 &.Z 6.J J pX6.).).J ).J J ).).J J J J J ).).).).).J fX'.6.J J ).).).pX$.n ).S H fXBX1XNXmXVXmX( ~ Q h.w ",
"J.C.Z.g pX).).J J J J J 5.(.).pX).(.5.7.6.6.`.^.iX^.G 3.V (.J ).).).).J ).J 6.J 6.pX).pX(.6.J ).uXJ J ).sX).sXsXJ ).J J ).J J J ).).).).).J J ).pXpXsX).6.6.G J pX).J pX`.pX8.2.L J 6.6.G J ).pX).).).pX).J ).).J J J ).).).pX^.).pXpX(.^.dXzXy.NXu.u.NX1Xy.p.a Z.p G.H.p G.E.6.H ).6.J J 6.).pXpX/.J pXpXH pXJ ).6.J pXpXpXaXJ J ).J 6.J ).).pX{.kXm 0.z (.pXpXpXpX).pXpXfXS F pX6.J ).pX).).).pX).).6.).).).q.p.g M 6.sX`.6./.pX^.^.6.J (.pX`.{.6.pX4.K J ).`.).pXJ J 7.J 6.pXuX).J yX!.pX).).6.lX1XBXNXt.NXNXu.! g `.1.& V.G.C.C.F.Z 5.).).).).6.H ).J J J J J J ).).pX5.J J F 5.J J J ).J 6.6.F J J J J J J J 6.).).`.6.J A C ).J `.).6.`.w.tXT.`.pX6.).).).).).J pXN F J J 6.).).).J J J J pX6.H {.pXG J D J #.@.m J ).).J ).(.J J J J J ).J F 9.f Z 6.J ).pX(.sX[.VXmXNXNXa.NX/ j.r i i i r L.pXH F ).5.J ).).).).J J J J ).).).).).J J J 6.J ).).).J J J pXJ [.`.J ).pXpX6.C G 6.).J J J ).J ).).6.(.).J 6.,.z F 6.J uX^.).).).).6.fX1.B pXuXlX;.@.n 6.).).pX).J J J J 4.S 6.G J ).).).).6.J J ).).6.J J pXpX).J J J G E.W.J H G 8.i./ CXNXu.mX2X:Xc.% C.",
"V.C.y g 6.).).).J J (.pXuX!.).7.J 5.G J J 6.J ).7.7.).sX`.).).J J J pX).pXD ).pXpX).pX).).6.).).pX6.D G D 8.C J sXpXuX(.J D J ).).pXJ 7.F ).).).).).`.8.N sXaXF F J J J J 7.7.8.L F ).pXuX(.pXJ ).).6.).pXH ).J ).).).).).J 6.J ).).pXH K 8.jXVXt.u.i.u.1X2Xp.a B.H.G.H.H.G.D ).).G ).).J ).J J ).J J J pXJ J J J ).).J ).).pXsX(.pXpX).).J ).).H tXm ;.g Z 6.J ).).).).`.dX`.J J ).`.).J J ).).pXaXG `.6.-.A e.|.|.Y.E.pX(.`.).pX).).).).).D ).5.D ).sX`.uX^.pXD G sX6.3.S pXJ ).6.J ).sX6.).pXpXq.a.BXCXNXBXBXNX! L.7.%.j.e A.G.C.V.B J J J ).).pX_.pX4.S J ).).).).5.5.pX3.C H ).).).J J J pXpX).pXJ J J J J 6.).J 6.5.5.G e.n !.).J 6.6.H zX{.Z 5.6.J ).).).J 3.G J rX!.J J J ).J 6.J 6.4.J pXpX~.A 9.^.J (.;.f.tXn (.).J J ).5.D ^.).).J J 4.Z aXXX!.pXJ J J !.uXpXp.t.BXt.t.u.<XF.w G.G.i A.a 6.(.).J 6.(.pX).).6.pX<.Z J J 6.J 6.J ).).J J ).J 6.J J ).6.).).J G ).pXJ J pXiX).).pX).pXJ J 6.J J pX).6.J 5.tXwX!.6.6.J ).).J J 1.>.N $.N K J xXeXQ.'.).).6.J 6.J ).pX^.D H pXE.(.J ).pX6.D ).).).5.).`.pXJ pX).uX).J ).(.).J J ^.gXi./ NXmXBXmX/ :Xc.% w ",
"w C.V.u H J J J pX).).J ).).6.pXpXpXH ).).sX_.pX6.J J 6.(.pX).).6.A F ).pX).J 5.6.J J J J pX).6.J pX`.sX).dXjXR.6.).sX`.sXuX(.7.A ).6.).^.(.).).pXJ 5.w.rXM aX_.(.6.D J 7.6.7.w.N n pXpX^.).).pXJ 6.J ).aX$.S <.Z pX).J ).).`.).).).pX).(.sXpXVXCXNXNXu.a.1Xt.g Z.H.H.H.H.i S J J ).H ).).J 6.).6.J ).6.A ).).).pX).6.J pXD J pX6.J ).).pX).).J J 7.jXQ.}._.pX).pX).).).6.pX).pX).`.).pX)._.8.z B pX`.>.;.W.Q.kXT.cXXXG 6.(.pXpX).pX).).).pX^.J `.).).6.D ).).).gXB G pXtXB sX^.).pX`.).6.pX).).pXzXCXi.t.t.i.BXZX<Xh aX0Xj.V.i A.A.V.R.6.J J J J J J 6.).(.).).J J G 5.(.J kXB (.J J J 7.D F 7.H ).pX).).6.G J ).pX).pX5.J 6.jXW.Z J J 6.).H pXjXZ J 5.(.).).).).aX(.(.).pXpX6.H pXpX).`.).pXJ J 6.6.J ).pXpX7.p.w.Q.}.pXD J J J uX~.).).pX4.Z ).).).).).J J 7.J Z J 9.t.NXBXmXCXs.<XJ.t G.G.i A.u (.(.J J ).).J ).J J J iX~.6.(.J ).).).J J 6.6.J J J 6.J J J J J ).).5.C ).6.H ).).J J 6.6.pXpXJ pXJ J pXpX).9.V `.6.J pX).G G pX>.E.bXMXL.W.'.pXJ _.).pXJ J J ).).).J pX6.uX~.aXE.J J J J pXuXH J J pXH J sX^.).).J ).).J ).).J (.D 9.NXCXNXu.BXCX( :Xc.% C.",
"V.w C.y m pXJ J ).).).).(.).pXpX).pX~.J pXJ 6.5.6.4._.{._.pXpXJ sXsX_.J ).5.J ).).pX).).`.).pXpXpXJ ).).pXJ `.pXJ J J ).6.).).7.~.J `.pXJ J J D J pX7.aXhXW.6.(.J 6.`.).).gX9.dXQ.T.pX6.J J G 6.J 7.F H aXbX~.pX).).pX).).).).pX).pX).).!.dXaXq.CXi.BXu.CX1Xa.& B.p i H.H.H.^.).`.).).J J ).).).6.).J pXE.).pXJ J 6.6.(.pXpXJ 6.).).pXJ 5.J J ).6.6.hX{.pX2.D ).6.).).6.).).).).).J 6.(.^.aX@.J.W.0.&.1.T.T.~.yXW.S pXsXuXV ).pX6.).).).pX).8.D ).(.J aXD H 6.).fXQ._.).dX'.6.).6.J pXpX6.J ).pXpXdXVXNXa.u.MXMXCX:Xg 6.tXj.V.A.A.w F.(.).).J ).J J J ).6.S ).J 6.J J ).pX7.^._.J 6.J 6.G D J J ^.J 6.J J 6.).).J J ).pXuX(.pX{.{.J J J ).).).).sX{.6.^.(.6.J ).J pX`.(.J J 6.`.H ).pXJ J 6.6.pXpXJ J J J 6.).gXd.fXI.Y.pX).D D ).).).J H 6./._.J J ).).J J 6.6.).).A e.t.i.i.u.a.t.AXL.t i i G.A.H.(.).).).).).J J ).J J J 7.(.J J ).J 3.K ).).sX).).6.J ).pX6.J J J J aXE.F ).`.).).pX5.6.J J 6.J 6.`.(.J pXJ fXQ.J pXJ 5.J 1.B 7.Q.!.gXwXXX{.6.6.fXS ).).pX).).J J 6.).J ).`.).).).pX).pX).).sX).).).).<.B 6.^.).).6.(.J ).(.).^._.fXgXi.a.MXmXd.a.CX:Xz.h.C.",
"w w C.B.L.6.).).(.).).J J J 6.pX).).pXJ ).6.pX).8.~._.J 6.J pX).6.J ).).pXpX).H 6.6.pXH J 6.J pXpXpXJ J pXpX6.).).).).J 4.^.pXpXpXJ J 7.).J J J ).J sXsX/.pXdX(.4.E.).).0.l [.hX).L v 6.(.pX`.`.uXsX/.^.J (.).).`.8.N (.).).).).pX).).J (.pX9.p.CXi.NXNXCX( t.j.B.H.H.p G.a pX).J uXJ J 6.H ).pXpXpXJ ).).pX6.).6.J `.).pX6.pXJ J ).pXpXpX).J (.uX^.).G 1.h !.sX).).).6.J J 6.J pX6.).`.G 9.x.J.L lXyX(.R.B F G sX`.J J sX`.J >.H ).).6.G G sX/.).1.M `./.).).).`.sXpX).pXpX^.).gXh Z pXaX).).pXaX5.lXZXZXVXBXi.NX^ g H 0Xj.e C.A.C.a J J 6.).G J J J J ).).J J ).`.pXD ).sX`.J G J J ).uX^._.).J ).).).).6.J ).6.J J J J ).).).pX4.G 5.J J H 6.G J pX).).).).).pX6.).J 6.6.J 5.F H 7.J J J J 5.5.).pX).).pXH 1.lX}.}.).J J /.^.J ).J J H ).J J J ).J J J J 6.pXJ J aXw.t.NXBXNX/ MXa.a V.i r G.A.J.H H ).).J J ).).).pXJ 7.D (.pX).6.J sX/.J J ).pXJ ).).J pXpX).pXpX).).pXpXH J 5.J 5.pX^.).).pX).(.J 5.J J ).).pXD pX).pX6.).`.).(.6.).(.G 6.pX).sX).).6.).).).6.<.).).).).J ).7.G (.).pX<.K J J J ).).sX/.6.).).pX).).(.pX).(.).D `.zXi.mXy.t.SX1XmXVX;X% w ",
"C.V.w e n J D ).J J J ).).J ).pXpXJ 6.`.).`.sXsXhX`.5.G J 5.J 6.6.^.).J ).).uX`.6.(.pX).J ).J ).).pXpX).J 6.).).).`.pXpX).D ).).pX`.pXsX^.6.D J J ).J ).pX6.J (.).J 5.F xXR.m dXyXe.b n pX).).).).).).pX`.^.).5.C e.Y.!.).).).).pX(.).).~.aX9./ s.BXNXNXa.( ZXL.y H.H.H.H.i Z pX).J `.).).).5.J J 7.~.).).pXpXJ sXJ J pX6.6.).1.B 6.G J pXpX).).).).pXpXuXQ.H J pX).pX).pX).5.J ).pXJ 6.<.(.jXXX{.yXbXQ.XXhX_.`.^.z 2.,.b ).dXE.).pX).sX1.B ).).pXiXQ.J 4.H ).pX5.5.`.pX).pX).5.pX{.`.pXpXpXJ ).aX6.MXs.BXu.NXBXNX/ l.(.$.& V.C.r C.F.(.J ).aX,.B ).).).).).).).).).pX^.J G 6.8.S J J J ).`.J J J J ).6.J ).).J 5.(.).pX).).J J 5.6.J ).).).J G uX~.J 6.J J pXJ pX6.5.G G 5.J ).`.F 6.6.).pXpXgXE.H ).pXJ J ).sXnXY.F J fX~.J 5.D H ).J J J 4.Z J ).pX).6.J 6.J 6.D 6.zX1XmXi.NX1Xy.mXJ.w G.r G.r J.J (.).J J 6.J 6.J 6.).`./.(.).6.J ).J 6.).pXJ 6.).).pX).J ).).pX).pXJ ).).6.J J J J ).).).).pXsX,.>.f L ).^.).pXuXJ pXJ pX).).`.).).).pX).J ).).pX).J ).).).).pX/.J J J ).).J pXpXz F pXiX/.J ).J ).J ).6.D ).).).).).).).`.(.6.~.{.xXMXCXNXi.y.ZX2X) : h.C.",
"V.C.w Z.a 5.K H ).).).).pXJ J 6.).pX).J J J 6.6.5.6.6._.J ).J pX^.(.8.A H ).6.G 6.J J ).pX).).).pX6.J ).J pXJ ).J 5.).).pX).).J J 6.H ).sXpX`.pXH pXsXJ ).dX).(.uX^.).(.hXbXXX].{.nX*X}.J ).).J 5.J 6.6.3.F 8.#.b f T.pX).>.K pX).uX).)._.aXgXCXBXi.u.NXa.1Xa.g B.H.H.H.H.G.~.).pX(.).pX(.6.).pXJ `.).J 6.J 6.8.S 6.F J pX).pXhX`.6.sXF J pX).7.H pX).).pX).).).).J 6.J ).pX1.B J ).).).iX).).).).5.`.`.5.J J G 1.g m jX1.j G ).pX).).pXhX_.8.S pXJ 6.J sX).G J ).^.pXpX).5.6.^.^.J 6.pXpXpX).pX7.7.p.a.i.mXBXi.u.<XL.5.0Xj.V.G.A.A.u A J H 6.yX!.J J J J J J J J J J J 6.).J iX_.).).).G J ).J 6.).).6.).5.J ).uX).J ).J J 6.J J ).).pXJ J 6.).(.sXpXpXJ H pX6.6.pX6.).).).).J 5.N F pX).6.6.pX).).5.(.).).D F jX0Xj B ).pX4.(.uXH J 4.(.J ).).J G J ).pXJ J 6.6.J ).kX/ NXBXNXCXVXVXL.e G.r i A.p J H J 5.J ).).).).J ).J J J J pX).J 6.J J 6.J 6.J 6.6.).J ).).).6.6.G J pX).).pXJ ).5.F G pX).aXSX XjXP.H J pX).pXpXJ ).`.`.).).J pX6.).).).pXJ J ).pXJ J ).J ).).pX).).6.3.H ).gX$.B 6.J J ).).).pX).).pX^.J ).6.D ).J J ).J J Z Z q.u.a.NXu.i.t.2X:Xl.h.C.",
"C.V.V.w a E.'.(.(.).J J pX).).J J J 6.6.J J J ).pXpX`.).).).).).).).sX[.(.).gX^.J ).).H ).pX6.D J pX^.6.J ).).).).pXJ J J J 6.pX).pX).3.A ).J pX).J 7.pXN *.K ).5.D (.`.).`.`.).).6.yX`.).).pXpX).`.`.sXjX!.e.tXgXN j b (.kXE.).).pXpX_.D 8.9.s.u.u.NXu.a./ t.- V.p H.G.H.J.pXJ ).).J ).).).J ).).).).).).).pXsXD ).).H 5.5.J 6.2.(.pXpXF pXpXsX~.6.J ).).).pX).).6.pXuX).6.hX].6.F ).6.pXJ J `.pX).A pXpX).sXJ nXXXY.Z nXQ.Y.(.).`.pXpXG C [.`.).pX).).6.J `.).J pX).pXpXiX'.`.pXsXpX).).pX6.6.aXdXBXCXBXu.t.MXNXqXh ).rXj.V.G.C.A.Z.R.pX(.).).J J ).).).).J 6.J G J J ).9.z !.)._.).).uX(.6.6.).8.z H J pX(.J J 6.J J J ).pXJ ).J J pX`.).6.N G G ).).dXC C 7.J 5.6.).).pXuX`.#.@.j v H pXpX7.J 5.uX(.).).aXD H xX}.'.J 5.`.).J ).).).J ).).).).6.K F 6.8.G H pXJ H lXCXZXy.u.mXZXs.a V.G.A.A.G.w !.).).).).J J ).pXpX3.H ).).G J pXJ ).`.).).pX).J J ).J ).).6.D ).pXuX(.J 6.J 5.J 5.D 9.@.B pX).jXcXcXyXB ).J 6.J pX).).J 6.).pX^.).).).pXC 2.,.Z pXpX).).3.).6.2.D J ).pX/.(.).).[.).pX).).).G J pX).6.J ).pXJ ).^.).).).).).J J F w.mXBXmXVXBXmXCX<Xl.h.V.",
"C.V.C.V.J.!.).).H J ).).J J J pX).).).pX).).).).6.6.5.J ).).).J J ).).pXpXpX`.`.sXpXuXJ H pXpX`.6.6.).sXpXC H pXD J ).pXJ 5.J J pXpX6.fX'.pX).6.C C 5.,.#.d M N 3.!.(.H 6.J J J 5.<.Z J ).).).).).J ).6.`.fXe.7.Q.*XbXL.(.`.).).pX6.).S aX7.w.a.NXBXu.u./ ) ! j.e H.H.H.G.a 6.).).J J J J pX6.F 5.J J J ).pXpX6.`.).).J 6.rXS 7.{.(.pX9.z H J ).).).).J ).pX6.J ).).).sX).pX).pX).aXN V G 9.B J J 1.h (.sX7.A 6.J hXjXZ G zXm J J J ).pXaXE.Z 7.G J ).J pX^.).pX(.J ).).`.).pX).6.).pX).pX6.6.6.pX9.i.ZXNXmXmXMXZX^ h (.rXj.V.G.A.C.F.^.).).).pXJ F J J ).).).J pX).J G H q.P.(.J J J J ).).pX).).gXP.Z G J J J ).).).).J J J ).).9.B ).).).e.@.Y.(.J J pXdXH J pX4.(.).J J (.4.d.7.a g !.pX9.3.F J ).).J 5.5.).).).).).pX).).J ).).pX6.).).J J ).sXiX~.6.gXE.(.5.).6.e.a.CXBXu.a.a.t.i A.i A.G.i G.!.J (.).6.).).J J 6.rXH H 6.J H J ).).J 6.pX6.J ).pXJ J J 6.pX).J 6.J 6.6.J pX<.H pX).e.@.m pXJ J iXhXyX~.pXJ 6.).).J J ).).).).).J D J 7.rX*.>.n G J ).8.<.J pXrX~.).).).).pX5.).J ).).).).aX$.B pX).6.D J pX).).).).J ).).).6.(.`.w.i.y.t.u.NXmXZX2X;XB.C.",
"V.V.e F.L.!.).(.).J H ).).6.D ).).).J 6.pXJ D 5.J pXpX(.J J J pX5.F J J J 6.J J pXuX).pX).J ).pX6.^.).J sX{.~.).sXuXH pXpXpXH J J pX`.[.).pX).gX$.m 2.r.q.}.R.W.'.D ~.).6.(.).6.J [.`.).).).).).pX(.).`.).pXnX|.}.).hX{.pX).).).pXpX).~.).9.w.a.NXi.mXNX/ 3XUXj.C.H.H.H.G.L.pXJ J ).J J J J pX).).).6.J C J pXpXJ J pX).aX).6.(.`.6.J gXQ.(.).).).J ).J J pX).).).).6.6.J 6.A J J aXQ.`.`.`.hXJ ).sXhXF 5.gXQ.3.V H gX8.-.;.T.F (.pXN D `.`.pXuXuX!.sX`.).pXJ J pX).pXJ 6.J G J J ).pX).pXsXpXpX7.9.t.u.BXCXmXMXZXmXh (.1.j.V.G.A.A.C.~.).).J 6.J F ).).H ).6.J ).pXpXJ J hX].7.(.).).).J J J ).pXpXsX6.H J J ).).pXJ J 6.J J J 6.`.^.J G J xXyX(.).).).).aXD !.sXpX).).).uXJ 1.DXQ.I.{.).J pXhX_.pX2.G 5.J uXJ (.8.A F J ).J J J J 6.J J J 7.S F J ).pX).sX).0.N (.9.%.t.NXBXu.mXCXqXH.r G.r i r u J J G 5.D J J J J 6.pX(.(.pX).J J G J ).5.J ).).J 6.pXJ J ).J pXJ 6.J pX`.6.5.sX^.6.).hX0Xn 6.).).pX).).6.).1.z K pXpX).).).6.J J ).pXJ J _.nXW.T.D (.pX1.R.pX).pX).J J ).).7.D (.).).).).J ).hXS J J sX/.(.6.J ).).).).(.).6.pXF ^.e.i.u.mXu.NXNXZXCX! h.C.",
"V.V.V.J.hXJ ).).J ).(.J ).pX^.J 6.J 8.H sXsX).^.pXJ pXD pXJ (.6.fX~.(.).).).pX).J pX).J ).).).sXpX).pX).G C ).6.D pXpXpXpXpX,.K ).J J J J J J gXnXZ 1.%.W.XXR._.9.E._.J iX^.).pXD (.pX).).J pXJ ).`.).J J J ^./.).6.G ).).).).J J pX).~.fX9.zXmXu.BXNXa.1XVXeXl.y H.H.H.A.Y.6.).pX).pX).).J J ).).J J aX<.Z pXpXpX3.G ).6.uX(.).5.J 6.J ).J `.J J J 0.M ).pX).).).pXpX).pXpXsX).).).J J `.6.5.`.3.G pXpX).pX`.jX'.5.J jXq.P.].`.(.7.rX~.J G ).pXsXJ 2.(.pXpX).J G J J sXsXsXuXJ <.S pX).pXpXpX).gXw.a.NXi.CXmXBXu.mXP.H q.& V.G.r A.F.~.pXJ ).).pX(.(.).).J ).).J ).).pXJ H 5.).).J J J J J J J 3.G J `.).).).J J ).6.F pXJ ).).pX).G J J J J J ).J J J J aX/.~.5.6.).).J 6.pXfXDX0XZ J 6.).).).).sXyX^.pXJ ).^.J <.'.`.D J ).pX4.H J fXS ).J D H J J ).).5.6.uX/.(.gXlXa.NXNXNXNXa.,.a C.G.G.i A.u H 6.6.~.pXJ ).J ).).pX).J J ).).).uXH ).pX`.6.J J J pX).J 5.J pX).pXJ ).).pX).J 6.).).H /.^.(.).6.J 6.pX).0.R.vXW.J ).).J J 6.).J J 6.`.sX).pXyX].`.J 6.`.).6.J ).).).).J J pX`.J J J D J 6.H 8.E.`.).J J ).pX).).).).).(.J pX).{.J lXBXt.BXBXNXi.CX( ; B.C.",
"V.V.C.u K pX).).J J J J 6.J ).).).J pX(.J pXpXF J ).pX`.).`.).6.~.^.(.pXpX).pX6.D ).sXpXpX3.F 6.D ^.uXpXq.h H 6.J J ).).pXpXjXR.).).).).pX).).J jXyXjXP.XXhX].).hX/.J ).).).).).iXJ ).aXA ).pXpXJ ).J ).).(.pXA J pX`.).J ).).pXJ ).pXH `.zXw.y.u.i.u.t.a.CX%.h B.H.G.G.A.g pXJ J ).).).J 6.D F J pXJ 6.`.).6.J pXq.M ).).).9.z !.).6.uX(.^.J 7.J 6.q.Y.(.pX6.J ).pX).J ).).pX).pXpX).pXF 7._.sXtXB J ).).sX).).pX).pX)./.`.6.).pXpX).).7.A J 6.).gXE.(.pX).`.dX/.).).F (.6.).sXhX_.6.`.pX6.sX).aXlXCXNXu.u.CXNXu.^ - !.tXj.e G.C.A.F.D J ).).).).).).).J ).J pX).J ).pXpX8.N H J ).).6.J J ).6.rXR.J J J ).6.J F G 8.S J pXJ J ).pXsXJ H 6.J J J 6.J J 7.J `.).pXJ 5.).6.(.pX6.nXIXn pX).pX6.J G J 6.6.6.(.(.pX6.^.J J aXH H J uX^.J ).).).4.B (.).).6.2.^.).).J (.gXlXCXu.i.NXmX/ qXi w i G.G.G.u S 5.J J J (.6.J ).).).).pX(.6.J J ).).J J ).pX).).).).).aX6.(.6.J J ).J 6.).pX).).).J ).0.@.B 7.5.J J ).).kXY.Z pXJ ).).J ).).).J 5.D J pXpXD J 5.J J ).).5.J 6.J ).).).J ).J 6.).).).pXJ ).).`.`.6.J pX^.).2.K ).J J ).).).6.!.^.9.w.u.u.i.NXBXu.a.2XP.B.C.",
"V.C.w F.!.pX).J 6.J J ).6.).).).6.).).).J pX`.`.).6.).).).).(.sXsXH ).5.J ).5.uX`.G D ).aXuX_.sX).J 5.pXhX{.uX(.).J J 7.A ).`.[.uX).).pX).).dX`.).pXjXW.H sX`.).J 5.~.J J J J J J ).J pX{.).pXsX`.).).).6.).pX`.).).).pX).).pXJ ).(.fX^.D gXlXt.u.u.i.a.a./ f.s Z.p G.i A.a J pXJ J 6.6.J ).sX`.).pX).pXJ J J J 6.yXQ.H pX6.q.}.!.pX).pX(.pXpX).~.aXyX{.).6.6.).).pXpX).J 5.).).6.pXG 6.uX~.).5.sXsXJ F D pX).J J ).J pXF J pX).J 5.J ).pX`.).`.J sX`.J 8.z Z pX`.`.sXfXK pXJ 6.2.J J J dX^.).pXgXw.mXmXBXa.t.NXNX^ l.).<.j.V.C.G.A.w S pX).).J ).).).).).).J ).J J ).J ).iX/.).D F J pX).pXJ ).`.).6.H J J ).pX6.<.R.`.).pX).).H J ).sX_.uX(.).6.5.J ).pX).J G J 6.).J ).`.aXD H fX,.Z ).pX5.6.6.H ).pXuX6.F pX).(.).J sX0.Z ).).).).).).).).`.H J ).aXrX(.pXpXH J 7.d.CXu.NXu.a.mXmXJ.t G.i G.i w R.pXJ ).(.(.uX_.5.F J ).pX).pX(.).J J ).6.J ).pXpXJ J 6.pX`.).6.6.(.J 6.J J ).).).pXpXJ q.lX0.h h ~.).J J fXXX(.pXJ J ).).).).).pXsX).).).pXpXH pX).).J 6.).).pX).J J ).`.).3._.pXD D 4.S J ).).).aXV H ).aXtXY.pX).).(.).).sX(.D 7.zXNXmXi.NXNXNXCX1X; e C.",
"V.C.Z.L.6.6.6.3.F (.).).pXJ D pXpX).J 6.J J ).6.7.J ).6.J pX(.J aX_.J 7.H (.sX).pXuXH J 7.D D ).aX).J ).).).pX).pXpX).sX`.(.(.J pX).pX).7.G H sXpXJ `./.D ).pX6.).`.`.6.J J J H ).).).).J 6.6.D ).).).pX(.J J J ).).).J ).).).pX3.H 5.H 5.dXSXt.u.u.i.a.a.t.SXL.e H.G.H.A.J.).6.J J J ).pXJ J 6.J ).).).pXpX).6.).6.J ).J 6.yX_.).J J 6.).).pXpXH pX`.).pX).`.).(.pXpXpX9.K J 5.5.4.sX(._.sXJ ).J J aX<.Z pX).J J pX).).).J pXpX6.pXD (.J ).).7.D 6.D (.zXE.Z pXJ J `.hX`.8.D pXrXS 3.Z 6.pXJ J gXzXu.ZXu.NXBXNXCX<Xh 5.1.& V.C.G.C.C.R.6.(.6.).).).J J ).).).6.J ).pXJ J J ).).sX_.J J F pXsX).6.).).J J (.J 8.H {.`.C F pXpXJ G F ).sX).7.~.H pX`.).J 6.J ).).).J ).`.).J sXdXH gXwX!.H aXuX(.sXsX6.D J aXA H sX(.pXD 5.hX'.J J J J pX).).).).).J J 6.).6.J ).).J 7.lXmXNXu.i.a.) r.a V.G.i i i F.Z 6.J ).J F ).5.rX~.).J ).6.J 6.J ).).3.A A F J 6.6.J J ).pXJ pX`.).J 6.).).J J J 6.pX).sXwXeX}.].`.).).pX).).6.6.7.C H pX).).7.N A D G G ).pX).).).pXpXJ J 6.pXJ ).J G N 7.E.(.6.pX).uX_.6.K ).J pXiX(.J J yX`.).).).J J J J ).D aXtXBXa.BXBXBXmXCX1X; Z.C.",
"V.C.V.u K G ^.dX_.(.).J ).pX^.).).pX).).).J J J aX(.6.6.J (.).).`.sX6.`.pXG G 5.G ).pX5.^.[.pXG ).`.sXJ J J pX).).).pX5.D `.sXJ 6.C J pX1.Z D J pXpXJ 5.J H 6.).).5.J ).pX6.pX*.z C ).J ).pXsXuXH J J ).`.).).).).).).).(.pX).aXrX_.pXJ (.sXSXCXa.u.i.a.a.t.e.- V.H.i H.A.Y.6.6.).).).).pX).).pX).J J 5.G ).pX).6.8.(.J J J J ).).pXJ J ).6.3.~.).3.G ).).).J pXJ J pX5.fX{.6.).pX_.).).J pXpXJ pXJ ).sX).J ).).).).`.pX).).).7.).).^.uXJ F 5.pX).6.^.(.dXyX].7.*.Z pXD 5.pX^.pXdXrX{.`.5.J J 6.7.lXu.i.CXu.NXi.CX^ L.6.<.j.V.C.G.C.F.(.J J J ).J J J ).J J ).).).6.J ).).J J J J 6.).).J J J 6.).J 5.6.^.).6.sX`.F 5.`.H J 6.J 7.K Z 6.6.).).J J J 6.6.3.H J ).6.).J H 5.J G 6.pX)._.pXH aX`.).J 6.).pX6.5.iXZ J ).J ).).(.pX(.).J J J J J ).).).J 6.6.H pX).pX(.`.gXe.a.u.u.t.t.1XeXJ.r G.G.G.r J.pX).).A ^.^.).uX(.).pX).J pX).pX^.J pXhXiX/.).D ).pXJ pXJ J pX).pX).pX4.H pXpX).).).).pX(.9.%.R.7.).).6.6.J ).).`.gX/.(.5.5.G q.>.b l z R.pX).).pX).J 5.).pX(.).).pX,.>.$.M J 8.D ).).).).pX`.J ).).6.^.3.K J 5.H ).).).5.C H S fXpXaXmXt.y.i.MXmXmX1XQ B.C.",
"V.V.C.F.V !.).J `.(.).).).J J ).).pXpXJ ).).6.H pXJ 6._.`.).6.G -.N `.6.6.pXD 6.~.pXpX`.S C pXD Z ).sXpX).(.J J 6.J 6.pX(.G 3._.9.V (.pXdX/.`.).pX).dXsX`.~.sX`.6.6._.8.C `.>.z L m Z pX).).pXsX).6.J ).J ).J J J ).J ).).).).).sXpXpX)._.J lXa.t.NXi.NX1Xg.} & V.H.G.H.A.a 6.).).J ).).).J J 6.).6.6.4.~.).7.J 6./.).6.).).).).6.5.).D J aXiX(.).fX~.).).pX).D `.).6.<.Z 6.pX).`.pXD J D 5.).pX).).pXJ `.`.).pX).).).fXD J 6.6.).pX(.pX).).6.J ).aX~.).(.).6.q.rX!.pXpX6.6.J 6.6.`.).7.).).6.J aXzXVXp.i.BXt.i.NX<XB 6.<.j.V.C.A.C.F.).).).H J ).6.G F J (.5.J J 5.J J 7.C H J J J J 5.J J ).6.5.J ).).).J J J pXsX).G J J 6.).sX'.(.6.sX).).).).6.J aX`.^.`.).).pX).).D J ).pXJ `.J 5.F J 6.6.6.J 5.5.6.J F ).H J ).J J J J ).5.H (.).).6.J J J J ).uXS ).).pX).F 9.lXmXu.u.u.s.qXAXg V.i i G.G.u L ).)./._.pXJ J (.J J ).5.J 6.J ).).).J 6.pX`.`.J J ).).pXC K 5.).).6.pXJ J pX).).).).6.J sXE.).).).).).).pX).).J ).pXpXpX9.B jXjXQ.V T.^.A J ).).pXpX`.6.,.M pX6.>.Q.}.vXXX4.^.).J J ).7.*.K D ).J uX).1.M ).uX(.).).pX1.B (.H 5.(.gXMXZXi.BXy.NXNX/ ; B.C.",
"V.V.C.e T.`.5.(.(.).).).J ).).).pX).pXpX).6.^.).pX`.sXJ J ).pX8.rXR.(.sX).pXuX/.~.6.6.4.#.0 z <.Z J 6.4.`.).uX_.pX).pXpXG 1.h (.`.[._.).6.D ).6.J J (.`.`.pXG pXpX`.J tXE.J $.m T.W.~.).).J 6.J ).sX6.H ).pX).4.S J ).H ).J ).).J J pX(.).aXzXmXNXmXBXNX2X^ O.* C.H.G.H.H.p g pX).).).J ).J 5.(.).J 6.uXD J pX).6.3.N (.).).).).aX/.0.N Z pX).J J (.).).).).sX`.J pX6.sX`.).).pXK pX`.`.).uX(.pX).).)._.).6.J ).).J G rX^.pX).sX).6.).pXpXJ `.1.N `.uXJ ).J pXiX{._.).4.pX).).pXpX).7.D J ).pX^.aXgXVXCXi.i.mXBXa.) h 6.$.j.V.C.A.C.J.H J J J J 5.5.).J H J 6.H J 6.J ).dXE.H ).).pXJ pXJ (.J 6.pXJ (.).6.J ).).J ).pXiX(.pXJ J J H H J J ).J J J 6.6.).J J 5.5.J (.pX5.E.^.).pX(.(.).sX_.7.G ).sX6.).sXpXpX(._.).).J pX).J J J sX`.J (.pXpX).D ).pXH sX'.).).J 6.(.gXe.mXt.i.NX/ p.g.a V.i G.G.i F.R.).(.J J pX).).).).).pXpX).J ^.).).5.J J ).J 5.6.J 2.J aXw.z Z pX6.).J pXJ ).pXJ J J pX).).J J J J 3.N J pX).6.6.2.H pXJ dX'.J hXQ.hX_.pX`.).5.A ).8.>.:.;.b M 9.P.}.`.J J sX).pX).).F gX0X'./.J (.).J `.[.D ).J ).).9.R.].J ).(.`.7.MX/ NXNXu.i.NX/ - B.C.",
"V.V.C.B.j C ).J H J ).).pX).).6.J ).6.).).6.J 5.H J ).sX).J 6.`._.sX_.pX6.`._.`.sXpX`.sXAXeXg R.`.(.aX^.(.pX`.J 6.).).aXrX~.`.(.).J J 7.6._.).pXpX5.Z 5.J pXuXD ^.).pX).pX`.jXI.W.S _.).).).pX).J 7.uXS (.`.sX`.`.).).`.pXpX(.pX).).).).J ).zXt.u.NXNXi.1X3Xg.* C.H.G.G.H.H.u H pXJ J J J ).).).pXpXpX^.`.(.pX).).gXV Z ).pXJ J 5.G hX X(.(.pXpX).5.C H J 6.5.J ).J pX).`.`.pXpX1.B 6.J 6.).).6.J ).(.6.5.6._.).pXJ uX~.).`.).pXpX).).6.).).J kXW.F pX).).).).).(.J 7.).J pX6.G 5.J sXsX(.J pX).7.aXkXCXBXNXNXi.NX<Xh 7.0X& V.r A.V.L.6.J J J ).uX'.`.pX_.J pXJ G 6.G J J `.).J 6.J ).5.).J 5.6.).pXJ J pX(.).).pXJ J ).J 5.).).).Z ).6.J G 6.6.J 7.J ).`.uX(.pX).H 6.pX(.).pXpXpXH 5.*.L 6.uXD 6.sXpX6.`.).`.J G J J ).4.~.).J G J ).*.z ).).`.H pX).H J 6.J J 6.G ;.;.y.CXNXs.y.VXp.F.r G.i i A.p ).(.(.J ).).).).).J 6.J J pX).J 5.J ).J J J 5.6.J aX<.Z aXkXQ.!.6.).).).).).8.A ).pX).).pX).).J 6.J 1.P.).).pX).pXrX~.6.).J pXpX5.F J 5.J ).6.aX~.C 1.yXyXbXXXE.).Q.).J ).J J 8.N (.pXuXH `.).5.A (.6.A J 2.^.).6.D J dX].J J J H (.9.SX1XBXNXmXNXMX<Xl.V.C.",
"C.C.V.L.M m ).`.(.).J 6.).).).J J J pX).J ).pX).J J J J J 6.(.).).J J pXpX).C 5.G ^.`.).sXwX|.[.sX).6.^.D J J pXpX^.pXpXsX)._.).).6.J sX`.6.J J 7.`.(.G (.5.6.`.).)._.aXN F J dXrXR.pX).).6.J ).J 6.sX`.C K J 6.J pXC F pXpX).J ).).).).`.J zXCXi.i.u.NXCXZX~ % A.H.G.G.G.G.C.(.6.).J ).).).J 7.G ).).pX).J J J J 7.rX^.G J ).pX1.R.).J ).J pX).).pXiX!.5.5.pX).pX).).).J 5.J 8.tXR.uX^.~.).pX).`.6.H 7.D (.).6.pXpX).).J G 5.J pX_.7.3.D ).6.[.pXG ).6.J J ).pXJ J (.fXD ).dX8.V Z G 5.pX6.J pXpXgX9.mXBXNXmXBXBX) g ).V j.V.G.C.S.a M ).).(.`.D (.6.).J J J pX).).fXS ).).J J J J pX<.H 6.J J J J ).).).).).J ).pX).J 6.J J ).sXS H pX7.G F J ).6.(.H 6.6.5.).pX5.J `.H J J pX6.).aXqXh G 6.).6.J 6.).J ).).pX).J J F `.J J 6.).J J qXR.).8.C ).J ).).).).).6.).gX%.m MXCXNXa.VX/ %.u A.i i G.r G.^.).).J ).).J J ).).J ).).5.J 1.V J J ).).pX).pXJ 6.{.).J {.{.6.pX5.H pXJ J fX/.J J ).).).).).).).).`.[.pX).).).`.sXpXpX3.H J aXiX~.).pX(.6.D J 5.<.R.sX).`.pXpX_.J 6.J J ).).fXP.J D `.6.D 8.<.R.J pXE.aX0XB J pX^.J ).2.C ).J H G w.w.1XmXNXu.NXSX<X& V.C.",
"V.C.y L.|.].J ).).J J ).).J pX6.).).J pXpXJ 6.~.sXJ J 6.).`.^.J 6.7.J G J pX1.V Z H 2.G J 5.J J pXpXpX_.`.pX6.J pXJ J pXJ ).6.D J pXJ J 6.pX).pXpX).`.`.J pXJ _.pXD G aXiX(.(.J iX(.).).J pXH J pX(.).pX0XY.8.V ).pXrXB fX~.pX).).).J ).).pXgXmXu.i.NXu.ZX^ ,Xl.V.H.G.G.G.G.w K 6.(.pXJ J 6.J 9.E.(.6.J ).pX).).).gXN D ).H J J sX_.6.).5.J J ).).pX_.).pX).).).).J J J 6.J J 6.dXE.(.sX).).sX>.K ).^.pX`.(.6.6.6.J ).J J J J ).D D aXrX~.8.H ).7.~.6.6.D (.J pXpXJ 5.A `.J pXdX[.sXpX3.K sXpX6.J dXe.mXNXNXBXmXi.3Xl.5.E.j.e A.C.A.D.W.).).H 5.^.).).6.J ).J 6.J J pX(.F J J J J J J `.`.6.D 6.D H J J J J J 6.J 6.J ).).).J J J `.!.7.pXgXA Z J ).).J J pXuX(.J sX`.6.D G J 6.6.J J hX/.^.`.pX6.pXJ ).).J 8.G 6.J pX).J D D J ).D ).fX'.F tXP.F J J J J J J ).).uXwX}.VXa.i.mXVX2X%.w A.G.i i r J.6.F ).).).).pX(.).).pXJ pXpX(.hX`.).6.2.G D J 6.pXJ 6.D H J 6.).pXsX(.).pX).J pX).).).).J J J ).).).(.6.J J ).J J 5.J sXiX).6.J `.D J pX).6.uXpX7.'.pX6.).pX).pXJ (.pX).^.J 5.).pXJ ^.J 4.(.fX{.<.V ).).pX/.`.pX(.).).`.%.h Z ).).pX9.zX/ NXNXNXBXy.<Xj.V.C.",
"V.C.Z.J.F 6.).J ).).).).J J 6.).J 6.).pXpXpXpXH J pXJ ).J H J ).pX`.uXpX_.).hXhX'.6.7.!.).pX`.7.N J ).(.6.pXsX).uX^.pX6.J J `.).).).sX6.J J 5.J 7.N Z pXpX6.~.).6.sX~.).dX`.).).).`.6.).).pXpXD J ).).).'.sX`.`.).).^.'.pX).J pX).pX).H `.).zXmXBXu.NXu.s.<X:X- S.G.G.G.G.G.K.!.pX(.5.).).).pX).`.J pX).6.J ).).).aXE.R.pXH ).).pXJ J 7.D J J J J ).J J 5.).J J ).pX).J J J 6.5.J uXS ).pX).6.tXR.6.J J ).`.6.J pX).).).`.`.sX,.h ~.6.sXpXuX'.6.D J 6.pX^.).).J J ).8.~.J J 5.5.J ^.1.).H F 6.pX).dXy.a.NXmXNXt.BX3XP.6.<.j.C.C.A.C.a A G J ).).(.).J J ).).).).).).9.z H ).J ).J ).pXJ J aX(.J ^.H J J J ).J J ).pX).J G J J ).J (.).6.).pXhX).).).).).).).pX).).).6.J ).pXH J 6.6.G (.).).6.6.pX6.).).pXJ uX(.).).J ).).`.aX$.S `.J 4.J V !.sXpXJ ).).J J ).J ).H yXjXy.a.i.NXu.( 0Xy A.i G.G.A.a 8.~.(.).).).6.(.6.5.G ).2.N (.J J ).gXV ~.(.(.J 5.).pX).).).6.J J ).pX).6.).pX).J ).).).).pXJ H ).).J J ).J J 6.J pX).5.F pXJ ).J `.).).7.*.Z 7.`.(.pXuXD pXJ J pXJ J ).).).`.`.).).).).`.).).J uX/.J ).).J J J J ).).).`.hXE.(.).aXzXzXCXCXu.i.NXNX1Xl.V.V.",
"V.C.V.a F ).).).).).6.J J J ).).aX$.S 6.J pX).).5.J ).J `.(.6.H ).J 6.(.).sXJ 5.).sXhX!.6.J ).sXyX`.).J 5.G J pX`.6.5.6.).J G G 6.D 5.pX`.pXpX).pXrXZ 5.).`.(.pX).6.J J 6.).).6.G G 6.G J ).pX).^.).).G C J 6.J J 6.~.J 4.^.pXJ ).D ).)._.pXzXCXt.i.u.u.mX1X! & V.H.G.H.H.A.g 6.J pXJ H ).).).).pX).).).6.J J J J J sX`.uX).(.pXJ 4.H `./.`.J ).).6.J ).uX(.aXN H J J pXpXuX^.fX!.sX'.J 5.).).`.sX6.J J J 2.D ).).).pX).(.).7.0X}.J ).G (.).J pX8.N H pXpXJ ).pX7.>.V (.uXpX6.`./.0.3.F G F D J J sXBXa.NXmXMXmXy./ g J 0Xh.C.A.C.A.J.E.pXH ).).).J pX(.J J ).).).).e.@.Z 5.).).).J pXpXJ J pX).).).).J H ).).).pXJ 6.J ).J ).).).(.J J 6.J 5.J J 5.F 6.J ).).).6.G pX).).pX6.$.B pX^.H J 5.6.).pX6.J J pX).6.(.J 5.6.S G G 6.0XR.J J 8.~._.8.K ).).G G D ).).pXD H `.xXmXCXNXNXp.VX^ % A.A.p i H.w g ).F F H 6.pXJ 6.pX`.pXqXL.H 6.).J pX[.`.).).pX<.Z ).`.).J pX`.pXG J J pX).).).).).J ).).pX`.).J J ).).J ).J ).).pXpXtXV C ).).).J 6.).9.Q.(.pX(.pX6.pXpXJ pX).pX).).).).).J 7.H ).pX).J ).).9.B J J J ).).pX6.S J J ).).6.D (.).fX9.zXp.NXNXNXBXBX1Xl.V.V.",
"V.C.V.K.].).).).).).pX).).).).).pXsX).J ).).J 6.`.).6.).(.J ).).5.6.J H J ).aXpX(.).sX).).pXD J J pXpXpXpX/.).).pX).pX).).pXpXD (.pX`.`.pXpX).J ).).`.).(.).).6.5.).`.pX7.H 6.).pX(.0.{ f N D ).J ).pX%.g (.pX^.).).(.uX~.J ).uXD uXH ).H J w.CXBXi.NXBXBX/ Q h.A.G.G.H.H.A.J.pX).J ).).).).).J J ).pXJ 5.).).).J J J J ).`.).6.`.dX`.J 5.J J ).5.8.S J ).).pXhX(.).J J ).pX).`.`.).pXpX`.).pXJ ).sXsX`.pXrX'.pXJ (.`.).J 5.5.Q.{.J 6.rXZ 7.J ).hXyX~.).).`.`.sXdXQ.'.).).aX).E.8.w.$.L D V H 6.(.(.xX1Xi.NXi.mXSX<XP.F P.j.V.A.A.w L.).).pXH J J J J J ).J J J J J tXwXY.pX).J J J J 6.).J ).).pX).).).J F 6.J 6.).).6.J 6.G G J G J 5.J 5.6.H 6.`.8.l Z 5.5.*.C pXH pX5.5.).yX'.`.pXJ J ).J ).pXpXJ J D pXpX8.>.(.J J J J ).(.).6.).).).J fXE.F 5.uXD S F 6.J 4.!.J 9.mXCXNXt.i.VX:Xh.i i H.G.i C.J.K 4.!.J J 6.J ).J ).6.hX{.pX).J J J J pXpX).6.iX_.H 6.pX7.H G 7.^.J J J 6.J ).pX).).).).).).).).).).).).).).G J 6.5.).dX/.J ).).J ).pXpX).6.).3.K ).pX7.J ).J ).pXJ ).).pX3.^.^.J D J ).6.J sX^.J pX^.J 6.).).).).J H ).).iX(.J uXjXq.MXMXmXBXNXu.( z.y C.",
"V.C.Z.L.sX).pX).).).J ).).J ).pX).pX4.H pX).pXsX(.pX).).).).J J uX`.pXH (.).pXsXJ 5.5.).6.J `.(.).J ).).).(.pXpX).J pXpXJ 6.).sX).).^.pX).uXpXsX2.H 6.A J ).J 7.6.A D 6.`.^.J ).pX7.p.y.;.q B pXJ ).7.wXI.F pXuXJ ).J A ).).).6.^.J ).).sX5.0.MXmXBXi.BXmX2XU.h.w H.G.H.H.A.g 5.J ).).J ).).6.pXuXH 6.pX4.H ).).pXJ ).).).).pX).).pXpXpX).J (.5.).^.^.).).).).6.^.pXpX).J 6.).).J ).).).).J ).pXJ J pX).6.).).J `.(.5.6.J J iX^.3.<.V ~.pX).`.pXc C (.pXA D 5.5.G J pX_.6.6.pX~.gX9.bX'.H _.(.pXH H q.1XNXu.t.BXBXCX0XH h & V.r A.C.n 9.@.B ).J pXJ pX).).J J J ).pX6.cX'.F ).J ).J J J G J (.J ).).).J 6.D G J pX6.J ).).pXsX(.(.pXF J 6.J `.).6.F lX$.m 6.9.%.g K F 6.).).(.7.D F pX).).5.J ).7.6.pXJ ).D ).fXQ.).uX(.pX(.).).6.D A V J J J pX^.).pX(.J D J J ).Z 6.aXt.mXNXmXMXp.<XF.r G.i i i F.XXhX_._.).J ).).J ).J ).J J J ).6.(.).).pX).pXpXJ 6.J H pXuXsX<.'.).).pX>.K ).J pX).J J ).6.J ).).).).).5.6.J pXH (.pXJ pX6.J G J ).J pXpX).).).dX'.J 7.3.~.pX6.J J ).J J 6.iX(.pX).`.).J uX~.pXuXR.V J (.pX).6.J ).pX(.).J H 6.J !.kXxXqXi.NXBXu.a.( ; y C.",
"C.C.Z.M G 5.J ).J J ).(.).`.).pX).).fX(.G ).pX).).).).uXJ J 6.Z pXJ pX).F J ).sXsXuX).pXpX_.sX).).pX).6.J J G pX).).J pX).6.(.).sX).J J pX6.).aXtX!.aXiX(.(.7.5.5.uX~.).).).).J pXfXDXnXIXI.Z J ).J G fXE.b F 6.).).9.E.(.pX6.J J ).).).^.jXw.#.CXi.i.MXCX2XwXj.r H.G.H.p A.a ^.S 5.C H J 6.).J ).pX).pXiXJ F J pXpX).).).J J ).).).).pX(.pX).7.J pX(.).).).).`.J J ).pX6.J ).J ).).J ).pX).J ).sX).J pXpXJ ).uXD G <.~.pXJ 6.uXuX^.{._.pX(.5.aX$.n !.aXE.J pXQ.rXH H -.A ).).K 9.dXpXhX'.(.).6.).2.r.CXa.NXCXi.y.^ Q 6.P.h.C.G.C.C.a jX0XR.6.(.).).J J J 6.J ).J ).pXJ sX).J (.).J ).6.6.(.J ).).).).6.D (.<.K ).6.J J ).J ).).F 7.J H sX`.J 5.7.F dXbX!.J dXbXXXE.Z J J 5.J J sXA D J pXpXJ G 7.).pXpXJ J G G 5.5.J J 6.H H pXpXiX^./.J J J ).).).).J (.pXpXJ J Z F 9.t.u.u.BXMX%.y.a V.i G.G.A.a b F ).H J ).).).).G J ).pX).).J 6.H J ).pX).6.pX).J ).F G J pX[.J 6.J 7.yX'.J ).6.J J J J J (.).).J J J ).pX3.).`.(.pX).3.^.`.iX/.).pX3.D ).).).).).).pX[.).J ).pX).J ).J ).).J J ).).).).).A ).).).gX>.Z pX6.5.J (.pX).).6.(.J (.F 0.w.%.p.i.u.u.a.2Xz.B.C.",
"C.C.Z.s q C !.).).).).).J J pX).).).pXaX<.z A ).).).J ).pX).`.).5.).J J ).G F J 6.).pX6.`.J 5.J J 5.6.).).sX^.J pX<.A J 6.).).J J J ).6.G `.pXpX[.`.).pXpXC 5.5.F (.).).J ).).).).uXxXbX+XQ.pX(.J 1.h (.xX0Xn pXJ ).sX_.J 7.).`.).).).).H gXxXa.a.BXBXu.a./ rXh.A.H.G.H.J.A.i !.sXfXQ.Z 5.J 6.).).6.J J J sXJ J 5.J ).6.J ).).5.J 7.A sX`.).).pX(.).pX(.J ).J ).pX).pX).).).).).C J pXJ J pX).J 5.J J 5.J 6.H pXtXV _.pXH pXpXpXuX'.).5.J G J J iX{.7.H pXD T.XXkXsX1.W R.pX).aX`.dXhX[.`.`.).).pX9.d.a.NXBXZXBXSXmX; H h j.V.A.A.A.J.J ).1.V G C J J J J J ).).J ).pX).5.2.(.(.6.6.J J ).).).J ).).pXpX`.`.iX'.J pX).J J ).).J 6.J ).S J D 7.J `.pXJ (.pX`.8.K (.sX`.).pX6._.pXG /.`.).J pXsX).).6.J ).).).gXE.).).`.).).pX*.M J 5.C N 6.D (.5.G J >.K v C G (.J H J 7.mXmXNXmXCXMXMXa t A.i i G.w a n ).).).J pX).pX`.D H J 6.).).).).(.pXpX).pX).pXpX).1.h H D 6.6.^.pX_.`.pX`.pXJ ).).).).).J J ).pX).).C :.h (.J ).).7.,.B ).).pXpXpXtXB ).).5.C ).).).6.).).J 6.J ).).J ).).uX).J J 6.S pXrXS J J fXQ.(.pXpXpX`.J J ).J uX).J J H w.e.VXNXi.NXu.i.2XP.u u ",
"C.V.C.C.I.Y.).).J ).).).).).).pX3.K ).).dX0XR.).).).).J ).).).6.J _.sXsX6.).J G ).).pXJ J pXpX6.J ).).).).6.pX).pXhX_.pXpXJ (.).).pX).sX^.J 6.J J J J 6.pXaX6.`.!.).J ).).).).pXG J iXQ.J ).pX5.J rXQ.).pXbX_.J ).J J pXH pX^.6.J J ).).(.sXlX/ t.y.i.u.CX1XtXh.A.H.H.G.G.G.G.!.6.).pX(.).).pXH J pX).).J pX).).pXD G pX).).).fX~.9.R.).).J G <.H 5.G J ).pX).).).pX).pX).6.H ,.>.b L ).pX).6.H `.pX6.pX).6.H 6.pX[.).sX).J pX(.sXJ 6.sX6.pXD J `.pXdX^.3.(.m ;.0.).hX XJ ).pXuXsXsXsX`.sX).pX).aXaXxX1XCXi.a.i.y.mX;X5.h & V.A.A.C.a 6.G uX4.D _.(.).).).pXJ J ).J 6.).zXE.!.J 6.5.pX6.H ).).J J J J pXJ 5.J J ).pXpX).H J 6.J pX).G G 5.S pX).G >.Z J pXJ tXW.F J G G 7.J H dX[.J J J 5.J J 6.6.6.J J J 6.A ).5.J J pXJ 3.xXP.J uXe.&.B `.J 9.R.J fX/.rXV E.H 6.H (.7.mXCXu.NXCXVXMXJ.V.a A.G.G.e H.!.J (.pX).).).).J uX).).pX).pXJ (.).6.6.J 6.J ).pX).dX/.J ).).sX(.J J 6.J J pX).).J 6.J 6.(.).J A J fX:.h W.pX).).).aXcX_.J J 6.).).).pX).pX>.n (.).).`.).pXpX).).).).).J J J J 6.4.^.^.J pX~.J ).).).).J ).).pX4.~.6.J J ).).).D 0.kXCXNXBXi.CXu.a.L.L.L.",
"C.i w F.Y.F F ).).).).J J ).).pXfX'.).J 6.sXJ ).pX).6.).pX).).).`.(.J pXsX`.dX^.).5.J `.`.pX3.(.pX7.0.B sXpX).J J J 6.J ).uX).).6.J J pXpX).).pX).).).).pX9.J _.(.).sX).).J J 7.<.^.(.).pXJ 5.sX`.^.H ).J J *.B pX).).).pXJ J ).).6.(.).(.pXlX( CXu.y.NXNX<X4Xj.t G.G.H.G.A.J.6.J ).6.G H pX).).).J ).J ).(.pXJ ).dX~.).).6.J ).6.iX_.pX).1.f '.pXpX4.~.).6.).J J pXpX).pX).9.#.L 2.n ).pXpXsX).C pXpXJ ).fXS J ).).).).pX).pXJ 7.6.>.L pX`.uX_.J 6.).dX/.).J G ).).).9.V (.).).pX6.pX).).4.D pX6.9.,.1XCXNXt.BXMX/ : D P.h.C.G.A.i g ).).J uX!.pXJ J ).3.N J (.J J ).J `.[.J J 6.).3.^._.J ).J ).pXJ J 5.uX(.).).6.).`.).5.).).6.pX1.B (.).J pXuXQ._.(.pXpXH G J J ).).6.).F G J 7.J 7.D J J J 6.J 6.6.A 6.E.J ).pXA J 6.^._.`.J ).lXwXY.J J sX`.).).pXpX`.`.J J H H 9.a.a.NXNXCXmX#.u i J.A.i i G.L.(.S J J ).).).6.J J J J uXD ).6.F J J pX).pX).J J ).pX1.d L J 4.J 6.F pX).).J ).pXJ J J ).J C ,.>.B 7.nXXX(.pX).).6.pXJ 6.).J ).).pXJ 6.H w.E.T.sX).pXJ 5.).).pX6.6.J J J J ).).J sX_.).pX).J 6.J J ).J pX).).pX`.).).).).pX).).dXe.;.p.i.u.i.NXCXt.0XV.F.",
"C.G.V.a 5 j !.).J J J (.).).pXpXJ 2.G pXJ pX).).J J ).J ).).J ).J 6.J J `.).`.`.aX6.!.).6.8.rX!.7.`.jXR.C 5.pX6.J ^.sX^.).).J ).).).6.J 6.).).6.).).6.6.7.gX!.(.`.^.6.pXpX).pXpX'.).`.J pXpX).H J `.`.J ).aX0XY.6.).J J ).pXJ (.).uXJ J (.7.e./ y.i.BXu.s.:XcXL.V.H.G.H.H.A.J.dX(.6.8._.F H sXD ).pX).).).D 6.).).).).J J 6.(.).).).J ).6.sX{.;.b ).sX(.pXpX).6.J J 5.).5.J dXtXR.W.].J J ).6.7.rXH 6.).).sX`.).J J pX6.J 5.5.6.pX7.kXY.K ).uXJ pX7.G J J J ).sX_.).7.<.{.).J J pX).).).pXpX).pXpXgXd.CXCXNXBXMXy.a.c.!.P.j.w A.A.C.J.J pX).pXH J ).J J 1.P._.).J 6.J ).).6.).).).).q.j D ).J ).).).pXpX).).).J 6.6.J J 5.).).pX).pXhX{.`.pXuX_.).).).J 5.5.w.M (.6.H pX).sXJ J J ).).sX`.J D J 5.5.).uXrXS J ).).pX`.3.S pX>.C G F sX X(.J ).).J ).pXJ 6.J J 6.5.F F aXmXCXBXNXZXZXAXF.H.A.i G.A.J.hX_.^.J (.6.J ).).).pX).J ).).6.,.Z J J J J pX).).).J J tXP.Y.sX).).`.9.N J C J 6.J pX).pX(.q.*.;.B M ).).).J 6.J J J pXpX).`.pXJ J 5.D J J sXQ.J 6.J 6.6.).J 5.6.).).`.).).).).pX).).).J ).).pX).).(.).).).uXJ ).J J ).6.H pX(.J uXMX>.mXu.u.i.i.mX/ h B.w ",
"V.C.V.F.:.g ].6.).).(.).(.).pX).q.@.n 6.`.).).pX6.J 2.~.).pX(.(.pX).`.^.).pX).J 6.iX!.6.pX`.sX`.uX).).dX`.H J 5._.).6.).J 5.D J J J pX).`.J 7.<.H 5.J `.aXdX_._.).7.D D ).).pX3.C (.pX6.J J gX$.Z J pXpXJ J _.4.H J ).).6.N ).).J pX6.H H 7.e.2Xt.SXNXu./ qXjXP.V.H.G.G.H.A.Y.7.6.5.'.).).(.5.uXJ 5.J 6.6.^.^.^.J J J J 6.4.J ).J pX).J ).).6.kXL.!.J H J pXpXpX).9.V ).aX~.J `.iX{.).).).J 6.).`.sX`.J D pXJ pXpXJ J ).pX).).`.pXsXyX{./.).aXA G iX`.).).).J (.`.7.6.'.).pX).).pXsXsX8.A pX6.J sXw.d.CXs.i.mXi.BX) z.Z ; F.A.G.A.w J.).).J ).).J J 6.J [.[.J ).J 6.).J J J J J 5.G gX0Xs K 6.C D J J pX(.).J ).pXpXpXJ ).(.).).).).J J F J pX).7.J J 8.V F hXQ.J 6.D D J 6.).(.).pXJ 5.6.pXuX).6.).J J 6.6.K J G J 9.@.m 6.jXE.`.^.G F 5.A H D J ).3.H pX6.).pXpXJ F J s.CXNXNXmXZXZXL.t i G.G.i g pX).).).J 5.).(.pXpX).<.z *.&.&.E.!.pX).).D (.).).).6.J 6.iX(.J 6.).).fXQ.pXrXZ pX).).).pX).jXwXbXQ.E.!.pX).pX5.D ).<.S `.pX*.C 8.S sX/.).pX).J ).pX).).).).pXpX).).).).6.D ).J J ).).).).J ).).).).J J J J ).`.).J ).).pX).).J J H SX:.%.CXi.BXNXt.1X- V.u ",
"V.w V.a $.I.6.).).).(.J J J pXJ xX*X!.(.).pX(.).sX:.f !.J `.`.(.).pXJ J 5.G J J ).pXpX5.F J ).6.J ).3.5.sX`.9.N Z 6.).).pXsXsX`.^.pXJ (.6.pX`.sX).pXH J 7.)._.G 2.K pXD G F fX@.m ).5.).uXJ uXyX`.J J 6.).(.6.>.A V H J fXW.(.6.).6.).).H gXkX/ mXd.NXt./ #.@.- S.G.H.G.H.S.R.<.(.fXK D H ).6.J ).pX).J `.(.iX4.6.J ).J ).pX).).).J ).J J 6.J `.hX).^.).).J J ).6.hX{.6.`.`.pXJ ).).).).6.).`.^.J pXpXaX~.`.pX(.pXpXJ J pX8.K 6.;.l L 5.J J sXfXZ J J pX5.G ).(.6.4.(.5.H pX).).6.D 6.tXE.).aX`.5.zXSXCXCXu.NXNXu.<Xh pXh % S.G.A.V.Y.6.).).).J J 6.)._.).pX^.H 6.pXG J J J ).5.5.J J nX0Xn 9.E.~.pXH 6.J 5.J J 6.6.J ).).).J ).).pX6.J 9.M J 6.pX).5.).`.`.J 5.).pXpX).pX).(.J 5.).sX).6.J 6.6.6.J J ).J uXiXJ uX(.9.wX].6.(.`.6.^.uX^.E.[.).^.).).rX~.6.pX).pX6.).(.D CXs.NXNXa.NX/ g g u G.i G.R.pX).).(.pX).).).6.(.1.{ b S wXP.W.pX).).pX).).pXJ 6.).).pX).D J J J J J ).pXhX'.J J ).J pX).H ).pXJ pX).).J J sX`.).sX`.J 1.%.g ~.).6.).6.pX).).).pXJ ).).pX).6.).).).J pXE.).).).).).J J ).).).J J J J 4.Z pXJ 6.J ).).).).J J ).H q.VXy.mXBXi.i.NX/ j.B.C.",
"C.C.V.J.P.m pX).).6.D J J J pX).pXuX`.`.pXpX_.).J qXP.J S J J pXJ 7.).J 7.^.).J D ).pXsX/.).J ).pXpXkXE.J 6.dXQ.).J J ).).).pXpX6.pX).D J ).J 5.J ).`.pXsX_.pXfXQ.~.6.pX`.pXA tXg J pXJ D J (.J 5.6.(.).).-.-.1.Y.hX).).`.pXG `.pXuX(.J H 9.q.1Xa.u.y.u./ r.&.- S.H.i G.G.H.`.hX(.dX/.`._.).pX).).J ).uX(.pXN 8.~.).J ).).).J J 6.6.J ).).).sXJ 6.).(.J ).pX).6.D (.6.).J 5.J ).G ).).6.J ).G J J J 5.pX^.J 6.).pX).`.pX8.w.z z jXyXR.D ^.).J sXsX).).).fXE.G H pXsXpXiX(.6.).J 7.D 6.).).7.~.tX7.9.SX1XCXBXt.BXNX<Xh 7.h h.C.G.C.C.s F J J pX).).pXH J pX5.G G J 6.<.(.5.H ).pX).).).J yXJ 6._.F J pX).).pX`.).6.).aXF (.).).J J pXpX).dX/.F J J 6.).).J J 6.~.).3.J D S 6.J H ).J 5.6.3.K J ).).pX).J ).J pX).).).).(.5.pXG N ).(.).J `.2.H ).5.C ).pXJ ).6.5.J J (.pXNXCXi.u.mXNX^ g g G.i G.w n pXH J (.J ).).J 6.H lXxXT.T._.W.(.pX).J J ).).pXpX).6.4.C (.uX).pXuX).).(.).J ).aX~.J J J pX<.K J ).).J ).pX(.).).6.J ).).pXhXQ.!.6.).6.D J J J J ).pX).J J 6.J J ).J pXJ ).).).).).).).).).pXJ ).).).).`.(.J pXuX(.).J 6.J J ).J 5.e.p.BXmXi.mXi.u.1XL.V.w ",
"V.C.e L.XXY.6.(.6.5._.).).).).6.6.).^.).).).).pXJ hXyX6.'.(.(.).).uX`.sXsXH J sX^.).pX).pX).).J 5.).[.`.dX^.).J ).pX(.J pXJ 5.5.D `.sXpX).6.6.).).(.2.l Z 3.H pX`.sX).).J 8.~.iXQ.).6.).`.^.).6.J ).).(.e.&.m !.!.J pXJ J aX~.D 6.).pXJ H fXlX/ CXu.i.p.( #.3.& S.H.G.G.G.p K 7.G (.<.K ).J ).).8.D ).pXJ 6.rX'.sXJ ).).pXJ ).6.J ).).).).J ).pX).).J J H pX).sX^.).).).pXuXH 4._.).pXsX`.pX`.).).pXpX(.J ).pX(.uXuXK 7.aXhX0XW. X XdX/.).).).J 6.6.2.D (.sXiX(.5.6.).).pX6.J pXpX).rX~.6.pX^.8.aX9.e.a.CXs.y.BXNX<Xh 6.P.h.A.G.C.A.Z.R.).J 6.J 6.>.B ).J 9.<.N C N _.pXsX(.).).pX).J pX4.D ).J ).J J J J ).).).pX5.6.`.H J ).).).J 6.6.5.6.`.(.pX).).).pX).sX).6.fX~.`./.6.(.).).pXpX).fX^.).6.C ).sX).).J 5.5.J ).).pXJ ).1.@.M uXJ (.8.$.!.pX1.B ).pX).).sXuX(.6.!.sXmXmXu.u.u.CXt.n Z.i G.i w L.pX6.H H J J pXJ ).H tXIXXXT.S W.).pX).pX).).pX6.).6.pXuXQ._.).pX).`.6.).).pX,.L ).).).).J J hX~.H 6.>.S ).pX).J J J ).).pXJ J `.).pX).pXsX).).).).J ).).pX6.J 6.J J J pX^.).).J J ).J J J J pX).).).).).J J 4.S pXpX4.(.).uX).).).6.lXVXMXt.i.NXBXi.2Xh B.C.",
"V.C.Z.L.W.^.).G 2.'.).).).).6.7._.`.).6.G ).J J ).J 5.^.(.).).J ).).).pXdX<.H ).sXD `.pXJ pX).pXJ (.J 5.6.`.).`.).).pXJ J pXsX4.~.H 6.pX).6.^.`.pXaX%.P.!.yX~.J D 5.7.J 6.(.(.).J pXpXJ J 5.G 5.D (.).0.r.f a T.(.6.J ).).).).pX).).pX).(.8.y.t.u.MXNX/ ( r.T * S.G.G.i G.C.Y.dX`.(.fXV Z ).).).sX~.pXpX).).`.J pX).).).).).).pX).).).).).pX4.H ).).pX).(.).).pX).).).).).hX`.`.H J J J 6.6.).6.G G 6.).(.).`.).).dX/.6.J (.`.).J 2.N ).6.).3.H ).7.<.~.sX).J G 6.J J J J 6.).).pXJ pX0.N ).6.aXpXgXSXa.a.mXMXi.BX1XP.6.g h.A.A.C.r J._.).pXJ J pXyXR.(.<.S [.cXtXf m pX).).J 6.6.6.3.K sX~.pX_.).).pXJ H ).J J pXpXJ H ).).).).pXpXpX).sX~.pXJ 6.J 6.H ).pXJ 6.).sX(.J pX`.`.).6.5.J J 6.pXJ aXE.(.pX).J 6.pXiX_.2.F 2.8.N /.nXn H J J ).{.(.6.iX{.J pX).).6.).pX(.R.9.t.t.NXu.NXCX1Xj.A.i G.i C.R.6.pX(.(.).J J ).J ).7.yXXX XXX'.6.).).pXJ ).pXpXpX)._.`.).pXpX5.H 6.pX~.6.G kXY.H 6.(.pX`.).).sX).7.q.n pXJ ).).6.).).).).).).J J J J J ).pX).).).pX).).pXsXpXpX).).).).).).J ).).pX).4.S ).J J ).J J J ).).`.^.J ).`.).).pX).).).pXzXVXt.p.i.p.y.NX1Xl.B.C.",
"V.C.Z.a m G 0.2.].(.).).).J aXsX(.J ).aXV (.gX<.).pXsX_.).).J ).).J J J 6.iX_.).sXsXJ sX`.`.pX3.iX^.pXpXuX).J J 5.J 6.pX(.).pXiX_.(.pXpX6.pX(.7.5.`.hXsX`.).pX`.pXsX).`.`.).(.pX).).).`.pXpX).(.`.J 0.e.r.<.L.].J ).).).).).J D (.J sX).).9.y.t.u.p.MXCXAX<X= % G.G.H.H.G.C.n pX).J ).hX_.J ).).).).J ).6.G J ).).).J J J J ).pX).pX).).).6./.).).pX).).^.).pX).).6.5.J ).pX).pX).).).6.J ).).dX_.8.V `.).).).J 3.C 6.7.).H J ).pXjXE.H pX7.E.(.pXpX`.).6.6.)./.).`.J D ).pX(.pXpXsX6.iX].aX5.6.aX7.xX1XCXmXu.BXMX1Xh 6.B h.C.A.A.A.u K J ).pXpX).).`.).$.Z 6.).xX0Xa J J J ).).pX).hX/.2.C H ).J J 6.).(.).).).pX).9.l Z ).).pX).).pX).).).6.6.J pX_.`.(.).).).).`.sX).).6.J J 6.).J J ).8.A (.`.pXpX).6.).`.pX6.0XV rXiXQ.H fXQ.N N rXF C -.&.L 6.J J J 6.).pX).).F 9.u.u.u.u.i.t.^ J.t G.G.G.w B 6.5.!.(.pXpX(.).pX).pX`.pX6.S 6.J J ).pX).).pXpX).`.>.N pXJ pXsX).6.).).9.N !.[.).).).J 5.G J pX).pXxXm K ).).pX7.C H pX).).J 6.).).).).).pX).sXz K J ).5.J sX).).).).).).pX).).J ).J sXE.H pX).J ).).).).).).J ).).J J ).).).).).pXw.MXp.y.i.BXi.y.( h e C.",
"w C.e J.W.*.b T.].pX).J J J ).pXpXJ (.`.[.).sXhX).).pX).).6.7.H J ).).pXpXJ G G H pX`.`.sX).dXrXZ pX).pXpX).pXpX_.sXpXpX(.).pX`.`.).7.6.).pX).pXiXH 6.).(.6.).pX).sX`.).).).(.).`.).pXJ 6.3.H 6.2.,.S lXSXP.^.).).6.J ).).).).`.).).D ).).zXy.t.u.BXt.t.mX<XB % A.G.G.G.H.A.s D ).J J J pXH J ).J J 6.G uX_.).).).).uX).).).J J J ).).6.A ).).J ).).).).J 6.).6.3.6.^.(.pXpX^.).5.G pX).).J J ).`.sX^.F J G 5.J w.R.pX0.Z `.).).).dXrX(.pXaX'.).).).pXG J ).J J pXD ).`.<.S pXJ J 6.sXpXJ pXpX).aXaXe./ CXa.NXVXy.1X0X6.P.% C.A.G.V.L.).(.J J ).6.(.).).jXV N H 9.nXW.).(.pXJ ).).).(.q.@.j n J ).).).).J J ).).pX).kX0XY.J J J 5.F pX).).6.pXpX^.).).).).).).).pXJ 5.).J 7.).J J 6.J J J dX{.).J J pXpX).4.L pX).`.uXA F ).).^.sXtXR.).9.:.z <.R.).).6.J J ).).pXJ (.7.( u.u.u.u.t.^ a A.G.G.i w n aX^._.J ).).`.6.J ).).).pXpXpXD J ^.).6.).J pX).).).tXE.J ).).).).pX).).dXQ.J -.F J ).`.dX`.(.).`.pXd.N M H J ).q.m _.pX).).pX).).J J J ).J H aX$.j Z ).sX).pXpX).pXJ J 6.).).).).).).).uXH J 8.K (.J J ).J ).pXJ ).J ).).).).).).pXzXMXVXi.i.y.NXy.1XP.Z.C.",
"C.C.Z.T.gXwXXXT.).).8.S ).).).).).sXJ H 6.).).).pXpX).).).pXpXD S 6.G J 6.pXpX^._.).J J pX5.A hXsXJ J 6.).).).`.).J ).sXS J 6.J J 6.pX`.).).`.).sX).).).).pXJ ).J J pX).pX).).J 6.).sXpXJ hX).7.iXQ.Q.yXGXW.J ).J pX).J ).).).).).).`.).(.zXp.t.u.p.p.y.t.) $.% G.i G.G.G.G.J.!.pX6.J ).pXJ (.J 6.A 6.(.).pX).pX).pX).).4.(.pX).).J J 9.E.).6.^.5.H ).J 6.(.).pXsX).`.J ).pX6.8.rXR.).).J J ).J 6.J 9.@.V sX).pXuX'.9.jXR.J ).).pXsXhXJ 3.).).J 7.A ).pX).J `.(.aX/.).G iX~.7.A J J ).pXpX6.6.pXaX9.lX1XNXCXi.BXu.CX%.pXn h.C.i i Z.g H ).J ).).sX(.).J J hX/.6.8.E.H pX).).).pXpX6.G rXU.XX~.5.H ).).pX4.(.).).).).).`.).5.A ).pX(.).5.).pX).).).J ).).).).).pX).6.J ).6.J J 5.6.6.pXJ 6.H 6.pXpXJ J pX).gXR.(.).6.8.E.!.pXD J J `.).4.:.1.}.cX_.5.D ).pXD J 6.6.).(.e.( i.t.u.u.mXmXu G.G.G.i C.T.sX_.).).).J 5.rX_.).).1.@.M `.sX).(.).pXJ ).).).).).).pX).).pXJ ).pXJ J pXJ 7.0X!.pXH J ).`.).).J 6.nX0XT.^.D ).tXW.J J ).).).pXJ pXuXH pXuX^.).jXW.!.5.C J pX).pX).).).).J J ).).).).J ).).6.iX{.7.A (.sX$.Z pX).pX).(.pX).).pX).).zXu.mXi.BXNXi.p./ P.B.C.",
"C.V.J.aXJ hXcX_.7.>.K (.J ).).pX).pX`.).).pXJ J J ).).).).).dX`.(.6._.`.uX).sX_.).).pXJ pXw.f Z aXpXpX6.G J J 5.5.J 6.pXpXJ pX).J ).).).).).pX).).pX).J J J ).).fX^.).).).pX).(.).).8.6.`.).sXsXiX5.^.!.`.(.J J J J 6.(.).).J J J ).J ).(.q.mXa.i.a.BXqX/ ) 4Xk.A.G.G.H.A.J.Q.H J fXH J pX_.).J ).9.B `.).).J J pX6.J J uX(.pX).pX).).pX).6.^.D rX!.pXpX).).J J 5.).).).).6.).`.hX`.).pX).).).J 6.).uXeXP.H pX).uXJ 9.3.'.).pXD J pX5.6.rXZ 7.~.sX[.).).pX).(.J G G pX^.(.pX9.S ).).J 6.pXpXiXpX7.dXe./ CXCXBXi.BX/ Q J R.h.w A.G.e L.!.6.J J J pX_.).).pXJ ).pXfXK (.J ).).pXpX).pXpX).).).pXsX_.J J pX`.).J J J J J J J sX/.(.uX).pXuX(.pX).J ).`.).J J ).).pX).aX).5.6.J 6.J J J ).).pX6.G J ).pX).H ).).sX).J pX[.uXV J ^.(.8.N F 9.xXtXg C ).6.(.J 6.).).pXpXH pXe.1Xt.i.BXu.NX1Xj.A.G.i G.G.!.pX(.).).).pX).).).5.G kXQ.!.(.pXpX).J 6.).).).).).G J ).).J pX).).pXpX).pX).).[.).).).J 6.G ).).).pX6.wXW.8.~.).).).pXJ ).).).pX).).pX).).).).).).sXsX4.~.(.pXpX).).).).).).).J J 6.J J (.J ).H J fX'.).).[.(.).).).).).).).).pXpX5.e.MXCXu.i.u.NXu./ g B.V.",
"C.Z.a sXsXJ ).).sXjXZ H ).).).).).).6.J ).pX).).).pX).).).J ).).uX`.`.).pX).3.A H ).).pX).lX$.n aX).sXdX[.`.6.J ).).D J pXJ ).pXpX).6.J J J ).).).).pX).J J J J ).pXJ J J 6.J J G 9.$.S 6.J J D 6.hX_.H J ).4.S ).J ).4.K ).J J J J J H ).zXVXa.i.BXVXVXZX~ ; j.S.H.G.G.G.a G sXH sXsX_.).).5.J ).dXQ.G ).).).8.z H 6.).J J ).).`.q.f H 5.).,.l B sXJ ).).).).8.V ).J J J pX_.).6.).).).).J 7.>.Z sXJ J sX(.6.J 6.J aXQ.(.7.5.`.).pXpX4.~.sXpXpXC (.pX).pXpXJ pX1.B D ).).3.fX[.).6.6.J pXpX6.7.6.aXSXt.u.CXNXBXBX1X0X).Y.h.C.A.A.i g sX6.).J J J ).pXJ pXJ ).).gX,.j `.).J J ).).).pX).(.`.).J ).).J J J J J J 6.).).J 6.5.2.(.pX).).).pXpXpX).J N ).).(.).).6.0.N D 6.).D D pXpX).).J J sXsXJ G 5.;.@.N D J J ).J J sX`.J ).J tXyX;.B dXwXXXZ C ).).J pXJ J 6.6.J (.SX( CXBXu.u.u./ J.V.G.G.G.w n pX(.J ).pXJ pXJ J 6.J ).`.(.).pX).).pX).J ).).J pX4.(.pXpXpX).8.z C F pX).8.Z J ).J ).).pX`.).7.A ).pX`.sXiX`.(.pX).).6.K `.pX).).).).).J ).pX5.A J 8.~.).6.J pXJ J J ).J pX).).).pX).).pX(.pX).).).).).).J ).J ).).).).).).).sXpX9.w.y.1XBXNXNXVXmX/ g B.C.",
"V.C.u j 5.`.<.L (.iXhX(.).).).).).pX).`.).).).pX).pX).).).).).).).).pXpX).6.1.R.H J ).pXJ sXcX_.pXpXJ 6.J 5.pX^.6.).fX~.).`.).).).pXpX).).).).).).).pXpXpX(.).6.J ).sXpXpXJ J ).).`.hXpX).).7.2.Z J ).`.).J uX^.).).6.rX].).6.J ).).).(._.w.p.mXSXSXa.p.t.,Xh j.S.G.G.G.H.V.B 5.(.).pX).6.).pXH J ).sXuX).J J w.W.'.uX).).).J J ).r.q g dX(.lX<.n pX).).).).).`./.pXpX).).).J J ).pXpXpXpX).pXjXR.J pX).`.pXpX).).pX).(.6.1.B ).pXJ pX<.S 7.(.dXyXH 5.J J ).`.pXhX{.0.b ).uX`.6.5.6.).pXJ 7.8.D 7.2.e.a.NXa.u.u.i./ 0X).Y.h.C.i C.G.u z L ).).pX(.).pX).pX4.F J dXxXh ).).pX).J ).).).).).).sX`.).pX).J J ).).).).).).pX).zX%.m pX).pXJ J 6.).).aX0XH ).J J 7.>.R.Q.'.pX).uXrXA pXJ ).pXH J pXaX^.1.r.%.P.d z Z pX>.Z 6.J pX).).(.dX0XR.).D `.fXE.(.).).pX).J ).pX!./.i.a.NXu.u.u.NX1Xa V.i G.i F.Y.).).).).6.).).pX).).`.).).(.pX).J J ).).pXJ J J ).`.J J ).pX).q.Z '.Z J J sX{.).J ).2.z H 6.).pX/.pX`.).6.G ).pXJ ).8.;.j C D ).pXJ J ).).J 6.fX'.pXsX).J J ).J pX).).).).J ).6.).).).).).).pX).).).).).).).).`.).).).).).).).pX7.gXzXy.CXVXi.BXi.s./ u V.C.",
"C.C.V.u g (.fXW.(.J pX6.(.).).).pX).).).pX).J 6.).).).).pX6.J J J J ).pXpXpXhX{.pXH 5.6.`.).6.5.D pXpX).pXD ).pXpX(.uX`.).).).).).`.pX).).).).).6.).).).sX(.D ).pXJ 5.`.`.sX).J ).J 5.).).pX,.M !.).).).J ).).).).J pX_.J ).fX~.).).).(._.xXCXBXMXi.CXMX) ~ P.& S.G.G.p G.A.n E.(.).pX).).).pX).J H J pX).pX).iX'.pXpX).).J pX(.<.>XoXa K H zX0XL pX).).).).).J pX).).).pX).).).J 6.).).).).).sXhX^.pXD J pX).).7.A ).6.J hX{.).pXpXpXsX`.).).6.A 6.J pX6.F G J 5.H kXL.H D 2.6.pXpXG 5.5.6.sXsXdXaXd.CXu.CXBXBXNXCX0XF L.Z.C.G.A.V.L.,.g _.).`.`.J 6.J J dX_.J J _.`.J ).pX).J G ).).).).).).).).).pX).).J ).).6.2.H pXJ pXwXR.J J J J 6.).).).pXiXJ J J J 7.yX!.J pXpXpX).pX/.).pXJ pXpXJ A ).pXe.MXV XXB L.!.aXrXZ D 8.V J J J J `./.).).J J ).J ).).6.).).pX).Z -.qX1Xt.i.u.i.u.^ u i u G.r F.'.H ).).).).).).).pXJ J 6.D H ).).).`.).pX).).).).).J pX(.).pX).gXQ.].iXJ pX).).).pX).q.E.(.J ).).).pX).6.pX^.(.pXpXJ q.bXT.n ~.H J pX).).).).).).pXJ 6.pXpXJ >.N (.).).pX).4.V ).).).).).).).).6.).).J ).).).J J J ).).).).).).aX9.2.e.d.CXNXNXy.i.a.1Xa V.C.",
"C.C.w K.XX`.).[.pX).6.4.H ).).).).).).J ).).uX(.`.).pX).pXiX_.`.).pXH 5.).^.).pXpX).pXJ (.pXpX).`.).sXpXpX`.pXpX`.`.).6.J ).).).).).pX).).).).pX).).).J pXpX).(.pX`.`.).pX6.pX).`.sXsX`.).).qXn _.pXJ J ).).).pX).J H 6.3.H pX).).J `.(.Z zXCXmXMXu.NXVX2XQ L.k.A.G.H.H.G.C.Y.^.(.pX).pX0.N H ).).).J ).J ).).J D J 6.A D `.).(.0XI.PXU.n C 3.zXB !.pXJ ).).).).).).).J ).).pX).).).).pX6.).).).J J ).sXpX).).).9.V (.`.uXJ J 6.J 6.J 5.).pXJ 7./.).).).pXpXD H pX3.:.Y.).9.h !.pXaXrX~.7.V ).aXaXaXMXa.NXCXBXNXNXCX%.v g h.V.G.i Z.n iX}.(.pXG J ).pX).).).).pX~.J J ).).pX).uX^.H J ).).).).).).).pXpXJ ).J ).aXrX!.6.).).).).).(.).pX).).J J 6.J ).).).J pX`.uXH pX6.J 6.).J J ).sX5.).pX).;.O.-.e.V T.0XR.).7.tXR.`.hX{.6.J 4.V J J ).J ).).9.N (.J ).).J 6.(.sX).cX1Xu.ZXMXBXu.<X& A.S.A.G.w B ).(.J ).pXJ J 6.6.).).sX^.D H ).).).J ).).J ).).).).).sXJ J J J sX).dXV ).3.(.pXpX).yX{.pX).).).).).).pX).`.).pXpXpXhX|. X{.`.sXJ ).).pXD ).pX6.pXpXpXJ 6.e.>.R.J J ).J ).sX/.).).).).).).).).).).).).D S ).).pX~.).).).).).).sXzX1.w.y.t.mXmXu.y.CX<X& V.C.",
"V.C.Z.J.F ).).J 6.7.,.R._.).(.pX).pX).`.).).`.pXD pXpXpX).`.pX).6.).).).pXJ ).pX).pX`.6.2.C J (.J 6.pXpX).5.D pXJ G J ).).).).).pXpXpXJ J ).pX).).pXpX).).pX).J J J ).pX6.).).).J ).).pXpXJ jXXXJ sX).).).).).).pX).3.K sX).).).pX).^.pXZ 0.s.mXi.u.i.mX<X:XL.h.A.G.H.H.H.Z.Y.sX).pX).pXxXW._.).).).6.F ).).6.3.).).aXE.'.`.fXZ rXXX{. XcXQ.fXyXXXF ).).).).).pX).).J pXJ J ).).).).J ).sX).J J fX~.J J sX).J ).gXQ._.pXJ pXpXpX8.6.A (.).J pXE.).pXpX).).`.`.).).zXkXg J pXcX).5.6.`.pXdX[.6.pXpX9.q.CXu.NXNXi.i.CX%.L L.h.C.G.G.e L.W.].8.>.S !.).pX).).).).).`.).J ).).).).).sX`.).(.).sX).pX).).).pXJ G ).6.).`.J ).).).).).).H 6.pX).J ).J J ).).).J ).).).pX^.J pX).J pXJ J 7.2.^.pXA 1.%.N V y.W.W.yX~.pXpXhXS pX2.C ).`.`.^.).).J 6.J H gX0XH pX).6.J J (.uX!.].mXi.u.y.p.t.t.F.S.s d w C.R.pX(.pXJ pXuX).pXpX).).).aXE.(.).pX).).pX).).pXJ ).).6.3._.sXpXpX).pXJ [.uXrX(.7.D ).J ).).).J pXJ ).6.J ).).pXJ ).).).J J 6.).pXsX).).).).J pXJ ).pXpX).6.DXwXn A (.pXuX).).pXJ J ).).).J J J ).J ).).uX~.J ).).`.).).).).).).pXzXkX0.y.mXu.NXVXNXy.<Xj.B.C.",
"V.C.y L.sX).).).9.2.Q.].pX).(.pX).).).).pXD D aXE.).).sX(.).pXJ uX).(.pXpX`.6.6.pX0.x @.P.T.`.uX).pX).pXpXfXE.pXsXpXS J pX).).).6.pXpXpXJ H 5.).).).pXpXpX).pX).).H J 5.D `.).pX`.4.;.z ).pX).).).pXpX).).).).J ).).hX'.F 6.).).).).J )._.zXt.t.i.u.i.VX3X%.g % A.H.H.p G.V.Y.6.J J pXpXfX].sXJ 6.N D (.).G 9.E.(.pXpXiXJ J pX`.6.~.pXA J sXiX'.4.~.).J ).).J J ).pXpX).pXJ J J J J ).).).pX).).).sX).7.N J pX).pXsXJ pX).3.C J dX`.sX(.pX6.D ).6.J J J J J J J pXsXnXU.~.pXJ pX6.).).pXsXpXpXpX6.gXlX1Xu.i.i.t.i.s.Q m L.% V.G.A.C.J.Q.H zX<.L F J ).).).).).).).).).).).).).).).).pX:.2 H pX).pXJ ).).1.M C ).pX7.D ).J J ).).).).J pX).).).).).J J J ).).8.G J ).6.J pXJ ).`.).aXrXZ aXE.hX{.{.sXbX{.6.J 6.J ).9.V ).e.Y.8.C H ).J J ).).).).)./.^.pXJ ).pX).).~._.C t.BXNXu.u.a.y.F.s j g A.w n sXF J ).J 6.J ).).).).6.)._.).).).5.C ).).(.aX~.).).aX/.J J pXpXpXpX).J 4.).).8.E.).).).pXpX(.).).).).pXC C C pXpXA H pX).pXJ J 6.J pXJ J ).G ).).).).).sXhXbX/.E.H ).).).6.).).).).).).4.J pXJ ).J G G ).).).).J J ).).).).`.aX9.w.zXd.y.i.u.u.BXNX^ J.B.C.",
"C.C.D.R.6.J ).pXgX X{.).).).).).).).).J pXsX/.)._.`.pXpX^.).pX).).`.).pX).).pX).9.q.q.$.}.'.pX`.).pX(.pXpX).sXJ 6.`.`.J ).J ).pXpX).).pX`.,.N (.pX).6.6.).6.).).).pXJ uX(.).6.).8.:.x E.(.).).).J J pX).).).).pX).).).pX^._.).).).).`.).F e.s.t.MXy.mXy.^ Q L.h.A.G.H.G.H.Z.R.sXpX).).).iXK 5.pXdX0XR.).gX<.!.[.6.pX`.).pX(.).).sX(.J rX_.>.^.).).`.).pXH J pX).).).).pXpX).).`.`.).5.G 5.G J J J J J fXQ.).).).J pX^.).pX9.R.Z sX7.K 5.D (.uXJ J ).`.6.J ).).).).pX/.'.).pX).).8.H J ).pX).pX6.aX7.zXZXa.i.t.u.i.( : H.h % w r G.Z.L.).`.%.q j L L F ).J ).).).).).).).J ).).).).).tX#.h B J J 6.).J J gX,.m ).6.pX^.pX).).).).).).pX).6.).).).).).J J G 2.V _.).).).).).).).J J 5.sX).).).J 5.D ).).J ).6.pX).J uX`.9.0XT.gXE.Z J ).).J ).).J ).J pX).).).J J ).H H e.r.t.u.i.i.a.! s & }.J.r C.Y.aXD (.pX).`.).).5.3.J pX_.).).).).gXV (.).J ).`.6.).).pXuXH 6.).`.).pX).pXJ J ).pX6.(.J ).).).).J ).8.*.K ^.<.B ).Q.dX).).).uX).pX).pXpX).aX<.R.pX).).).pX).J pX(.).6.A J uX^.).).).4.N `.`.).).5.J dX'.H J ).).).).(.).).(.pXgXzXw.w.lXt.u.NXu.u.u.1XL.V.C.",
"C.Z.W.6.6.5.F 1.K (.).).`.).).pX).).J pX).).).).H J pX`.`.pX8.D J ).pX).).).pX).aXbXbXU.!.).).).).pXuX6.sXpX6.pX).J 6.J J pXH J ).pXpXpXpX%.g Z ).pXpXpXJ J J J ).pX).).6.*.K ).e.nXW.[.pX(.pX).pXJ J J J J J J ).).pXJ ).G H ).).).J pXpXe.a.s.a.y.y.t.( ;XJ.h.A.G.G.G.A.F.Z J pX).pX).9.0Xn H ).`.).J 6.hX~.5.).).).).).).).6.).`.)._.w.N !.aX).(.).`.uX(.pXpX).).pXpX).`.).).).6.1.N 2.C K `.pX).pXJ ).pX6.J J 7.^.6.pXgXJ K C sXhX/.`.`.pX).6.S 6.pX6.H pX).).).6.D J J pX5.pX`.).pXpX2.C ).aXdXgXCXmXBXVXMXBX1Xz.p ; h.C.r A.V.g (.).CXf s L F L G J ).).pX).6.v C ).).).).).J sX/.{.sX).).).).pX).9.0XW.J ).).pX).).).).`.).).J 5.J J J ).).pX`.0.*.W.{.J J pXJ ).).J ).).8.D J ).).4.pXJ ^.(.J J 5.J J 2.v H 7.4./.J ).).).).2.*.K ).J (.).).).J J ).uX(.J ).Z MX^ i.BXu.t.NX! a F.K.H.i C.n 7._.).).).J J pX8.'._.pX).).).).J pX`._.`.).`.).).).pXpX).).).).).pX).).pX).uX).).uX^.).).pXJ J ).).tXW.XX{.cX{.).*.N ).).).).).).).6.J ).uX{._.).pX).).pX).).).).).uXiX^.J J ).pX(.4.E.J pX).).dX~.).).).^.J J J 5.>.K ).).).gXgXxXjXxXCXBXNXNXa.BXCXL.B.C.",
"C.B.n sXfX0.S {. X`.^.).).).).pXpX).`.`.).).6.J ).J 6.).).aX`.`.^.).).pXpX).).pXpX).J (.).).J J ).6.J ).).aX).`.sXuX).`.pX).).).J J 6.).aXeXI.!.pXpXpXpXpX).`.<.K ).pX).dXrXR.6.yXXX`.J sX).).).).pXJ ).).).).).).).).fX*.B _.J ).).`.sX9.e.s.mXmXi.y.u.( l.P.& S.G.G.G.H.C.R.H ).pXpX).dXbXW.~.).6.).).).).`.).).pXpX).).).).sX`.(.).2.:.J.Z pX).(.pX2.>.*.Z sX6.D ).).).).6.6.J ).hX{.cX{.E.D ).).).4.z S sX).9.V ).pX).gX/.rXS (.).uX).pXpXpX(.pX).pXsX).D ).).6.5.5.2.>.z B pX).).).9.rXW.pX6.dXgXCXCXi.%.BXu.CX= * z.% A.A.A.V.J.J G eXwXI.W.].yX~.(.pXJ ).).gXe.g (.).J 6.J J pXpXJ J `.).).).pX).pX[.`.).J J 6.).6.H J C J pXpX`.).).).6.2.C ;.,.T.(.6.J J 5.J J 6.J J 6.uX`.`.^.).pXpX^.(.).).pX).8.,.*.h _.pX^.J ^.).J J pXe.=.B J J (.6.J 6.).).).J ).J H !.kXCXi.BXCXu.u.! & F.t r i C.n pX(.).J J ).).).[.[.).pX).).).).).).)._.pX).6.J ).).pX).).).).).).).).).pXJ ).).).).).).).).).).).aX%.M m J J 6.).xXM M J (.pX).).pXpX).pX`.J J ).pX).pX).pXuX).).).6.D sXpX).).).pX8.H ).).).J ).`.G J ).).)._.pX$.$.R.F (.).sXjXxXxXe.mXBXNXNXmXNX( g V.C.",
"C.V.s &.O.n ].).J `.`.).`.`.).pXsX`.sX).).6.pX(.).pX^.`.`.pXpXpX).(.pX).pX).pX).pXuXpX(.(.).).).pXsXpX).J pX^.).6.).`.).pXpXJ pX).pXJ ).6._.[.6.).pXpX).`.`.6.rXE.).).pX).`.pX).).J ).).6.J J ).).).).).).J ).).).pX).aXtXn pX).).J !.q.2.e.s.y.mXMXVXNX( : $.& S.G.G.H.H.C.'.`.).).pX).).hX{.pX).).`.pX).).J J J ).pX).).).).).`.`.4.%.gXa ~.G 6.2.*.;.N ,.b J fX~.).).).).pX`.sX^.).J 6.J fX'.pXJ H zX0XR.sX).gX>.M pX7.0.x R.[.^.).6.D ).pXsX8.Z ).pX5.5.).C >.>.>.z R.jXwXW.pX).5.6.aXyX).7.D pXgXVX1XMXi.u.i.2X,X% Q h.w A.G.C.J.7.>.Z (.pXfXZ D sX(.6.).).).pXbXXX).G H pX).).J ).).).J J J 6.J J J pXJ J ).).J ).pX_.gX$.B pX(.).pX).).pXzX@.M T.].8.N sX>.K (.J J ).).pX).).).pX0.M `.pX6.J J J J aXcXXX/.J J J J C F pXJ 6.qXP.^.`.(.J aXV ).).J J ).6.).(.Z e.p.MXi.mXy.BX3Xk.A.G.G.i F.W.`.`.).pX^.).).).).).).).).).).pX`.).).J J ).pX`.).).).).).J 6.).).).pXpXpX`.).J ).).).).).).J pX6.J nXyXg ^.pXJ J gXjXg _.J J ).).pX).).pX).).).).).).J ).).pX).pXJ iXE.).,.b `.).pXrX~.pX).).pXV pXE.(.).).).(.).iXXX{.(.H )._.9.gXxXSXmXNXNXNXmXZX^ Z.Z.V.",
"V.Z.u :.n L.aX6.).(.).`.).).pX).).).pX`.6.6.).).J ).).F 5.6.).`.`.).).pX).).pX).6.J ).`.).).J ).).).sXsXpXpX).).).).).pXpX`.).).).6.`.sXpXH ).pXpXJ pX5.C G ).H pX).pXpX).pX).7.G ).).).).).).).).pX).).`.^.).J J 6.).9.<.T.6.).).).Z q.w.f.s.i.BXBXi.BX2X; h & S.G.G.H.G.J.).).).).).).).(.pX).).).).).sX4.H ).).).).`.).).).).).J tXtXxXn B `.pXyXcXxX;.-.E.~.).).).).).).pX).J ).).pX).pX).pXpXpX).sX X`.*.O.l yXE.B gXq.W.!.6.`.pXsXrX(.).6.<.D *.C ,.m 8.0X<.L XXbXY.).`.uX).6.6.).6.pX6.<.~.7.7.MX1XnXp.y.y.1X,Xk.;Xh.G.w G.C.a 7.yX].pX).`.`.`.).).).).).).pXJ J pXuX(.).).pX).).).J J J J pX).).).).pX).).).).).(.).pXyXS J 6.J pX`.,.k <.%.m L m e.*.z #.T.pXJ ).).).).).pXpXpXjXW.).pX`.`.).J ).pXA F pXpX).).7.q.m J ).pXyXW.6.).).J pX`.J 6.6.^.).).).(.(.y.t.i.y.BXVXi.<Xj.r G.i G.G.H ).).).).).).).).).pX).).).pX).).`.).).pX).).).).).J J pXpX).`.).).).J J ).).).).).).).J J ).[.sXsX).pXcX{.).pX`.sX)./.Q.).).).).).pXpX).).).pX).pXJ 6.>.J 5.D 5.G ).).8.H q.Y.).6.pXiX^.).pXJ ).`.J `.).).J 4.S ).).J H (.(.(.7.w.9.0.SXVXNXNXNXNXCX<XF.V.V.",
"V.C.e B K.T.dX`.).).).).pXD ).pX).).).pXpX).).pX`.).`.pXJ ).).G 5.6.).).).).).).pX`.`.).J 6.J ).).).6.6.pX).pX).).).pX`.`.).pX).sXE.(.pXsX~.).pXpX4.H gXrXR.).).J 6.J ).pXpX).dX'.).).).).).).).pX).).).).).).pXJ 6.(.q.h T.pX).).).(.w.e.d.u.MXMXmXmXu.2Xl.B k.A.G.H.p A.R.sX).).).).J ).).).pX).).).pX).iX_.).`.).).).).).).).pX).pXbXnXN j Z `._.sXnXIX|.}.`.).).).).).).).pX).).).`.4.D pX6.pX).`.).(.rX@.m K._.jXW.dXhX{.).pXJ 6.).`.`.uX,.3.V Q.Q.yX0.M XXxXW.!.fX'.J 5.H pXpXpX6.6.pXaXiXpX7.6.MX2Xr.NXy.y.2XQ & 0X% F.G.p w J.sX_.).).).).).).).).).).).).pX).).).).).J J pX).J ).pX).J J J J J J ).).`.).(.pX).).6.).7.S J (.).).aX@.b N wXW.T.M ,.xX$.P.W.7.J J 6.J J J pX6.pX*.M J J 6.6.).).).pXiXJ J J ).J aXyX{.(.).).).).).).J 6.~.).pX4._.).).).).(.(.lXa.i.d.p.NXCXt.& V.G.G.G.u B ).pX(.pX).).).^.uX^.).pX5.(.J ).).).).).).J ).pX).pX).).).).pX).).pX1.S pX).).).).).J J (.3.&.C ).).).6.6.J ).).pXsXJ J ).).J ).pX6.).).6.J ).pX6.).pXiXD `.`.dX/.K pX`.`.`.`.6.).).).).6.A ^.D ).^.H 6.).).sX'.H pXD (.H H (.9.9.jXzXe.CXNXBXNXNXZX2XL.V.C.",
"C.C.C.Z.K.D *.!.`.`.).).pXsX(.).pX).).pX).sX`.).`.`.2.A pX).).pX).)._.sX).).).).pX).pX).4.(.sX).J 6.J ).sX).).pX).J J 5.J pXJ pXJ sX).J pX(.J sX).pX).).`.pX).sX(.).uX).pXpX).).`.).0.K ).).J pXpX).).).).).).pX).).(.kXU.!.pX).).).(.zXxXBXi.y.y.u.t.s.( - g j.S.G.G.H.A.j G ).pX).pXJ (.pX^.pXpXpX).).`.`.pX).J ).).).).).).).pX).).7.e.0Xa ].J J 6.G {. X`.J ).).).J J pX).pXJ ).J G fX^.pX).).).).6.J fXwX}.].pX`.<.N J J pX).).).).).).7.yX{.'.`.7.0.Q.}.J hX{.D `.6.4.).).pXpXpXpX6.6.7.6.7.pX9.zXVXVXMXVXi.a.,Xh.0Xh.C.G.G.Z.L.pX^.).).).).pXJ `.).).).).).pX).).pXJ pXpXH ).).pXJ pX).).).pX).).).).).).pX).J J 6.).6.8.^.(.).6.H e.>.K.*XvXLX&XxXB wXXX_.6.pXpX>.H pX).6.J ).w.kXR.J J ).).).).).pXJ 6.J J J pX).J J ).J ).).).).J ).^.).).J ).).J ).).).).(.y.CXBXy.NXi.NX^ j.V.G.G.H.F.Y.pX).).).pX).`.).).).).pXiX`.<.(.pX).).).).4.H ).).).sX).pX).).).pX).iX`.pX).).pX).pXpXpXH r.h n 6.J J ).).J ).).).`.sX^.6.J 4.K J pX8.*.N V D J ).).).6.uXJ J J sX<.K ).J J J ).J J ).).pX{.).`.).uX).uX).).J 6.A J _.(.).J !.jXyXzXe.w.mXmXi.u.i.NXa.L.B.C.",
"C.C.C.e L.zXP.].`.`.sX).).sX`.).`.`.`.`.`.sX`.`.`.:.@.Y.sX[.[.sXiX'.`.sXsX6._.sXsX`.sXsX`._.6.pXpX).`.).sXsXpXpX6.).).sX).).).).`.).`.sXpXpX(.pXpX`.`.sX).).(.).).).).).).pX).).).J fXE.J ).pXJ pXpX).).).).pXpX).).).`.{.).pX).).(.(.{.eXVXi.BXi.i.mXmX2Xl.M & S.G.G.H.G.F.Y.<.K 6.A _.).).).).pX).`.).).J 5.J ).).).J ).).).pXpX).).gXbX*XQ.pXJ J pX[.).J 6.).).).).pX).).6.).pXJ fX~.).pX).).).).pX).).).6.7.6.).7.jXW.sX(.J ).`.).).).).pX`.dX<.M 1.B B 6.pX).pX_.6.<._.pX).J pX6.6.pXpXpX7.pXaXaXe.r.u.i.MXBXCX>XL.h Z.C.G.r F.{.`.`.sX).fX>.x L D ).`.).`.).).sX).).`.`.`.sX_.sXpX`.pXpX).).pX(.`.).).).).sXsX`.`.[.0.-.L L K ).pX).VX0XT.pX(.).pXjXP.F J ).).).sXyX'.sX`.sX`.6.fXXX`.`.`.).).).).).pXpX).).`.).).).pX).J ).).).pX).^.).).J J 8.Z pX(.).pXJ (.(.t.t.y.d.BXi.t.! u A.G.G.r J.'.).`.).`.`.`.).`.`.`.).^.).pX/.`.).`.`.`.sX[.`.).).).).sXsX`.).).).).).pX`.sX).).).`.sXsXfXnXtXY.sX).).H pX).`.sX`.).pXpXpX(.`.iXN D w.kXL.{.`.`.0.v F pX`.`.`.sX).zXB (.sX`.`.`.iX'.sX,.L F ).`.`.sX).).sXpX`.tXh ).!.).H (.!.(.dXMXe.w.i.t.BXZXNXu./ a V.C.",
"C.C.C.G.a `.{.).).pX).pX).J ).).(.pXpX).).pX).(.gXqXXX{.).`.`.sX{.`.`.sXdX[.].sXsX`.sX`.[.dX`.sXsX_.`.aX6.pX`.hX/.[.[.sXhXsX).[.).`.).sXsX[._.sX`.1.N (.[.sXsXuX)._.`.sXuX`.sX`.sX`.sXV _.pXsX).`.`.[.`.`.`.sX`.sX).).`.).(.pX).).(.H Z kXAXBXy.t.i.mXCX2X- h j.V.G.i H.G.W._.kXP.E.{.(.pX).).`.^.6.J ).sX,.M V H ).pXA (.).).).pX).pX).`.`.).).).).).).pX).).).).).pX).`.).sX).5.6._.).).`.`.pX).`.sX).`.).pXsX`.sXpX_.sXpXfXV J C `.`.`.`.`.7.G jXN B ,.M _.`.`.`.).8.E.).pXsXsXpXpX`.sXsXpXdXuXsXgXlX2Xi.VXMXp.NXQ $.- e G.G.C.Y.7.H (.pX).dXwXQ.m L Z J ).).pX).).`.`.).).).`.`.sX`.sXsX`.sX`.sX_.).`.`.[.`.`.`.`.`.sX$.W.].4.R.`.).(.kXU.].`.'.`.`.`.hXhXsXD `.[.[.[.`.`.`.dX&.M [.`.`.`.`.`.`.`.sX`.`.sX`.`.`.`.[.sX^.iX'.`.`.`.sX`.`.`.`.`.`.{.[.`.`.`.`.[.`._.mXmXlXy.i.t.CX:Xu A.G.G.C.L.sXD D _.`.pXpX).).).`.sX^.`.`.`.`.`.`.`.`.`.`.`.).`.`.sX`.sX`.sX).`.`.`.[.`.`.[.[.[.[.sXuXuXlX0XY.sX`.hX<.N ].`.`.sXsXsXsXsX`.`.sXcX/.hXbXXX[.[.sXxXE.R._.[.sX`.[.[.hXQ._.`.[.[.`.[.`.8.r.q b n `.`.`.sX~.`.sX`.hXQ.pXF G J !.H F G jXqXe.mXNXBXBXmXu.^ J.V.C.",
"C.C.C.D.a c v c v C 5.2.C 2.C G C C 2.C C 5.C C 2./.F 5.F G F G J J ).pXpXsXJ 5.6.5.J pX5.G 6.6.pXF 5.pXsX`.).).`.).`.`.`.dXE.4.(.).pX`.`.sXpX).sX0XQ._.J pXsX`.[.[.J pXiX`.`.[.sXsXsX[.pX).`.[.`.).`.`.`.`.sX`.sX`.`.`.`.uX^.`.`.`.`.!.jXVXZXp.i.NXi.VX( l.P.j.S.G.G.H.p g ).[. X[.`.`.).`.`.`.sXiX{.`.`.nXU.{.`._.gX*.Z `.`.sX[.sX`.[.`.`.[.`.[.`.`.`.sX`.`.sX`.`.`.`.`.sX`.gX>.].sX`.[.`.pXsXsX(.sX`.`.sX`.`.`.sXhXE.`.`.hX{.iXQ._.sX`.`.pXdX].iXyXL q.K._.sX6.).aXgXR._.sX`.sXdXsX`.pXdX^.sXsXpXaXjX1Xt.VXmXVXCX! h P.% C.G.S.a v C v v -.v C gXfXL A C C C C 2.C C C C C C C 2.C C G 5.C 5.C G F G F J G J J G J G 3./.Q.{.hX~.G J G fX].).K J J J J J ).dXiX!.).).6.J 5.J e.*.Y.pXpXJ ).pX).J 6.pX).pX).).).4.(.J )./.).).).J J ).).).).).).).).J ).).).).).).G p.t.NXy.a.u.i.<Xj.A.G.G.C.g 5.D H F 2.5.C C 2.C F 5.G F 5.G G 5.C G C F J G J J 5.6.J 6.6.J ).J J J J 5.J ).6.J J sX;.3 3.T.Y.aX,.l >.W.Z J J J J 6.).`.`.).).8.>.b B ).).6.J iX{.hXJ J 6.).).J 6.J J ).).6.J J fX1.p.g L.R.Z J J ).uXD 5.J J J pX`.iX~.(.H 5.Z J nXBXi.VXu.i.u.CX<XF.Z.C.",
"G.C.D.J.9 0 k k x k k =.x x c x -.*.x x =.c c -.v c z C C v C C v v v -.-.C 2.2.2.C C 2.5.2.C C C 2.C C C 2.C C C C C C C 2.3.C A C G C C 2.C C G G 5.5.F 5.5.J H 5.7.C F G 5.-.C G J 5.J ).J J 5.G J G G G G G J J J J G J J J J J J Z >.s.s.u.MXBXMXp.) L.L.j.V.G.G.H.H.Z.!.6.J 5.J J pXJ J J J pX).pXJ gXZ ).pXH gXyXY.J G J ).6.`.).pX).8.G J ).pXJ J ).).pXpX).).J 6.J ).gXQ.Z 8.S ).pXpX).pXS J 6.J ).uX).J 5.J pXpX6.H ).pX(.G 6.J J 5.).J F <.F E.T.G 8.A H ^.hXrXK 6.D J 6.7.5.5.7.6.5.9.3.5.9.s.BXBXu.MXs.%.L.P.% C.G.G.D.g l l X.k k k k ;.b x =.k k k k =.x x v v -.x c v v v -.-.v v v v =.C C 2.v v v C v C C c v C C C C 2.C C 0.N L 2.C C C C C C C 2.C 2.2.2.v %.R.C C C C C C C C 2.C C C C C C 3.C C C C C C C C C C C C C C C C C C C C C C 2.C 0.a.u.MXmXNXBXa.t.F.A.i i A.a l k x &.z x c -.-.L =.c -.c -.c c -.c v 2.v C C v 2.C 2.C C C C C C 2.2.C C C 2.-.-.v >.qX'.l j b N d.z z L 2.b C C C C C C v -.C 2.E.E.C -.v 2.C v v -.C C C C 2.C C 2.C C C 2.C C C d.%.}.n <.C C C C C C C C C C C C C K F >.L F C ,.a.BXt.u.u.CXNX^ F.Z.C.",
"V.F.XXN z b 8 9 9 8 7 8 k k k k k x =.k l x k x k ;.M l &.l x k x x l =.=.x x c v v v c v 2.C v v -.C v c -.v v v v -.v -.v v -.v v c -.v -.-.c v -.c v v c v v v v -.v v v ;.,.M C v v v v C v C C v v 2.v v -.v v C C C C v C C 2.C C =.p.a.MXBXi.p.NX<XK.W.& S.G.G.H.H.F.b v -.c v v v 2.v v -.v v v 2.*.l l C C v S 5.2.C C 2.2.C C C ;.@.m C C 2.C C 2.C 2.2.C 2.C 5.C 2.2.D C 5.C C C 2.2.C C 2.C 2.C C 2.2.2.C -.C C 3.C -.;.f b -.2.C -.v @.N Z n C C 5.D F C -.,.j v 2.C -.-.2.-.-.2.2.2.2.2.:.a.y.p.BXt.a.%.- h h.C.G.D.J.N *.2 0 9 8 9 7 O.b b k k k k k =.l 8 l k =.x l &.k k k =.&.k k k ;.f x =.x =.x x x x =.x c c c c -.=.v c -.C v c c c c -.c v c c c c -.v -.$.M c c c c c c -.c c c -.v c -.c c c c v c c c v c v -.c v v -.v v v v v v v c -.v -.VXNXMXNXNXZXCX! u V.H.F.A.C.d X.9 k x k k c &.9 k x =.x k c x c z c &.x l x x x x &.c c c c c x x x x c c c -.c 2.v tXq.:.d 9 ` @.%.f j *.&.b x c c =.l -.v C v c -.=.-.C v -.-.c -.c c -.v c v c c c c -.-.=.O.< ;.q.d M v v v c v -.c v -.v c c c c v c >.L c v ,.t.lXCXNXu.NXCX! B.C.C.",
"D.a o.&.l 8 8 9 9 6 6 5 < 5 <  .6 6 o.l 0 O.&.9 X.8 k 6 o.l ' 9 < 6 7 6 8 8 8 l k k =.x x =.x =.x x =.x x =.=.x x =.c c -.c c c c c c c c c -.v x =.-.c =.c c =.l x =.v c -.-.K c c -.c c c c c v -.v c c -.c -.c v c v c c c c v c c c -.f.CXi.i.i.MXi.3X>X<.h.S.G.G.H.S.g k 9 k &.k k k &.x l x =.x x x :.@.d b ;.f b &.v *.z c -.-.c c e.yXj c -.c c c c c =.-.c =.x c =.x v v -.c v c v -.v v -.v -.c v v -.v -.;.N -.=.k -.-.0.gXj x -.-.v ;.%.}.hXB b -.c c c =.=.2.2.z c -.-.-.-.v -.-.-.;.*.-.y.CXt.p.d.t.CX<X& - h.Z.S.D.0 4 O.x k 6 6 9 [ l 0 5 4 4 6 6 6 6 6 6 9 5 6 6 6 6 6 6  .4  .6 | 2 z >.0 X.X.X.X.6 8 8 X.k 8 8 7 7 X.k k &.7 8 k =.x x &.x x x x c c c c c =.p.b k c x c c c -.c x x x x x x c c =.x =.c c c x c c c c x x =.c c c c c c x =.c =.c ,.CXe.t.u.mXa.! h.A.G.G.A.i 0 8 9 6 6  .0 ' { q 0 X.8 &.l 9 X.8 6  .&.9 6 6 7 ..{ d 8 ..8 X.8 7 7 O.f 0 7 8 8 8 8 X.8 e.zX3.M %.g 0.D 0 O.0 l 8 7 ..o.o.1 0 8 k =.c =.c c c =.z c =.c c c c c c =.=.x k *.x ,.1.h m lXL.L =.c c c =.c =.x =.c c c c c x x c c x v :.p.:.t.NXu.u.a.:XZ.V.C.",
"Z.l | 6 8 8 6 8 7 6 6 8 8 o.0 9 6 6 6 9 < ' l 9 6 7 6 6 9 6 X.9 &.0  .6 5 6 6 2 9 9 7 9 o.7 8 X.8 8 8 k k &.&.8 8 X.8 7 ..k 8 &.X.7 7 8 k &.k k 8 8 k k x x =.=.=.&.b k k &.x k k l x =.x x x c x x =.x x &.k l x c c x c c c c =.l c c -.f.p.i.u.BXy.p.^ #.M h.A.A.H.H.S.j X.8 9 8 k *.@.b k k k &.k k k &.rXB 0 :.h b z 8 &.l X. .7 8 8 &.<.b k &.k k X.8 X. .6 7 X.8 6 &.b X.X.8 8 9 k x x c =.x =.=.&.x x x c =.-.c =.;.x b =.;.*.C z k c c =.<.z c 2.c =.=.c l =.*.l -.*.x =.=.=.=.&.k =.&.=.-.=.r.p.s.NXBXp.u.<Xl.l.h.Z.D.g 6 6 l 9 |  .9 0 v ;.0 6 6 6 6 6 6 6 6 7 6 6 6  .6 6 9 6 [ 6 6 6 X.f 0 o.9 6  .' < 6 6 6 6 6 6 6 6 6 6 6  .7 7 8 6 4 7 6 ..7  .6 6 6 | 6 6 6 { %.T.f 8 8 8 8 8 8 X.k k X.k 8 ..9 6 k k k k k k k k k =.&.k 8 k k k k k k &.k k k k x #.t.y.i.u.u.s.:XZ.A.G.i S.u 6 9 6 ..7 7 7 ..c x 0 4 4  .l 6 5 O.[ 3 5 4 5 2 5 :.jXj 4 6 6 6 o.&.[ { N d 6 6 6 6 [ < X.9 0.4.L 1.N C #.3 b b 9 k l &.X.;.#.3 f d < 5 8 X.8 8 X.k X.8 8 X.X.8 9 X.7 o.X.X.k 9 &.x >.b *.N X.x k k o.l 8 k &.k k k k x x k l 8 k k 9 } f.:.y.s.i.s.a.^ u Z.C.",
"f 0 l 8 6 6 8 9 6 8 6 9  .&.z 7 8 8 8 X.&.9 8 7 6 7 8 8 8 8 8 8 8 6 6 X.7 6  .9 9 9 6 6  .7 4 6 6  . .2 9  .O.2 6  .6 o.7 6 7  .o. .9 6 6 6  .6  .6 6 6 9  . .&.9 &.l o.6 6  .6  .6 9 8 X.8 8 8 8 7  .6 8 ;.@.j 8 8 7 8 8 X.8 8 &.k 9 8 &.f.p.d.NXi.t.p.) W d % C.A.H.H.a 8 8 8 8 7 9 [ *.0 6 9  .< 6 6 4 4 ] | 5  .*.9 < ' 6 ' ' [ 0 4 6 5 6 6 6 6 6 6  .6 | ;.:.[ q o.6 9 7 o.8 7 ..8 9 6 [ 6 ' ] f l ..7 ..6 7 o. . .6 o.x 8 o.&.x x &.l 8 o.l 7 o.9 6 7 X.8 X.8 8 X.k 8 o.&.7 X.X.o.*.b o.X.X.X.O.f.p.t.y.MXVXZX^ l.L.h.D.a 8 6 6 5 4 6 9 6 0 3 :.0 6 6 7 7 7 8 &.8 7 7 6 6 6 6 7 7 6 #.f 9 8 9 9 5 5 6 5 o.*.l 6 6 6 6 6 6 6 5 | 6 < < 6 9 4 5 6 6 6 6 6  .@.6 4 4 6 4 | O.<.m 7 6 4 6 6 6 4  .6 [ 6 6 [ 2 ..5 5 6 6 6 6 6 ' 5 4 4 6 6 6 6 6 6 6 6 6 6 6 6 ' ] ` } d.y.u.u.s.a.:Xj.A.G.G.D.b 7 7 9 8 8 8 8 k k k k 8 o.9 6 ..9 &.N l 7 ..9 8 9 6 l 7 8 8 7 6 o.V kX$.j k 7 7 7 9 ;.$.f 6 9  .| 6 8 7 r.N d O.l b ..{ f b q.'.B l &.0 6  . .6 6 | 6 ' 2 | 6 [ &.1 ' ' 5 6 7 [ 3 9 o.$.0 | 9 ..6 ' &.b 7 6  .6 4 ..9 5  .6 6 9 ' < ' :.e.SXf.u.u.u.u.<XZ.Z.F.",
"q.q 3 6 8 8 8 6 9 6 8 7  .9  .6 6 7 6 6 @.f 6 7 ..l 9 7 6 6 6 6 6 7 7 6 6 8 7 9 6 5 5  .6 o.6 6 6 '  .6 < 4 O.k 9 6  .5 { 2 , , | 8 7 6 2 4 '  .6 6 6 6 5 ' 6 &.9 6 |  .6 6 6 6 6 6 5 4 6 6 4 5 6 O.@.f 2 ..l 9  .6  .9 6 6 6 6 6 7 6 9 ' #.f.e.mXu.t.t.<X^ - & V.i A.p 6 6 8 X.7 8 8  .f 9 8 6 6 X.7  .6 6 8 6 6 6 4  .6 6 6 6 6 6 X.6 8 8 6 6 6 6 6  .6 6 O.b ;.gXj 6 7 6 5  .6  .9 6 6 6  . .O.2 f < 6 6  . .< o...6 ..7 4  . .| 4 | 1 | ' < 6 | 6 6 6 < < < 6 6  .6 6  . .o.7  .o. .o.o. . .o. .} p.p.i.BXBXMXCX:X- ; h.H.b 4 6 7 6 0 7 9 9 X.4 6 7 6 6 9 9 X.6  . .6 6 6 6 6 6 6 6 4 &.z 5 6 6 9 6 6 6  .6 6 6 6 6 6 6 6 6 6 @.f 6 6 6 ' , 2 6 4 4 6 6 6 | &.7 | 2 2 6  .6 &. .4 4 < ' < < ' < ' 6 6 | *.l o.[ 0 < < 3 < ' ..6 6 6 6 6 6  .6 6 6 | < 5 ' ] ] { [ o.:.p.i.u.mXCX<Xj.S.i D.g X.7 8 8 8 8 8 8 9 9 7 6  .8 8 8 8 ..< 6  .6 8 9 6 6 6 7 7 6  .7  .8 8 &.>.8 7 6 6 6 6  .>.l 7  .6 8 7 6 5 &.:.q 9 l  .} ,.g < 4 o.4 4 l 6 | < 6 4  . .[ @.0 | 4  .&. .5 4 6 5 4 #.b 2 6 6 6 < <  .6 [ l 7 6  .[ < ..9 6 < < 6 9 5 [ l 6 o.;.r.i.BXa.i.u.mXJ.B.J.",
"e.%.2 3 f 8 8 8 8 8 9 8 8 7 7 k k 8 8 8 &.z l k &.&.2 6 6 6 9 8 7 8 7 ..0 8 X.6 7 6 2 7 7 8 8 7  .k 8 X.7 9 X.8  . .9 O.:.wXP.$.d 0 &.7 7 o.l 9  .6 6  .[ 2 6 ..9  . . .6 7 6  .6 6 6 9 < { 2 2 3 { ..2 2 5 4 6 7  .7 9 5 6 6 6 6 6 6 6  .:.:.e.p.p.BXCX^ :XL.& V.S.G.9 6 9 6 6 k 8 7 &.l X.6 ..@.2 7 X.8 7  . .8 X.8 8 8 8  .8 8  .| ..2 X.7 6  .6 6 6 6 6 l l 6 8 &.1 3 ..6  ...7 6 6 6 6  .6 O.&.l N l  .' [ 2 5 o.2 6  . .6  . .4 [ f 0 [ 2 ' < | <  . .6 < ' 2 4 6 4 ' ' o.| 1 ' 2 | o. . .o. .;.#.d.BXSXBXu.s.^ & l.% q 0 &.9 8 &.0 8 9 9 b D ;.9 9 ..@.[ 3  . ...9 6 8 6 6 6 6 7 6 9 4 6 4 5 9 6 6 4 6 6 9  .{ 0  .7 6 6 6 &.l 7 ..9 r.@.d 0 9 6 7 6  .6 4 6 @.M 9  .6 6 4 7 6 o.6 o.l 9 &.l 6 6 O.{ _ 3 { f 9 6 O.j 5 6 6  .6 6 9 6 7 ..7  .6  .7 6  .X.&.-.C 5.:.:.i.i.u.s.%.j.A.F.J.8 X.8 9 8 ..7 8 8 8 8 7 O.f 6 [ 2 6 O.z 0 X.7 7 &.2 9 6 6 7 6 ..8 7 6  .8 | 6 6 6 7 9 X.6 5  .7 7 8 6 7 7 7 6 *.*.{ 3 o.} b N b X.9 X.7 6 6  .6 6 6 6 6 ;.*.2  . .6 6 7 @.f 8 { f =.z 6 6 6  . .6 6  .7 7 7 6  .#.b  .6 9 o.z 5 6 6 0 6  .6 &.:.d.i.s.i.NX%.p D.a ",
"8 1.nXQ.d k k k k k 8 8 8 k l 8 ..l 8 8 8 8 9 6 8 o.&.6 8 k 9 6 7 6 6 k 8 6 6 8 6 &.b 6 7 7  .7 7 7 7 X.&...6  .7 k 8 o.3.M z 1.W.j o.7 6 6 8 8 X...6 o.1.b | 9 6 < 6 ..7 8  .6 8 7 8 { _ 0 j ;.#.3 1 ] q 9 7 6 6 7 7 [ 2 9 6 6 6 6 6 6 6 &.e.q.y.SXBXCX^ qXL.j.V.J.z  .7 8 8 8 8 o.l 9 7 o.7 9 &.$.2 ' 6 { R g 9 8 O.] 0 o.6 6 6 O.f o.z 9  .6 6  . . .8 7 8  ...6 [ %.d 9 [ 0  ...7 9 6 6 6  .o.v z k ..| ;.N x 8 X.&.7 6 o. .o. . .o.l <  .6 ..7 6 7 6 7 8 X.6 7 6  .' [ l 9 ;.$.b 8  . . . .o.6 O.:.w.i.BXi.NX( ! * - s d j k 8 &.z b 8 8 7 d E.r.7 6 6 =.0.b 9 k 8 X.7 9 8 X.8 8 ..7 6 7 7 o.5 0 6 6 6 7 6 6  .*.0 6 7  .6 7 6 6 6  .4 #.wXm j 9 6 6 6 6  ...9 ..X.X.6 6 6  .6 6 7  .< o.2 6 6 | ' } %.P.B { d 6 6 &.l  .6 6 6 6 ..6 9 6 6  .7 6 6 6 6 6 6 8 8 8 k :.:.p.u.y.mXqX& D.J.X.7 k 8 8 8 8 8 7 7 9 7 o.*.l 4 &.f 6 8 k X.6 6 6 ..l 8 6 9 6 6 6 6 ..6 6 6 ..l 6 6 6 9  .&.9  .7 9  .7 6 6 6 o.] +.rXP.f 1.M b 9  .9  ... .6 @.@.6 2  .6 4 :.z j  .6  .2 &.N 4 *.b  .&.7 l 7 6  .l 6 ..7 6 6 6  .l 7 6 7  .0 8 6 7 9 6 6 6 6 6 ;.e.s.t.i.u.p.F.F.J.",
"9 9 ;.8.b 8 8 8 X.8 X.7 8 9 8 8 k k X.k k k 8 8 8 X.&.l k k 8 8 8 8 8 9 8 &.8 7 8 &.k 6 9 7 k .. .[ 0 6 o.X...7 8 6  .6 7 8 X.6 8 @.2 [ 7 7 9  . .X.8 6 6  .X.9 ;.@.d o.7 6 &.l 7 8 { ,.Z M 9 o.d.2.d >.j 0 6 6 6 6  .#.d 6 6 6 6 6 6 6 9 8 ;.:.#.%.i.ZX<XQ l.j.D.j o.8 8 6 6 9 ....z 9 7 8 8  .5 o.#.h f *.M b 7 9 O.tXf |  .6 6 &.k l b o. .k 6 6  .6 6 6  .6 6  .4 ,.h 4 *.l |  .7 6 6 6 4  .9 6 4 6 o.&.b o. . .6  .X.6 6  . ...6 O.f 0 o.7 8 X.8  .6 7 [ 3 7 6  . .&.l X. .o.*.l 6 6  .o. .[  ...*.O.e.MXt.p.( :Xg & s d 7 5 6  .9 6 6 9  .q f r. .7 7 6 6 X.9 6 6 6 8 7 9 &.8 8 &.z k k X.&.z b 7 6 9 8 8 7 7 8 8 6 6 6 8 8 X.6 7 ..7 9 k z 8  .6 8 8 6 6 8 6  .6 6  .6 X.6 8 X.6 O.f 9 k 6  .o.&.;.].B 0.e.d 7 l 6  .6 8 8  .7 7 8 7 6 9 8 7 6 6 6 6 6 6 7 6 6 4 O.:.:.MXMXu.t.j.D.M l b k k k k 8 X.&.8 8 6 6 8 X.&.8 &.l 7 8 &.k 8 8 &.@.9 8 9 8 6 ..7 8 8 6 7 8 7 8 X.8 6 7 X.8 7 8 8 8 X.X.7 O.{ ] f b z k l l X. .#.;.f f o.7 8 ;.,.l 0 ..6 ;.z b  . .6 7 5 [ f 2 @.N 6 l 7  ...7 7 9 ..7 6 6 ..2 6 6  .6 7 2 9 6 6 9 6 6 6 6 9 9 :.f.i.BXu.<Xj.G.d ",
"6 2 < 6 6  .5 6 6  . .6 5 6 6 < 6 6 6 6 6 6 6 4 < 6  .9 6 6 6 6 6 6 6 6 6  .7 6 7 8 k x k l 1 o...l k 2 7 7 8 7 6 8 7 8 8 6  .7 6 *.z *.l k 7 8 X.X.X.X.8 7 6 6 o.N b o.l 7 8 8 ' ` d L x 7 6 o.*.rXM &.k 8  .7 X.7 ..A b k =.&.8 8 7 8 9 b -.:.} [ xXt.) >XL.h.a o.8 8 8 8 k 8 8 8 8 8 8 ..6 8 8 #.lX}.M =.d 9 X.X.' l x 8 o...7 X.8 l ..6 ..8 X.8 8 X.7 8 8 8 6 &.l 6 o.8 O.] 0 8 7 X.8 X.[ 0 8 X.8 7 o.2  .' 6 o...6 7 X...7 7 X. .&.x ..| 0 6 o.7 ....9 #.h 7 &.9 6  .6  .o.6 | o.7  .6 o.&.l 8 X.O.o.-.,.CXs.s.! j.; $ q , < 5 5 6 4 5 6  .d q #.< < < 4 4 6 5 < 6 2 5 6 < < 4 4 6 6 6  . .6 6 < ' 2 5 < 5 4 l &.6 l B ;.4 4 4 6 6 6 6 6 6 6 6 6 8 6 6 6 6 6 8 8 X.....9  .6 6 6 X.X.8 ' < 6  .6 6 &.&.4 ..:.f 5 9  .X.[ 1 6  .7 9 6 6 o.2 9  .6  .6 6 6 6 6 X.6 6 O.;.0.e.a.u.y.k.a | l 4 5  .4 < 6 6 &.7 6  .6 6 6 6 7 ..9 7 7 6 6  .6 o.z 9  .6 6 6 7 7 6 6  .6 6 6 7 7 8 8 7 8 6  .6 6 6  . .7 &.#.M N @.f | 5 [ @.9 &.0.V f  .7 9 6 &.z l 8 &.&.&.2 7 8 8 o.$.P.M l l l 6 6  .6 6 7 8 6 7 7 6 6 &.f 6 6  .&.5 l l [ 9 9 6 6 6 6  .0 O.r.d.i.CX%.e s b ",
"< 2 < < < 6 6 5 4 6  .o.[ 0  .6 5 4 6 5 | 5 4 | 6 6 4 6 < 5 4 4 | 6 5 4 < < < < < < 6 6 [ { q 3 ' 1 < &.9  . .6  .6 6 6  .4 [ 9 6 4 6 6 6  .6 2 6  . .6 ..6 6 6 6 5  .6 6  .6 O.} :.d <  . .6  .9 9 o.6 6 6 6 6 6 o.2 0  .9 [ o.6  .< 9 6 0 2 r.} g qX( ) P.L.j.d 9 6 6 8 8 8 7 ..7 6 7 6 &.z 6 6 ;.tXiX:.M m 9 8 O.*.b X. .o.7 6 6 8 6  .6  .6 6  .6 6 6  .6 9 6 d %.2 7  .@.V b 6 6 6 6 6 #.f 0 7 7 6 +.2 2 z 0 X.X.8 8 o.o.7 6 ....7 6 @.@.2 @.d 6  .7 o.&.b &.z 6  . .6  . . . . .o. . . .6  . .' O.6  .#.f.p.s.! : g.d $ $ > Y 3 1 < < < < 2 , 1 < < 4 6 6 | < < < 5 < < 5 < < 5 4 < < | ' < < < < 7 < 7 b x l @.b n }.%.' 4 < < < < ' 1 1 5 ' 1 1 < < 5 6 < < 6 | 4  .[ 1 < 6 4 4 [ @.&.z 0 o.6  .6 ;.f 6 X.;.f 2 2 ' ;.>.0 4 9 6 6 6  .*.0 4 ' [ 9 6 6 6 6 | | | 6 o.-.:.DX^ Q & 0 ' 1 2 6 9 6 6 9 5 4  .[ 2  . .4 5 2 6 4 < < < < 4 < < < ' ..2 < < < 4 4 < ' < 4 5 5 4 ' < ] 1 7 l k k | | < < 4 &.b 6 &. .&.2 ' f < < 4 | l 6  .5 4 4 | 6 < 6 o.&.l ` 1 6 ..l 8  .6 6 | 7  .6  .6 4 6 [ 3 6 | 5 o.2 2 6 6  . .2 @.f 2 5  .6 6 6 o.< ' ;.e.r.lXAXa q < ",
"+ + + > > + + > > > > _ _ , > , > , 1 1 ` 1 1 1 1 1 1 1 1 1 1 1 < < 1 < < ' < 0 9 7 6 < [ ,.x 7 9 7 7 5 < ' < ' < < < ' < ' < 1 < [ < 4 ' 2 [ 2 2 o.6 2 6 ..6 6 { _ 3 6 6 6  .;.0.aXY.0 | ' 6 6 9  .< 6 | 6 6 6 6 7 =.2 9  .6 6 6 o.l 9 5 9 < %.U.Y.#.( ! - - g *.f 2 4 < 5 | 5 6 6  .6 4 6 6  .< < 5 o.>.b ' < < [ k 4 ' ' '  .6 5 < < 4 4 4 4 ' ' < < ' ' < 5 { R U d 4 ' 4 4 ' < 4 6 6 5 [ *.0 < < { N L b 0 1 1 1 < | o.6 o.< 6 6  . . .&.*.N l < 4  . .X.4 4 |  . .6 | | ' [ 2 ] <  .o.|  .< [ | O.] 3 +.g.%.CX:XW #.0 d > o # $ @ @ O O + + + Y + + + , > _ > > > > > > > > , , > , , ` ] , , , , 1 b b b =.&.l b f { { ' 1 1 ' < 1 , 1 1 ] 6 x O.1 2 1 ] 1 < ] 1 ] 1 { 2 0 1 ] ] 1 k l [ < ] 1 < < [ 2 1 1 ] 7 z [ [ 0  .2 2 < < 1 6  .< < ' 2 [ < < < < 6  .' 5  .2 9 :.e.^ ; d , { f 3 1 > > , 1 1 1 ] 1 1 1 1 < < < < 1 ' < 3 < ] 1 1 < 1 1 ' < 1 < 1 1 1 ' < 1 1 1 1 6 < M *.m 2.C 8.#.1 ] 1 1 1 ] 1 1 1 ' [ < ] ] 1 3 ] 1 ] 1 1 ] 1 ] ] 1 1 1 1 O.#.M 3 ] 1 < 1 1 1 < ' ] ] < < 1 1 { 2 1 ' < ' &.5 < < ' ' < ,.M 2 5 6 7 7 < 7 8 6 O.} e.:.g.g l > ",
"o U @ @ X X X X X X X X X X X X X X X X X o o o o + T o o o o o o o O O + + + q 2 < < 7 7 &.&.*.' , 1 ` > , , _ , , 1 ` _ , 1 , , ] , _ , _ 1 ` > , ` ` > , , ` { { q 1 1 1 ] ` 2 2 1 1 ] 1 1 1 1 ] < 1 ' 1 < 1 ] 3 { 3 3 ' 6 9 &.6 7 8 7 7 9 #.@.0 #.) ! = $ d O.l 2 < 5 < 4 4 4 < < < 4 4 4 4 4 6 4 4 +._ q 1 ] ] 1 ' ' ] ' 1 2 o.2 2 < 4 < < ' < < 1 ' < < 1 o.p.2 P { 3 1 < < < < < < ] { 1 1 1 ] [ 2 < 1 ] { 1 , 3 ] 1 ] ] < 1 ] 1 ] 1 1 ] , ] ] , , 1 ] ] ] 1 , ` ` ` ` ` , ] [ 3 ` 2 [ ] , ` < [ O.{ g.# b DX3X: # q 3 +.` , $ X X X X               @ o I I             X X X X X o o @ + > + + P d 0 < 1 ' < , { ;.;.{ { _ T + _ > > O + s C e.;.{ + 3 [ Y _ > _ 3 1 1 ` + 3 f &.` _ q [ Y > > > > _ > _ _ 3 + _ > > > , > > l [ > ] ` > > , _ _ _ > > , _ _ , 3 ' 3 ..#./ R o I X o X o X X X X X o o X o o o o o O @ o o U + O T O O O + O + + O + + + + + > + + + > + # q @.3 _ d :.#.@.3 b ;.` 3 [ > > ` 3 > _ > { 3 1 ] , 1 1 2 ` Y + , 2 { 3 + { f 3 3 _ O , _ > > > ' ] , _ 3 f 2 [ _ > _ > > _ _ > , , 3 > , , , _ , > 1 > > _ { { } g.%.h #.E ",
"@.f E U @ o o o o o o o o o o o U o o X X o o X o X U o o o U X o X X $ { T $ $ U o o @ @ + @ d e.;.E $ @.E X o o U o O Y + O > > > > 3 2 0 l } 0 _ > _ > > _ Y ` R # Y O Y T T O O + + + + Y + , _ + + Y O + > > > ` 3 + + > , _ _ > > _ > _ ` #.3 g.( ^ W k.P @ O O O O O O + + + + + Y + + + Y + + Y } @.q +.R R # > > 1 ` + > _ > Y _ Y + + Y Y Y + _ _ + > > } e.d + 3 _ + + + Y _ _ > _ > , _ Y > > > Y > _ { > + T + Y + Y T T Y O O T O T O U + O O T O T U T O O O T T O T O U O @ R Y Y + > _ Y +.r.Y.j :.^ ~ R o I @ O + o X X X X X X X X X o o $ o T Y > > > > , > 3 , , 3 , 3 3 q 3 3 { 3 $ o o o @ @ + Y O O { } @.r._ 3 _ d $.M d q ` R E T U . U X U @ + $ Y Y R > + @ Y Y 3 3 Y { R + { T @ + U T O o X X X X X U X $ { T X o T X U X o $ V } X O U o X X o o T g.@.#.Y o o X X X X o X X X X X X U X o X @ Y U   X X X X X X X U X X X X   - R.qXg.X U U X X U     $ @ d q @.r.@.g }.lX#.a e.#.3 ;.#.3 q 2 h @.T U T # f E E T + # R Y 3 R o o # f { R d ;.#.E @ # R { 3 u cX#.E T @ > Y o + + d ;.f { E @ T o + U X # T X o Y U U { e.~ # @.",
"# { E o @ T o o o U o X X o o X O O o O O o X X X o @ , Y O U O o o o o T   s } U o U o o o o $ f e.#.3 R #.d f [ 2 f 3 3 { 3 $ 3 [ < q b l [ ;.@.E + o U o X U + E X X U U   $ d $.R U @ Y U @ o U T O @ # @ U o o o T T @ o o X o o o @ R U @ E T E mX3X>X& @ U o X X X I X X @ I # Y U I I I   X       U @ T T Y O d $.U X X $ { T X o U U U o @ f E X @ Y U O o 3 f $.d y.} , 1 5 f o.2 _ ` > ` > R R E I   I I I I X   I I I I I I I I     @ U @ Y U T U I U @   X X   I X X I I   X I   X I     I X X o o o E ) W ^ %.g g z @.@.@.[ 2 f f @.R , _ q q P # > 3 3 , 3 , 3 > > > + + + + # Y X X X X U   - P.$.E o o $ # o , { MXbXyX,.q 3 3 f 2 E g.} } +.T Y $ h #.T U $ ; W W W d W = : ;X! = Q ; Q Q ;XQ = = = W = = = W = # = R # = # R # R R # # : @.g.# # # # @ U # = W g.f ,.p.#.# > # 3 ` R = = R # R T # + = W @ = ~ R = W R # W # = W = R = W = - M 1.<XW R # # = W W = = : g q 1 } } d E.%.p.> Y @.j ;.;.N 2 { 3 g.U @ T @ @ T U U + T   U @ R U X @ d T.lX= 1 g.E U X   P E $ Y g.  X X U U X     @ T $ f %.#.E X + @ # T X X X X X U # R { +.T ",
"~ R R # @ U o @ @ Y Y # > T @ # q +.T = $.W . # # T $ ; ~ W ; $.f R R = Q Q : ~ Q ; = ; ; ; ; z.- ~ 0X0X$.>.d 2 +.E @ R T Y R T @ $ @.R $ R = @.E g.T o $ R O + + + O U o + T P g %.E X T U @ T o @ q { 3 3 } T X o U o O o X X X X X U o U X o U U o # g.Q W o X o U o X U o O U U o @ T U o @ _ Y > > R . U $ = R # - %.~ = ; z.c.Q ; ; = @.W = c.x.;Xz.l.>X>X0X$.: d ,.R R g.j b b < ' E T > l f z @.Q ) I U U X U X X U U U U U U X X o @ $ $ Y + + Y T T Y _ > U X U U U X U U X X X X o U U U U X U T @ X I E ( eX$.wX=XR.<.0X$.$.$.h h V >.0X#.+ q , @ @ _ U X X X X X X U X X X o X $ E U X X X X @ - 3 $.E ] 3 q { f g g <.qXbXIXqX@.#.- x.>X:XwXeX,X>Xx.v.N.9X>Xx.v.4X4Xv.4Xv.v.6Xv.oXJX6Xn.n.@X@X6Xb.7X5X7X8Xn.n.6Xn.6X4Xv.6Xv.n.n.oX6X6X4X4Xv.v.>X>X4X4X4X6X4X4X6XoXGX9Xv.v.9X6X8Xv.M.v.4Xv.n.6X4Xv.4X4Xv.4XM.9Xv.x.9X4XM.6X4Xv.4Xv.v.6Xn.6Xn.6Xv.wXU.U.v.8XM.n.n.6Xn.v.6Xv.4Xv.+X0X! Q f 3 @.g.E q m b } +.` E + +.g._ , ` T O Y T U U @ Y T T . # R = J.L %.~ : E $ f #.# P ~ R # # = R @ # Y @ @ U @ Y + # @ R E U X @ # R @ # R = l.x.4Xv.~ E R ",
"n.4X6X4X4X4Xv.v.v.4X4XN.v.4Xv.N.4X4X4Xv.4X8Xv.n.4Xv.M.M.M.m.7X7X7X8X8X8X7X8XM.M.M.7X7Xm.m.7Xn.#XGXeXUXIX%.#.W R E U o O 2 T U @ k ` U U @ U . I T T T X @ + + # > R R @.R o # R # + E @ 3 { Y # = # $ # ; - $.! # = $.@.R R = R = = = ; Q ; ; Q Q : ;X~ $.;X;Xz.z.c.x.;Xx.;Xz.z.;X;X;Xz.;Xc.x.x.x.9Xv.v.4Xv.4Xv.v.4X4X4Xv.n.M.M.7Xn.b.m.M.M.M.M.7XM.m.m.m.m.m.KXUX8X9X0X#.$.@.[ d d @._ E E T @ q > Y T I g.T U U U U U U o X U U X # #._ Y o U X o T . @ @ + T X U Y T U U X U U X U U X X X U X o U X U . # T X R W x.:Xh W I # W W . # T U . @ # g.T $ R R $ W R # # . I   @ # # T . U T R . # R U o . : U.%.W * Q h L.0XL.I.g b :.h $.qXlX0X-X7Xm.m.7Xm.m.m.#X#XHX#Xm.b.b.b.b.b.b.7X7Xb.b.7X#X#Xb.b.b.b.b.b.b.7X5X7X5Xb.5X5X7X5X#Xb.b.b.7X7X7X5Xb.7Xb.7X7Xm.b.7Xb.7X7X7X6X6Xb.b.7X7Xm.b.7X7Xb.m.m.7X7XJXb.m.b.b.b.b.5X5X7Xm.b.b.5Xn.b.7Xb.m.m.n.b.b.7X7X5X6Xb.m.m.b.7X5Xn.5X5X5X5X5XJXJXJXGXIXIXIX1.#.g.0 3 d @.W ! ! ! - ! ! f $.x.>Xx.>X>Xv.v.v.4Xv.v.v.v.v.+XU.yXU.>Xx.4Xv.x.v.N.4Xn.v.wX4Xv.4Xv.4Xv.4X4X>Xv.8X4X>Xv.4X>Xx.>Xv.v.v.4Xv.x.4Xv.U.>XwX9X8Xv.",
"7Xb.b.7XJXoXm.b.7Xm.5Xb.m.m.m.7Xm.m.m.m.7Xm.m.7Xb.m.7Xb.m.m.b.5Xb.b.7X7Xn.M.m.n.m.n.5X7Xm.7Xn.6XAXnXAXAX3XUX>XQ ;X- = - P.:X;Xl.U.:X;Xz.z.;Xz.z.z.z.c.x.x.x.4Xv.v.v.v.n.8Xx.v.n.4X6XN.N.n.4X4XM.8X8X6Xv.M.7XM.M.n.8XM.8X8XM.M.M.M.7XM.m.7Xm.7Xm.7XM.m.M.M.M.m.m.m.M.m.7X7X7XM.7XM.M.7X7Xm.m.7Xm.m.m.M.m.b.b.b.m.m.m.m.m.m.n.n.n.b.b.n.n.b.b.n.@X@X@X#XHX#Xn.7XIXGXIXUXUXDXtXd.@.1 _ E _ E { } @.f ~ = W E ~ E + > _ + $ f } T U @ R # : W W R R = = c.>XQ = z.~ = Q : Q : Q Q ; ;XQ ; ;Xz.Q ; c.c.c.c.>Xc.x.>X>Xc.x.;X;X;X>X>Xx.4XN.N.4Xv.x.>X>Xx.x.4X>Xx.x.v.4XN.4Xv.v.4X>Xv.N.v.4X4X4X4Xv.v.v.9X4X4Xv.N.v.M.8XM.M.M.M.M.m.9XAXIXeXg.+ { 3 #.l.-XKXHX$XKXJXKX@X@X$X$X$X@X@X#XJXJXoX$XJXJX$X#XJXJX#X#X@X@X@X#XHXoX$XJXJXHXHXHXHXHX5X#XHX#XJXoX@XHXb.b.b.#X#X5X5XHXHX#X#XHXHXb.b.5Xb.5XHX#X5X5Xb.5Xn.5X5X5XJX#Xb.5X5X#X#XHX@Xb.#X@XHXKXoX#XHXb.#X#X#X#XHX#X#X#X#X#X@Xb.b.#XoXGXKXb.HXHXHX5XKXIXbXeXAXAXIXAX! q f =Xn.7Xm.m.M.7X7Xm.M.M.M.m.m.M.M.m.7X7Xm.m.m.n.b.n.n.n.m.m.m.b.b.7X7Xm.b.m.m.m.m.7X6Xm.b.b.7X7Xb.m.7Xm.m.m.7Xb.m.7X7Xm.m.7Xm.7X7Xn.7X7X7Xb.#Xb.7X",
"b.5X@Xb.6XoXb.5Xb.#XGX$X5X#X5Xb.b.HX#Xb.b.5Xb.5X@Xb.b.b.b.5X5Xb.b.b.b.b.b.b.n.n.M.m.M.b.7X5XKXGXUXeXDXVX2XUX-X=X7XM.7XM.8XM.m.7XM.M.M.m.7XM.M.M.m.m.m.m.m.m.m.m.m.m.b.b.#Xm.#X#Xb.5X#X#Xb.b.m.5Xb.b.b.b.b.b.@Xb.5Xb.5Xb.b.b.b.b.b.b.b.b.b.5Xn.b.b.b.b.b.5X5Xb.b.b.b.b.b.b.b.b.b.b.b.b.b.5Xb.#Xb.b.#X#Xb.5Xb.b.b.n.b.b.b.b.b.#Xn.n.n.@X@Xb.b.b.b.b.b.b.b.#XOXFXIXqXVXVX3XAXp.g.> ` E R W = ; wX>XN.N.v.>X,Xc.,Xx.x.>X>Xx.v.4X>Xx.x.x.v.N.9X4XN.v.4XN.v.4X8X6X4Xn.M.6X8X4X4XM.8XM.M.8X8Xm.7X6XM.8XM.M.M.b.M.b.7X7Xm.5Xm.m.m.m.7X7Xm.m.7X7XHX@XJXHXb.#X6XIX=XM.m.m.5X$Xm.m.IXoXb.7Xm.m.m.+X=Xm.b.b.m.m.7XHX5XoX$Xb.#X#X#XHXKXGXeXUXAXVX2Xh f , q j.I.OXFXHXGXoX@X#XHX#XHX#X#X@X@X#X#X$X@XJX#X#Xb.b.5X#X#Xn.5Xb.#Xb.@XJX#X5XJX#Xb.HX5X5X5X5X5Xb.b.b.b.#X5X5XHX@X#X5X5X5Xb.b.HXb.b.5X5X5X5X5X5XJXn.b.m.7X5X5X#X7X5Xb.5X5Xb.5X5Xb.b.5X5Xb.b.b.b.n.GX6Xb.b.7X5X5Xb.b.5Xb.b.b.n.n.@X5Xb.m.5X5X5X#XIXqXxXnXAXAXnXAX:X; & m j I.OXoX$X$XHX@X$X$XJX$X@X@XoXKX@X@X#XGX+X#XHX#X#X@X#X#X#XHXb.#X@X#XHXJX@Xb.JXoX5Xn.b.b.HXHXHXb.b.5Xb.5XGXoXn.5XHXJXoXb.5X#X5X@X#X@Xb.5XHXHX#X",
"5X5Xb.n.b.7X5Xb.7Xm.m.b.b.5X5XoXb.b.b.b.b.b.b.b.m.m.b.b.b.b.m.5Xb.b.5X@Xn.b.n.%X$X$XOXOXKXIXIXSX%.VXVXNXZXwXD.I.=XOX+X#X#XHXJX$X$X$X$XJX$X@X$X@X#XJX$X@X#X#X#X#X#X#X#XHX#X#X@X#X#X#X#X@X#X@X@X#XHX#X#X#X#Xb.GXQ.U.@XoXb.b.b.5X#Xb.b.b.b.b.b.b.b.b.#Xb.5X@Xb.b.b.5Xb.b.7Xb.b.b.b.b.b.b.b.b.b.b.b.b.b.5XJXb.b.b.b.b.b.b.b.n.n.m.m.m.b.b.b.b.b.b.b.b.b.5X5XGXIXnXDXVXVXmXAXVX) ( h x.4Xn.m.M.M.M.M.8Xn.n.n.b.b.m.m.m.m.m.7Xm.m.m.m.m.b.b.m.b.b.5Xb.b.b.7Xb.#XHXJX#X5X@X+X%X#X#Xb.#X#Xb.5XHXb.5XGX+X@Xb.b.b.b.b.b.b.b.b.b.b.b.b.b.#Xb.HXHX6X6X7X7Xb.b.b.b.5Xn.b.n.oXb.b.b.b.7Xb.b.#XGX$Xb.@Xn.#X@Xb.5XeXU.b.n.b.n.5X#X#X#XHXIXeXeX3XAXAX3X#.@.f P * P d I.oXJX@X#X#X#X#X#X@Xb.b.b.b.b.#XHXJX#X#X$X$XJX$X$X$XJX$X$X$XJXJX%XGXwX+XGXoX%X#X@X#X#XHX#XJXKXoX$XHX#X#X#XJX$XJX#X$XJX#X@XHXJXJX$X#XHX#X#XHXwX=XJXKX@X@XHXHXJXJXHX#X#XHXHXHX#X#X@X$XHXoXLXKX#XGXwXoXHXJX$X$X$X$X$X$XFXOXOXOX+XGXKXFXGXeXAXjXjXZXAXIXZX;Xl.- T.I.I.=X5X5XHXn.#X#X#XHX#X@XJX#XJX#Xb.b.GX@XHXb.b.b.b.JXn.b.b.b.#XHXGX$X5Xn.b.5Xn.5Xb.b.5X5XJXb.b.5Xb.b.5X5Xm.5X#Xb.5X5Xb.5Xb.5X5X5Xb.b.b.5X7Xb.",
"#X#XoX#X#X@X#XJXwX+X$XJXHX$XJXFX$XJX$X$XoXFXFXFXoX$XOXOXOXOXOXOXOXOXFXOXOXOXOX&X&X&XbX*XvXwXUX3Xy.VXNXNXZX%.% J.K.+X+X|.*XLXoX#X#X@X#X#XHX$X%X#X#X#X#Xb.@X$X#X#X#Xb.b.b.b.b.b.b.b.5Xb.b.HX#Xn.b.b.b.b.b.b.b.7Xv.=Xn.b.b.HX#Xb.5X#X#X#X#Xb.b.5Xb.b.5Xb.b.b.b.b.5Xb.m.GX|.oXb.GX+Xm.b.b.b.b.b.b.b.b.n.6XJXn.#X#X#Xb.b.b.b.#X$XOXOXOXOXOXOXOXOX*X*X&X&X&X&XFXeXqX%.p.p.BXVX^ #.:Xk.=X%XoX#X@X$X@X$X#X#X@X%X#X@X$X$X@X#X$X#X#X$X@X@X@X#X$X$X#X#X#X#X#XJXHXJX$X$X#X#XHX#X5XGXoX#XJX$X$X$XJX#Xn.IXwX=XU.+X#Xn.HXb.b.b.5Xb.#X#Xb.HX#Xb.5X5XHX5X6X5X5Xb.b.b.b.b.b.b.5Xn.n.b.b.b.#Xb.m.6XoXn.m.b.7X7Xb.b.6XKX=Xn.b.b.n.6Xb.b.HXIXMXeXAXZXAXAX2Xg.d z d * P F.K.I.GXOXOXOXFXOXFXGX=XFXOXFXFXOXFXFXOXOXFXFXFXOXOXOXOXOXFX&XFXOXFXFXFXOXOXOXOXOX&XLX&XLXLXLXFXFX&X*X&X&XLXPX|.&XLXLX&XLX&X&XLXLX&XvX|.&X&XvXwX*XLX&XLXLX&XLXLX&XLX&XLX&X&XLX&XLX&X&XvXLX&X&X&XwXU.*XLX&X&XLXLX&X.X.XvX|..X.XvXXXvXPXIXIXIXIXSXqXAXDX1Xc.;X: H.K.-Xn.5XHX@XHX#X#X#X#XHX@X#X#X#XoXoXJX%X#X@X#X#X@XJXJX@XJX@X@X#XKXGX$X#X#X5X#XHX5XHXJX$X#XHX#X#X#XHXHX#X#XJXJX@XHXGX$X#X#XHXJXHXJXJX#X#X#XJXJX",
"bXtXU.*XLXLXyX%.0X}.|.vX|.&X&X&XLX&X|.LX|.|.LX&X&XvX|..XvX.X.X.X.XvX|..X.X.X.XvX.X.X.XcXbXjXAXAXPXZXBXNXCXVX% e w K.&XU.+XoX=Xb.HX@X#X#XHXb.#X#X#X#X#X#XHXoX#X#X#X@X$X$X$X$X$XKXOXOX$X#X#X#X#X#X#XJX$X%X%X$X$X@X@X$X$XJXKX$XJXJX$XKX$X%X$XOXFXOX$XOX$XOXFXOXOXOXOXOXGXU.+XOXOXOXOXOXOXOXOXOXFX+XOX&XOXOXLX|.&X&X&X&X&X&X&XLX|.&XvX X X|..X.X.X.X.X.X.X.XvXxXVXy.i.VXVXmX^ r.: % u +XKXOX$X%X#X%X@X#X#X@X%XGX+X%X#X#X@X#X#X#X#X#X#X#Xb.b.b.b.n.b.HXb.5X5X5X#X#X#X@Xb.HX5Xb.7X6XHX#X%X#X#X@X6XJXoXn.n.JXoX#X#X#Xb.#XHX5X#Xb.b.b.HX@Xb.6XIXGX#X#XJXoXb.HX@X#Xb.b.5X@X#X#X#XGXU.+X$X@XwXU.oX$X$X$X$X$X%X$XoXOXOXOXOXFXOXFXGXqXxXZXAXAXSX3XW f f f * e * & T.cXbX XXXLXvXXXvX{.[.{.hX XhXiX{.cX XcXcXcX{. X X{.hX{.{.[.[.[.[.hX X[.{.hX[.hX[.{.hXhXhX{.hX{.hXhXhX{.jX].{.cXcXhX{.cX{.cXcX XcXQ. XcX X XcX XcXcX XcX XcX/. XcX X XcX XcX X XcXcX XhX{. X X.XcXhXcX{.cX XyXE. X XcX X XhX{.[. XcXeXeXAXAXqXNXVXZXz.wXc.y j.u }.OXGX$X$X$X$X#X@X$X#X#X#X#XJX$X@X$X$X$X$X$X$X$XJXFXKX$XOXFXOXOXOXOX&X&XPXLX&XLXFXOXFXOXOXOXOXPX&X&XPXLXOXFXFXLX*X&X&XLXLXLXwXU.&X&XLXLX&X",
"cXbX.XcXcXcX%.yX*XXX XcXcXcX{.{. X{.hX{.cX X{.{.{.cX X XcXyX{.{.hX{.[.{.{.[.hX[.sXsX[.dXhXjXxX^ @.t.BXBXZXi.u w w e I.*XI.+X=XOX$X%X$X#X%XJXHX#X%X@XHXJX%X%X$X$XOXKXOXOXOXOXFXOXOXOXOXOXOXOX*X&X&XPXOX&X&X&X&X&X|.|.|.|.vX&XLX&X&XLX&X.X.X.X.X.XvXvX.X.X.X.XvX.X.X.X.XvX.X.X.X.X.X.X.X X.X.X.X.X.X.X.X.X.X.X.X X X X X XcX X X[. XxXg ]. X{.{.{. X{. X{.dXxXAXDXNXlXqXZX<X#.: h.i s I.$X@X#X#X#X#X#X#XHX@X#X#X@Xb.#X$X@X@X#X@X#X$X$X$X$X$X$XoXFXKXOX$XJX$X@X$X$XHXJX@X%X$XJX6XHX%XJX@X$X$X$X$XJX$X$XeX+X$XOXOXOXwXU.OXOXOXOXFXFXOXOXFXeX+X$XFXGX+XOXwX*X&X&X|.&X&X&XLX&XPXGXU.LX&XwXU.U.&X&X&X.X|.vX.XvX.X.X.X.XvX.XcXvXAXVXBXVXVXqX3X= q z f k.e e * d L sX{.].).pX_.8.E._.pXpX`.pXq.B ).).pX).pX`.).).J ).).).pX).).).pXpXpX).pX).pX).).pXpXpXpX).).).pXpX).dX'.).).aXsX`.).sX).5.6.pX`._.sXpX).pX`.pXsX`.hX`.dX0XW.sXsX`.sXsXsX`.).`.sXpXuXhX`.sX`.aX).4.'.`.`.dXQ._.sX`.[.sX{.[.iX`.sXxXVXZX<XVXVXVXZXz.h Q % e s d Q.XX&X&X*XLX*X&XLX|.LX|.|.|.bX&X&X.XcXcXcX.X XcX XcX.X XcX XcX X X XcXcXcX X XcX X XcX X XcX XcX X XcX X X XvXQ. XcXhX XcXcX XcX X XcX X",
").H 6.pXsXpXbXXXsXiX(.pX`.).`.sX).).).).6.5.J D ^.sX`.pXpXpXsXJ 5.).J J J 5.6.pX).pX(.{.yXjXlX( y.BXZXNXCXMXe w C.w t I.I.I.XX}.+XFX&X*XvX|.|.|.|.|.vXLX|.|..X|.bXQ.vX.X.X X X X X{.[.{.[.[.[.[.{.{.{.[.[.[.[.[.[.[.[.hX{.hX[.[.[.[.[.[.[.[.sX`.[.sXsX[.hX>.B hX[.`.`.`.`.`.`.`.`.sX`.`.`.`.`.`.`.`.`.`.`.).).).).).).pXuXJ J iX(.jX|.Y.).).).).J ).).aX/.xXVX<XZXtX0XAX1XqXc.% T.i y J.+X$XoX$X@X@X@X$X#X#X#X$X@XJXJXFXOX%X%X%XFXOXOXOXOXFXOXFXFXOXOXFXOXFXGX+XFXFX+X&X&X&X&XwXP.|.&XLX*X&XLX&X&XvXLX&XvX.X.XvXvX|..X.XvX.X X XcXhX[.nXI. XbXvXvXvXbXbXvXnX<.XXvX XvX XcX.X X X.X XvXcX X X X X XcX X X XhX X XcXhXhX{.eXBXBXBXNXVXZX~ P _ P k.e w e * s !.`.(.6.<.H dX'.6.J J 6.D iX^.6.J 6.6.J ).6.6.).).6.J J J ).6.6.6.pX6.J J pXpXJ J 6.J pXpXJ ).pX6.J ).6.J ,.N `.8.G J aX$.n sX).J 6.6.J J ).6.J J 6.).).hX`.6.6.6.J ).pXsX).).pXtXN H pX).pX`.gXV (.pX).6.pX6.6.J 6.).).6.pXpX_.gXNXa.1XVXVXVXZX:XQ l.y w w * a ]._.[.{.dXZ 2.K _.).`.).).dX>.K sX`.sXsX_.pX`.`.`.).`.`.sXsXsX`.).).pX).pXC ).sXD ).pX).pXpX).`.).).).pX).pXiXJ 6.`.`.sXpXpX).).).).pX",
"pXJ J J 5.6.J 5.5.pX_.pX).1.l K 6.J J 5.5.).J `.(.J 6.6.6.J pXsX).J J 6.J 6.).pX).pX(.Z dXxXSX1XmXBXZXNXCX<X% e w w w e K.XX].}.{.hX[.`.pX).).).).).).6.).).pXJ gX'.(.pX).).).).).pX).).).).).J ).).J pXJ J J J J 6.J pX3.G J J 6.J J J J J 6.).J J ).J (.1.d L J 6.J 5.G J J J G J J J J J J J J J J J J G G J J J J J pXpX_.J ).J sX(.J J J J J J J 6.(.gXZXy.eX%.>.mX( v.x.% a G.i y u  XU.OX*X+X&X&X&X|.|.|..XvX|.vX|..X.XvXvX.X.X X X XhXhX{.{.hX[.{.{.cXcX[.{.[.hXhXhX[.jXQ.'.`.[.[.[.hX[.sXsX[.[.[.[.sX[.[.[.sX`.`.sXsX`.dXdX0.R.{.sXsXsXsXsXhXsXsXjXXX`.sXpXpX).sXuX(.).J 6.J 6.J ).J ).J ).pX`.).pX(.6.7.^.pX).kXmXMXBXZXVX2X:XN d W k.Z.w w e % B J ).).sX).5.G J J J 6.6.6.J 5.J J 6.J J 6.J J J J J 6.J J 6.7.>.H 6.J J 5.5.).6.J 6.J 6.).J 5.6.).J 5.J #.d *.z S J 6.cX'.5.).pX6.J ).J J 6.).J 5.J 5.5.G 5.5.).J G 5.).).6.7.pXyX~.).pXJ J pX{.).).6.6.6.pXpXpX).6.J J pXJ J 9.BX1Xt.VXBXVXZXmX; - e w w V.u d L H J dX/.jXW.H <.N G J 6.qXY.J 6.J J 5.J J 5.C J 6.J J 5.5.J J 6.6.>.*.<.B 6.rXJ 5.J J 6.J 5.J J 6.J 7.V J 7.).J 5.5.5.6.J J ).6.J ",
"6.).pX5.G J 6.6.pX).J 5.J zXU.!.pXJ ).9.S ).).H 6.J 5.6.6.J 6.J pXpXJ J 6.J J J J 6.J !.!.zXlX1XVXVXCXNXa.mXF.e r u w w w XX}.!.5.G 5.5.J 5.J J 6.J 7.D J G J J pX).J J J 5.3.J J 6.6.J J J J J 6.J J 6.6.J J J J J J 6.iX(.J 6.J ).).).).4.J J J ).J 5.Z gXkX>.V 6.J pX^.J J J 6.J J 6.5.J ).).J J J J ).6.J J J J ).J 6.).).).D D J J H J 5.J J J J 6.J 7.MXMX#.MX#.g.2X<XQ h.r i i i t L.}.{.{.[.sX`.`.sXsXsXsX`.pXpX).pX6.).).pX).).).6.6.sX6.F sX`.).).6.5.J J 6.J 6.J 6.).sX,.B pXJ J J 5.5.6.5.J G 2.G J J J 5.5.5.J ).`.7.dXbX].5.5.5.6.8.6.7.7.6.J J 6.6.6.).6.6.`.).6.6.).J J ).J ).J 5.G J J J 5.6.).aX8.).pXq.CXMXNXNXMX2X3XnX].%.k.e e e w e '.`.).6.6.5.6.H J J J 6.J pX6.5.J J J J J J 6.).J J 7.J J 6.J 7.Q.(.6.).J 7.J J pX6.J 6.J 5.G 6.6.J 5.(.%.:.m z Y.`.).J J 6.).J J 6.J 6.6.7.D 5.5.6.).pXpX).J ).).6.<.Z 5.J 5.pX6.J 6.J 5.J 6.D J G J pXpX).).sX).pXsXsXJ pX).6.aXMXCXVXVXBXMXCXa.$.- e w w w w y W.J H _.`.sXsXJ fXyX~.).6.`.`.5.J pXJ J 6.).uXE.J 6.J ).6.J ).6.J pXjXQ.W.uX6.).pX).pX).J 6.).J J 6.J pX`.6.pX).6.).6.J J pX).J 5.6.",
"J J pXuX).6.D pX).J ).6.6.J `.6.6.6.J dXD ).pX3.F 6.6.5.5.G J 6.J pXpX).6.).).6.J )._.!.S w.d.VXqXmXNXCXCX%.e C.i J.w r F.T._.J 5.G 5.J J J (.J J J ).).).).J ).pX).J J J 7.E.H 5.J J J J ).).6.J 6.J J pXJ J J J J J J J J J ).J J J J J pXJ 6.J J J 6.J G fXbX].J 9.N J J ).).6.J J 6.pX(.5.2.K ).J J J ).6.J J J J 5.5.J H J 5.).).).).J (.).J J J 6.pX5.%.t.MXqXCXVX2Xs.Q % i r r G.r F.{.F J G J 6.6.J 5.J 5.5.5.6.J 5.pXJ J 5.J J 5.6.pX).aX(.3.&.[ 0 G 5.G G J J J J 5.J 5.pX).6.5.D J 6.J J 6.J 9.E.H 5.J 6.J J 6.J G 5.5.G 6.J 6.7.5.5.6.6.6.6.6.).pXD 6.6.pX6.pXJ 6.6.pXC G pXJ J C 5.pX).J 5.5.5.J J 7.fX!.sXkX1XSXmXBXNXCX^ yXjX! % e w e e e Z J 6.pXsX4.J ).J ).J J J 5.6.pXJ 6.J J J J J J ).6.pX).J 6.6.).).6.J J 5.6.).6.5.5.).pX).sX(.5.J 5.H (.MXtXB W.R.6.J pX).J J J 6.6.J 5.5.J ).6.).).J 6.J pXpXJ J pX`.).6.J 6.).pXJ J 6.J ).pX`.pX<.Z pXpX).3.A ).J ).pX`.pXpXpXpXSX1XMXCXBXi.NX( 0Xl.y w w w w w ].hX_.J J J J J J ).6.J J 6.5.).).6.J J 5.J J 6.6.6.J G 6.6.6.pX(.J ).pX~.J 6.).).6.J J 6.6.J 7.D J J 5.3.G J 6.6.5.J pX<.S 7.;.M (.",
"6.3.H 8.>._.pX3.D pXJ 6.J pXJ J 6.6.J 9.V !.7.rX(.J J 6.pX4.J pX).J ).6.J ).6.6.H H J H (.gXlXmXp.BXu.NXZXmXj.C.G.C.u e K.[.J pX6.pXJ J ).).J J J ).J J 6.J J J J J J J J ).).6.6.J J 6.).J 5.6.J J J J 6.J J J J J J J J 6.J 5.6.H 6.J J J J J J 6.3.S pX6.J J J J dX/.J J 5.F J J ).J ).J 7.rX!.J J J ).J J J J J J 6.J ).8.N (.J ).J J ).).).).).J 6.J w.y.1XMX%.ZX%.<X! W % r i i i G.s L 5.C J G G 5.J 6.J J J pXJ 5.J 5.J J 5.J 6.J J J 5.6.).tXp.} = j G 6.).J 5.5.J 6.G 5.5.G J 5.J J 6.6.J 5.5.uX`.5.J G 5.G J 6.5.5.5.5.J J 6.5.7.6.6.7.6.pX6.6.J 6.5.5.5.J 6.J J 6.).sX%.g H ).7.:.j G J J J J 6.).pX).sX(.).kX1XSXNXmXBXZX<Xa xX^ % w V.w e p J J J 5.5.fX(.6.J 6.J J G D J 6.J J pXJ J J ).).5.5.5.J 6.J J J J 6.J ).pXpX<.*.h B J 6.J ).6.6.6.pXJ G ).`.yXQ.).).pXJ pX6.5.G J J 6.6.pXD D J J 5.5.J `.6.).pXJ J 5.J J 6.6.J pXpX6.J ).J J J 5.sX).5.J J fX'.5.D J 5.J 6.pXpXpXe.CXi.t.NXNXu.<X=XU.y w w w w C.K ;.z K J 6.).pX6.J J 6.5.J J J 6.J pXJ pX7.C J 5.J pX<.Z pXpXpXJ ).pXpX).pXpXJ 5.5.J J J 6.6.).).6.6.).iX^.H 6.6.6.).7.iX).9.0XW.pX",
"6.uX).uXiXJ 7.rX~.J 6.6.pXJ ).pXJ J J sX{.J 6.`.).pXJ J ).pX(.).).pX6.6.J ).6.).7.>.Z /.K gXd.^ BXt.NXmXZXVXj.e i r J.w a ).).6.pX).pX).).J J J J J J J pX).J ).J 6.J ).pXJ 6.J 6.J J J J J J J 6.J 6.6.J 5.G J J 6.).J J pXJ J ).J J 6.J J J 6.).8.A ^.5.J ).).).J 7.>.K ).9.E.).J J J 5.D ).`.pXJ 8.z K ).).).J J ).).pXJ pX'.H ).).).).(.J J ).).).pXpXgXmX/ MXmXi.y.^ ! P.% r i i i r K.R.2.B J 6.J J J pX6.J D 5.5.J 7.D 5.J 5.J J 6.6.3.A J J ).nXnX=XP.b M pX6.6.J 5.5.6.5.J J 5.3.J pX5.5.5.5.6.C 5.6.5.D J D H 5.5.6.5.5.J G 5.5.5.5.5.6.6.5.5.5.J 5.5.6.pX6.6.6.J 6.3.C nXXXZ 6.5.nX}.S J G 6.J J J J ).6.H J e./ BXNXNXBXZX<Xu uX3X* e w w e u D G G 5.5.).J J ).6.6.).).J 6.6.J J J J ).J 2.-.-.;.h !.pX).).).).6.).6.G J MX$.L.[.J 6.J J 6.J ).).pXpXJ 5.G J 6.G 6.J J 6.6.).J J ).).).pX`.).pX4.(.).6.).).pXpXJ ).pXJ ).6.J 5.5.pX).).).J ).J J 6.).pX).).pXpXuX).6.).J 6.6.J lX2X2XBXi.i.ZXqX$.Q B.w w w w e <.tXXX!.).J J 6.J J 6.6.6.).).3.D ).J 6.).#.@.(.6.(.6.hX~.5.J pX0.b J 6.J 5.6.6.6.6.J ).).).pX).6.6.).J J 6.4.F pXJ 6.6.S 6.J ).6.6.",
"J ).pX7.C D pX~.pX).pX).pX).J pXpXJ J J 5.).).6.J 6.pX).J 6.6.5.G 6.).pX).J J J aXQ.Z >.S 0.f.s.i.y.BXNXCXCXa e i w w r e L 5.J 6.J J ).pXJ J J 6.6.H J J J J J J ).).).pX6.6.J ).6.J J J J J J ).).6.pXJ pXE.).pXJ C J J 6.6.J J 5.G J J J G J J zXB (.uX).J ).pX).sXyX~.J ).`.J pX6.J 6._.).2.z Z zXrXR.J J G J J J 5.G J J 6.S J J J ).).).).).6.J 6.sX9.a.mXSXZXVXSX<X! h % w i i r i J.hX{._.J 6.5.J J 5.6.J J 5.6.J 6.pX6.).6.J G J 6.iX^.9.S J C yXPXjX}.L.K 5.J 5.6.6.5.6.J J 6.^.G 2.G 5.J J 7.<.Z 7.5.6.J J G 5.5.5.5.6.6.5.5.6.5.G 5.5.5.5.6.).pX6.5.G J pX).).7.*.D `.J J J 6.J ).`.).pX4.F 5.G J J J 6.H J d.mXMXNXNXBXZX<XK.].<X* e w w w e B aXG J ).J J 5.J 5.J J 6.5.J 6.J ).).6.J 7.9.0.5.{.T.F J ).J J ).pXJ <.~.J gXU.!.7.6.J G J 6.).J J 6.6.6.6.pX4.J <.S pX5.5.5.J J J J ).6.J J 5.5.).).6.J 6.J ).pX).6.).).5.J pX6.J 6.J ).).8.C J J 6.J J 6.6.).).pXpXpXJ 5.J pX).jX1X/ mXmXMXNXmX$.Q % w w w w K.W.[._.J 6.J 6.pX6.J 5.5.J 6.J 1.B 6.J J 7.tX'.6.pXD J J 5.J ).pX#.> d J pXpXJ 6.J pX).).6.J 5.5.5.J ).pXuX).pX).J pXpXpX).J pXJ J 6.",
",.l L dX/.^.6.J G J pX5.6.J 6.J J pX6.7.V ).6.6.J 5.J J 2.K pXfX~.J H pXpXJ J J J J 6.H D #.%.BXmXBXBXNXa.CXj.y w r r r e R.6.).6.).).pX5.).).).).`.).J J J ).).).D J J 6.J ).6.J ).).).).).).).).;.z H pX).pX).).gX$.!.pX).).).pXrX~.pX).).).J J uX'.J J 6.J 5.D ).J J 6.).J J J J pX).).).,.%.I.Y.gXXX).J 9.>.(.6.).pXJ H J ).6.H ).).J J ).).6.6.J ).aXsXVXBXy.y.VXNX<X! = k.w i i i C.T.J J 5.5.5.).J 5.J J 6.6.6.6.5.5.6.).6.J J 6.D J J 5.sX`.5.6.G fXbXQ.`.J J 5.J J 5.5.J 5.J J J gX,.m 6.J 6.5.`.J 6.6.6.D 5.5.G 5.5.5.G 5.6.5.5.pX(.7.6.pX).6.J 6.7.8.@.3 K 6.H 9.<.!.7.6.J J 6.pXJ 5.J J gXV J E.).J 5.J (.(.lXCXMXBXZXNXZX2X0Xv :X* e w w w y g 7.^.).6.pX).6.G J ).J 6.J J ).).J J 6.6.).jXzXT.cX/.Z J J 6.J 5.3.G J ).6.J pX6.5.J 7.D F J pXJ J 6.6.J J 6.uX).).).6.pXJ pXJ J 7.J J 5.J ).pXpX).G 6.J 6.J J 6.J pX6.J sX).6.pXJ 6.5.G G 7.E.(.pX).pX6.D J J 5.J pX6.<.V ).6.(.1./ 1Xi.ZXy.i.t.$.Q % w w w y Y.sXJ ).6.J 6.J 6.6.6.6.J J J J iX`.6.pX).pX_.J 6.pXuX).).pX).J aX%.$.P.(.6.J ).pXJ J J 6.J ).pX6.J J J J J 6.6.J 0.-.K 5.D ).6.J J pX",
"xX0XZ 6.pX6.J 6.J H J pXpXpX).).6.-.H uX`.6.6.6.J ).).5.tXR.J ).pX9.M J pX6.5.J J ).J J 0.qXbXmXt.BXu.i.CXVXF.e r w r w F.sX5.C J J J 6.`.).).6.(.).).).).).J J 6.pX).J 6.J J 6.).).).).J J J J 7.d.R.~.J J 6.6.F 9.Q.Z 7.J 6.J J ).).J ).).6.J ).).6.J J J J 6.J J J J 6.J J J J J J J G 2.wXPXT.Z ).J G H gXE.H 5.G J pX(.).).uX_.J J ).).J J 6.pXJ J 7.,.%.i.BXi.y.ZX<X:Xl.% Z.G.A.A.i S 6.5.5.7.D H 5.J J J J 5.J 6.J 5.J J 6.J J pXpXJ 6.6.G 5.J 5.6.J 5.5.J 5.5.5.6.,.K pXJ 6.5.4.J J jXR.6.J 6.5.G J 6.J 6.J 6.6.J 6.5.8.^.5.5.J 6.6.7.6.pX6.6.6.J 5.J qXDXyXR.7.J 1.Q.J J 6.2.L J J 6.6.J J pX/.6.).).).iXJ H ).kXCXMXBXNXBXZX2XW m :Xk.y w e w y Y.pX).6.6.J 6.6.^.).6.J J J J ).).6.J J pXJ 7.yX].J `.`.pXJ J 6.<.^.uXJ J 6.J 6.6.).).).sX6.C J J 6.pX6.6.6.J 5.6.(.7.A 5.J J ).pX).).J 7.D J J 8.>.~.J ).pX).).pXJ 6.pX).J 6.pXpXJ 5.6.J J J ).6.J J J sX).).6.6.J J pX).^.6.).J e.s.1XSXCXNXBX1X; z.e w w w e m J J J 6.).).6.6.).pXpX).J 6.J G G J ).).).pX).J J J pXJ J pX6.5.bX].6.J J pX6.6.6.6.J pX).J 5.pX).pX^.).pX6.pX).gXjXR.pX_.7.<.H 6.6.",
").`.6.J 6.pXpX).pXJ J J 5.).pX).aXrX!.6.J pXpX`.`.6.6.pX).6.J J J dXiXJ 6.pX).).J G 5.5.5.xXSXmXCXBXmXBXCXMXp e r r r e L.aXgXrX!.).).).).).).`.).).).6.3.J <.S 4.H 6.J J 6.J ).).).J J J J 6.J 6.jX~.7.J J J 6.J 6.hXJ J J J J J J J J J J J J J D D ).J pX).).J J J J J ).J J J J J J fX^.{.nXM m A 7.>.H pX'.J 6.^.J J (.).).).).).).).).J J pXpX).6.5.SXt.BXy.ZXy.i.1X:XwXk.e i w i w B 5.5.5.6.6.G J 6.J 5.J 5.J 5.5.D J J J J J 5.G 5.G 6.6.J 5.J J 6.6.6.J 5.6.5.7.jX'.5.J J pX6.J J 5.J J 5.J 6.J J 6.6.6.J 5.5.5.6.:.M J 5.6.2.D 5.J 5.6.6.6.6.6.6.J fXeXU.H 6.6.sX`.6.6.5.gXR.5.G D J 6.J J J pXJ J 0.>.6.Z _.kXmXSXNXNXNXNX2X- K.:X* e w e w e n 6.J 6.J 6.6.).).6.J J J J J F 6.6.).J J pXJ ).6.J J G 6.pX).pXE.).).pXpXpX).pX).).6.pXJ dXP.H 6.6.5.6.).).pX).`.).aX/.pX`.J ).J 6.7.G J J 6.(.gXyX(.6.J 6.J J pXpX6.J pX6.J 6.sXpX).pX).`.gXN (.pX).6.J ).pXpXpXpX).).).).).).aXd.t.1XMXBXVXVX2X;X; h.w w w F.W.(.J ).pXJ J ).).pX).pXpXJ J ).pX).6.A J J J 6.6.).J 5.J 5.G pXpXJ 5.J ).6.G 5.).pX8.K 6.6.6.).6.J J ).J 6.pX).pX).sX`.).6.pX`.).pXpX",
"J J `.pX6.J J ).pX/.pXJ J H pXpX).`.6.(.).J 6.J 7.6.J 5.pX).).6.*.z C pXpX).pX).6.J J 6.pXtXDXCXmXBXNXBXZXNXg B.A.A.r Z.n 6.6.iX(.).6.5.J J J J J J J 7.E.(.sX).`.pX5.J J 6.J ;.N J 6.J ).).).).J J 6.).J J J J J J J 6.D ).pXJ J ).).J 6.J J 6.J pX(.J J J ).J J J J ).).J ).).).).).).).pXJ 7.0Xg `.7.0XB sX).J 5.J J J F (.J J ).).J J ).).).).pX).pX).%.t.VXMXBXNXMX1XqXQ.* e G.G.i w g 5.6.5.5.6.(.6.J J 6.5.J 7.3.J ).J J J J 5.6.J 5.J J 7.J 5.J J 7.J J 8.V J 6.6.J J 5.J 6.5.5.6.J 6.J 5.6.J J 7.C J 5.J 5.5.5.J 7.xXW.5.).9.V !.7.5.5.5.6.6.6.6.6.6.5.D '.5.J J J 6.5.J ).pXuXG ).).J J J ).6.).pXz ;.@.n ).Z kXmXMXNXBXNXNX2X: p :Xk.e e w w e g 6.J 6.J 6.).J 6.J J J ).).9.V F J J 6.3.J 6.D J pX).).J ).).).).).pXJ 6.J 3.J ).J 6.).J ).`.pXpXJ pX).pXJ ).J ).6.J 6.pX6.pX).pX6.pX`.).).).pX6.).pXpX6.).).pX6.J 4.H 7.H pXpX6.pX6.6.).).dXQ.J ;.L sX).6.J ).pXpXpXJ J J 6.6.6.SXt./ y.BXVXBXCX:Xz.% w w e u S sX).J pX6.J J J 6.6.5.pXpX4.(.`.pXdX/.).pX).pX).pXaX^.(.pXpXJ pXpX).uXJ pX`.(.).).tXR.J ).6.J ).7.C ).pXJ J 6.6.J J ).7.D J J 6.6.6.",
").).J 6.pXpX).).).).pX4.J J J 5.5.5.D (.7.5.D J 5.pXsX^.).6.).,.x C &.n pXJ 6.5.).`.J ).pXaXBXCXNXmXNXBXCXa.a y i w r u m 6.7.(.).J 6.pX).).J ).J J J J ).6.J ).J 6.pX).pX).q.e.T.m pXJ ).5.J 6.pX).).J J J 6.).).pXJ 6.J J pX).J ).).6.6.J J ).).).J J J J J 6.J J ).J ).).).J J 5.C J J J ).).yX/.5.J dX~.5.C J ).).5.7.Z (.3.H H J 6.(.J J J J J J 6.6.jXAXVXeXmXBXBX/ 0X$.* V.i A.G.A.L.F 6.pXpXJ J 5.5.G J pX).pXiX).J pX6.6.6.J ).J J 6.J 6.5.J J J ).).5.pX/.J ).5.J J J J J pX6.J 6.J 2.2.J pX).7.rXH pX7.<.H 6.J J iX`.5.J fXQ.J 8.D 6.D J 6.6.pX6.J aXuXG 5.J J 6.6.7.J J 5.pX^.).6.).).5.G J (.1.<.,.$.n J Z w.a.MXVXZXBXBX2Xc.H.! * e e e w e J.5.J J pX).J J ).pX).J J 6.^.sXJ pX3.).iX).pXpX).).pX5.J J J J 6.J J 6.J 7.rX!.6.6.J J J J J J pXpX6.D 6.6.J J J pX6.6.6.pX).pX6.6.).7.H ).6.J ).6.J J 6.J J ).pXpXpX).iX^.5.6.6.J pX).J 5.5.F e.#.a ).6.6.).6.6.pX).pX6.J A J 7.y.t.1XMXBXNXNXCX%.; % w w w e s ).pXJ J pXpX6.J J pX`.).pX`.).G 5.J 6.5.).J 6.pX).pX^.J 5.J pX).pX).6.,.L ).6.J pXpXpXJ 5.6.).).gXE.H pX6.6.J pX).J ).pXsX).).6.6.pX",
"J J ).).pX).).).pXpX0.;.N ).pX6.).pXuXJ pX`._.pXpXJ J 7.A ).).MX$.z P.}.5.6.6.pXJ J 6.J pXuXDX1XNXCXBXBXCXBXH.e r w r w W.6.uX(.6.).).pXJ ).).pXJ ).6.J J J J 6.J J 6.J ).).jXbXXXT.6.^.5.J ).).pX6.6.5.4.D J J J 5.6.J 6.D J J J ).7.G ).).J J J 5.).J J J J 5.J J 0.b ).J 6.).J 9.%.B J ).J J J 5.6.J J ).7.E.).).pX6.aXF L iXS ).J ).).3.Z pXA ).pXpX6.7.mX%.%.mXBXNX/ %.#.% e i r i w Y.).J ).pX).).pXpXpX^.6.3.J J 5.J J 6.6.6.J 5.J J 5.J 6.6.J J J 5.A ).).6.6.5.9.K ).J J J 6.6.5.J 9.N '.H 5.6.6.pXD J 6.sX(.6.J J 5.G pXJ J 6.6.pXpX3.J J 5.5.J 6.6.5.6.6.J J J 5.5.6.).).pX).J G pXJ G aX~.6.*.3.bXnXwX!.).Z w.1XVXMXZXi.NXCXc.m ! k.e w e w Z.Y.aXJ J J 6.J J ).pX).pXF G G J pX6.uXH 5.5.J 6.D G 7.J ).).J ).).pX6.5.6.).[.pX6.pX).J ).J G 6.5.J pX).6.pX).J ).J 6.6.).).5.J pX).pXJ G G J ).J 6.6.J J J J J 6.).pXJ J 7.J 6.pX`.pXpX6.J pXJ e.nXL.G ).sX).pXpXpXpXpXpX6.iX(.fXy.y.p.VXBXBXVXCX;Xz.% w w w w J.).6.J 6.J ).).).pXJ ).6.pX2.K sX6.J pX^.).pXJ J 6.pX`.).sX(.6.J J J aXjXW.C A J 5.5.).pXJ (.).6.).hXA F pX).).pX).).).6.J pX6.).pX5.",
"~.pX).pX).).pX).pXD lXnXI.S pX).pX7.5.J J ).J 5.7.5.C ^.Q.).6.gXIXU.W.).5.6.J ).`.1.N (.pX_.qX1XBXCXBXNXCXMXH.e i r A.e m sXuXJ J ).pX).).J ).pX).).pXpX).).).pX).pX6.).J J ).hXQ.).).6.pX).J J J 6.4.(.).).).).).).).4.V (.).J ).J aX^.J J 6.J pX^.).pXJ J 6.).pXG jXW.F 6.).6.).q.nX}.S 7.A D J J J ).).J J ).).).pXpXsXdXT.6.D H J J 5./.(.).`.).).7.pX9.t.VXqXCXi.u./ ! %.% e G.r i r p ).J J J 5.J 5.6.pX).6.uX).J 6.J J J 5.5.J J 6.J ).J 6.6.J J J aX^.J 6.6.5.J dX^.J J J J J 6.6.J gXQ.D S pX6.J 6.pXJ 6.5.J 5.5.J pX8.c :.*.J 6.).9.>.Z 6.6.pXpXJ pXfXH ).pX7.>.L J pXJ J pXJ 9.N Z 5.6.H 6.:.h !.7.jX|.!.pX!.tXmXt.MXCXNXBXCX;Xm ! k.w V.w w e g 7.J pXJ J 5.J J 6.J 7.1.$.B J 6.).pX).pX).).pXpX).6.).).6.).J 6.6.7.J ).J 5.J pX).).).).9.V J pXJ 6.pXpX).pX4.S 6.6.pXJ pXpXJ 6.).pX9.$.'.G C ).J J J J J 6.J J J 6.pX).).pXJ ).5.6.pX).`.pX:.:.9.n &.0 L ).).6.).pX).pX<.(.sX9.SXVXa.d.NXMXu.CX;X; e w w w Z.L.5.J J pX).J 5.D pXuXJ ).sXyX'.5.pX).).).J pXpX).).pXJ J 6.pXpXpXJ J ).).aX%.j `.pX).).pX8.S pXpXJ 6.iX(.6.6.J pX).).pX6.J J pX).7.$.",
"J 6.J ).pXJ J 6.7.).hXbX].J 5.7.G 7.6.).J ).pXpX9.@.Y._.6.6.6.J /.{.6.J pX).pXJ J fXQ.).).J y.t.u.CXi.BXCXeXL.e A.w r C.a F sX).6.J ).).).).J J J pX).).).J J J pXJ 6.J ).).pXJ 5.pXJ ).pX).).J ).pXsX).6.J J J ).).).uX].).J ).J 4.(.pX).).J ).J ).).).).).).).9.D (.pXJ (.8.N (.gXXX].).pX^.).).pXJ G 2.C (.6.J J pXpXpX{.'.J `.S ).).pX(.).H ).pX6.6.).w.BXeXeXZXNXNX/ Q 0Xk.e G.G.i A.L.6.J J J pXpXJ J J 5.5.J J 6.J J J J 6.6.J J 6.J J 6.6.6.J J 2.N J 5.6.).pXD 5.J pXJ J 5.5.J 6.6.).sXuXF 5.6.).J ).pX6.pX6.pX).8.*.:.>.0XU.R.5.D zXQ.Z 6.6.2.C ).).7.5.G J 7.yX'.6.J 4.K 5.6.gXQ.N $.B pX1.yXW.7.0.B H G (.!.tXt.mXMXCXBXBXZX~ I.<X% C.w w w y L.aX).J ).).pXJ 5.D ).6.hXbX`.).pXD J 6.).).).6.pX6.).).8.D ).5.J 6.pXpX3.).,.K 6.J 5.6.J pX[.J J ).pX6.).).pXuX).5.J pXJ J pXpX).6.6.uX{.).e.j H pXpX).).).6.J 6.J J ).pXJ 6.).J pX6.^.).5.;.e.:.W.}.xX$.s Z sX).).pXpXpXsX(.7.uXlXCXZXMXNXi.BXZXqXP.e w w w F.~.pXpXJ 6.D 6.pXD G J ).).6.J 6.J J J 5.5.D 6.J 6.6.).pXJ J J 6.pXpX).J 5.6.yXQ.6.pX).6.6.iX~.5.5.).).).pXJ pX).6.J J J pX).6.J J pXcX",
"pX).).J J J ).pX).).J 5.7.6.J pXpXD ).2.F G G J gXP.T.6.pX).aXV _.J pXpX).<.N ).).).J 6.).`.MX1Xu.t.MXNXa.d.n y w r w r e j 6.J pX).J J ).).).7.>.F 6.J 6.J ).6.J ).pX(.).).6.pX).J J J J ).).pX).J 6.6.pX).J J J ).).).6.pX).).pX).J J J ).).J pXJ J J C G ).G pX`.J J J G fXQ.(.aX/.G G ).).J 5.).1.N $.n H pX^.).).).`.(.J ).4.<.S ).).).).).J ).pXpX6.w.d.eXVX1XNXu.( ;XyX% e G.G.i C.Y.6.J J 5.5.5.5.6.J 5.).pXJ J J 6.6.6.J 6.J 6.J 6.6.J 6.6.J 6.fX'.J 5.J 3.C J J 5.5.5.6.J 6.J 5.J J J q.B J J 5.5.G J 6.6.J 6.G 9.0XXX|. X X/.aXK 7.[.J J 7.$.B (.aX>.Z ).pX).J 6.J ).pXpXA D 7.P.Q.bXR.5.6.D J 8.<.n 6.~.(.Z q.1XVXVXZXBXBXCX:XR.^ % w w e w y Y.6.pX6.H pXpX).).).).sX).F 6.5.J uXJ 6.J J 6.).pXpX).pXiX/.6.pXpX6.3.8.E.J jXR.6.pX).pX).J 6.6.J G J ).).).pX).pXsX).5.C G J pXpX).0.O.b A yXQ.(.5.J pXJ J pX).pX).J J J ).`.pX5.6.`.).`.e.2.w.tXm v G q.p !.6.pXG G ).pX).).sXaXlXCXCXMXZXBXNXCX$.h e w w e u S 5.).).pX).).).fX~.J J 6.6.6.D ).pXpXsXiX^.pX).J ).).pX6.J 6.J J pXpXpX).).J 5.6.5.J ).pX).6.4.~.).).J pX6.J 6.6.J ).6.J J pXpXpXJ G ",
").).).pXpXJ J J J 6.6.6.).).).).sX`.gX1.m 6._.).6.Q.`.J 5.J sX/.H pX).pX6.tXP.!.).pX4.).).J y.mXZXBXi.i.a.y.T.e w r w r w a !.`.).sXsX).6.D ).pXyX~.).J pX).J ).).pX).).J J ).pXJ 6.J J J J J ).6.J pX).).).).).J ).).).pX).).5.C 5.).6.J J ).pX).pX3.;.&.n 6.0.Z ).).J J )._.).6.pX`.gXE.).J 6.J G dX{.{.[.).).pXH J J H (.).J pX^.H J G (.J J pXJ 6.pXaXw.%.%.p./ VXVX3X;XqX% B.i i r G.~.6.J 6.J ).pX).J 6.J J 6.).J 6.J pXpX).6.J 6.J ).6.).J J J ).).6.J 6.J q.B J 5.6.J 6.).6.6.5.J 5.G G iX[.).J 6.pXpXD 7.6.5.7.0.K hX`.5.6.5.J aXV F 7.8.A ).hX).J 5.fX_.J ).).6.J J J 6.5.sX).J ^.5.G 5.J 8.S J ).{.pX~.(.).!.gX1Xy.y.t.NXBXCX! M :X% w w V.w y M v F <.!.J pXsXJ ).).).sX).).).).).pXJ pX).).J J ).).pX).7.J 5.6.7.rX`.`.6.).).J J pX).).6.J pXpXpXJ J J 6.).).pXpXaX9.A B (.5.J J q.#.h h H J pXuX(.pX).).6.).).pXpX6.3.K J 7.pXJ J J J kX8./.LXbXK M wX}.4.V ).fXZ (.pXJ pXG gXzXZX1XNXBXBXNXZXqXh e w w i e n aX).pX(.pXpX6.pXpXJ J J 6.pXsXJ J ).J J J 6.6.pXJ J J pXpX).pX5.G 6.pXJ J 6.J ).9.K J ).pXpX`.).6.J ).pX`.sXpXpX^.).pXpX6.5.H pXaXE.",
"pX).6.J ).<.S pX3.D uX_.sX).pXJ J 6.8.yX].).(.pXsXJ pXpXpX`.pX5.D J J 7.pXsX{.pXD pX`.pX).7.SXt.y.VXmXNXCX%.g y C.r w r w H.(.5.J J 6.pXsX`.J ).).pXpXpXJ pX).J J ).J 5.pX).J J J J ).6.pX).).).pX).6.J ).pXpXJ J J J J 6.6.J w.<.m ).pX).).6.J ).).tXxXXX!.7.hX'.).).pX`.).J 5.).J J pX).5.J ).pX).).J J ).).J ).J J J J C F ).).).(.8.~.(.pXJ J pXpX).aXzXSXqXy.r.BXNX( :XqXk.e p i r u D 6.6.J J 6.J 6.6.6.6.).J 6.G 6.G J 5.5.J ).pXJ 6.6.).J ).6.5.5.6.J 5.5.sX`.J pX).6.J J 6.6.pXpX6.6.J 5.F 6.6.J 6.J 6.7.5.).7.hX_.5.7.J J (.6.8./.6.6.<.~.).6.6.6.5.7.6.5.G 5.5.J 6.5.G J J 6.J J ).pXpXJ ).`.6.J J ).H F J Z gX/ mXy.mXu.y.CX:Xg ! k.w w w V.e g {.S ^.).J J ).pXJ J J 6.).pXJ pX).pXpX(.pX).pX).6.5.6.5.(.pX).pXpX`.pX6.).pXJ ).6.J pX6.6.J J J 6.).).6.5.J J 6.pXpXhXjXh H pXpX5.uXyXQ.`.<.S ).).6.6.J ).6.J 6.6.).`.rXE.J 5.5.5.J J 5.fXbXXX{.bXwXW.`.).pX`.J sXsXF 6.).6.J 7.gXVX2XBXBXNXMXCXqXh e C.e p w Y.7.J J 6.J J ).pXpX).6.J J ).6.^.J J pX).6.J ).).).pX6.J 6.J 6.pXrX~.pX).).pXJ J sXsXJ A G 6.A G pX).6.J 6.5.J pXaX2.H ).sX).).pX).`.",
"6.).sX(.J uX~.6.iX^.).`.pXpX6.pX).pXpX4.A (.J ).>.J ).pX).).6.hX`.pX5.J ).pX5.).`.J J ).pX<.SXCXMXi.VXNXa.%.g B.i u w r C.J.6.J J ).6.).).).).).pX).).pX4.H pX).).J 6.).).pX).).pX).6.).).).).J ).pXpX).).J pX).pX6.H ).).6.).sXcX'.J ).pXpX).).5.G J cX/.J ).J ).pX(.).).).pX).).6.5.C pXJ ).).).`.).`.`.6.J ).J ).).).pX7.Z F J (.aX*.m G J 6.F 6.6.J 7.gXMXAXt.i.u.t.2XQ 0Xk.y G.p i u S 6.J 8.V J 6.J 6.6.).6.).pX`.).pXJ 6.7.S 6.6.6.).J 6.J J 6.6.6.J 4.V D J 9.N H 6.6.pXJ 6.6.J 6.7.5.J uX~.J ).6.6.6.6.6.).6.7.J 6.6.6.J ).J 5.uXD 6.).fX~.).6.6.6.8.D 6.7.).J 6.J 7.pX(.G G ).pX).6.).pXpX(.7.A (.).).J J H Z 9.CXVXMXCXt.lXCX3X0X:Xk.w V.V.w e }.sX`.).J ).pXJ ).pXD H 6.J ).).J ).6.uX).J pX).).6.).pXsX).pX).pXJ 6.6.pXJ J pXJ pXJ J ).sXpXJ J 6.J 6.6.J J J J ).6.5.fXyX).6.6.pX(.J 7.5.sX_.).pX6.).).).).).).).).J 6.aXJ 5.J ).).).6.).).6.J 6.iX).5.J ).6.J ).7./.).6.5.pX3.aXMX2XBXBXCXBXCX! ; h.w w G.Z.n pX).J ).pX6.D 5.G ).).).).5.J 3.G H pXpXpX).).pXpXJ pX6.J 6.).`.`.).pX).pX7.6.F J pXpXiX`.J iX^.).).).pX).gXN Z dXyX(.pXpX4.C z H pX",
").).pXpX6.6.6.).).J 6.G 6.6.J ).6.6.).fXQ.J ).7.0XY.pX).).6.).6.5.pXfX(.J 6.`.).).pX).5.A sXSXZXNXNXNXa.CXy.g B.G.i w C.w g ).).J J ).).).).pXJ ).).).6.iX(.5.J J ).).).sXpX).pX).6.^.).pXD J pX).pXpXJ J pXJ J ).iX'.).).pXJ J J 6.).).J ).).).aX3.!.7.6.H ).`.J ).).J J J J 6.).7.9.*.M 4.A A J ).7.C ).pX).).).J ).).6.sX{.(.).H pXyX'.Z J ).).J 6.6.6.9.xXVXt.SXNXa.2X;XwXk.y i G.G.i ~.pXJ pX`.G J pX).pXpXJ ).3.J 6.6.).6.).).6.6.J 5.5.J 6.G 5.6.6.J sX[.).J aXQ.F 6.6.5.).6.6.J 7.pX).).(.6.J 5.5.J 6.6.).6.5.7.<.J 6.6.).J pX6.pXpXpXJ 6.pXG 6.6.6.pXuX7.).J J 5.J ).`.pXfXR.G J 7.D J J pX6.pX'.J J 5.J J H !.aXCX2XBXa.VXqXCX<XqX! % w e w w Z.~.6.).J ).J pX).H 6.).J >.S (.7.(.5.J J 5.J J 6.6.).).).).pXJ 6.J 6.J pXpXpX6.J pXpXpX5.H 7.pXpX5.).).6.6.).6.J H 6.6.pXpXJ 6.J ).`.pXpXpX).6.J ).pXpX).).).J 6.J ).).6.6.).sX4.!.pX).J pXD D J J J uX).pX).G 6.).6.pXH 6.7.(.aXrXF %.2XVXNXBXNXZX:Xl.Z.w w C.e a pX6.J ).6.pX`.aXrX(.).pXJ 9.V iX'.).6.).).pXpXJ 6.pXJ 6.`.).J J 6.J J 6.6.pXpX4.H pXpX).pX).).6.).pXJ ).2.3.yX~.pXpX).6.5.7.lXh n 6.",
"6.4.5.G pX).`.pXpX6.).^.J aX).pXpX).).).pXD ).sXhX`.5.J 6.5.5.6.<.H pX).pX).).).).pX).zXE.F xX1Xa.BXCXZXZX^ - B.w A.C.r Z.T.6.J ).).).J J ).pX).6.J ).7.>.).4.).pX).J J 6.pX).).pXpX).J 6.uXJ ).J J ).pX(.).pX).).).).J pX).6.D pX).).).uX(.5.G 7.iXZ 6.`.`.>.z H J J J ).).7.3.(.gX9.hXZ B gXE.).(.9.E.H pX).).J ).J J ).).J J J J J J `.`.J J J 6.).6.6.fXw.mXmXBXNXCXZX;X0Xk.B.i r r F.J 5.).).6.pXJ 5.J 3.J pX6.iXH 6.J 6.J J 6.J pXpX6.J ).J pXD 6.6.J J 7.7.(.).7.J J 6.).6.6.6.6.pX).).pX>.C J J pX6.6.J 6.pX6.pXsX).pXJ 6.J 6.6.5.J 6.7.>.S pXJ 5.6.G 6.pXJ J pX6.H 5.G 5.pX).J J ).`.).J 6.).).6.5.J 6.(.(.J !.gXa.1XmXNXNXBXZX3XVX! % w w w w e B pX).).J 6.J ).J 6.).pXhX^.A ).aX<.(.pXuX).).).).).pXpX6.).pXpXJ ).).6.6.pXpXJ J 2.G sX).J (.aXD (.6.pX).uXpX).J J pX).6.).).6.H 3.A J sXpX`.`.5.G pX6.J J 6.).).J J D J J 6.sX`.pXpXJ ).sXJ J 5.H 6.5.J pX<.Z pXJ pX).6.uX).7.dXaXp.ZXVXmXu.NXa.:XL.u w w w y a J ).).J pX^.pXpX`.pXJ 6.).dXQ.).pX6.6.J J 6.6.6.).pX6.(.D pX4.H pX6.6.J pX).pX`.).J pX).J ).5.D (.pX).6.fX'.pXpXJ D pXpXsX).cX|.`.H ",
"4.).dX!.pX).6.5.4.).).6.J ).).pXpX).).pX).sX^.pXpXJ pXJ 6.6.`.).`.6.J J J 6.5.J J pXpXhX{.J zXZXmXBXNXZXNXVXl.y i w w w F.).6.).(.).).6.(.J 6.J pX).J gX0XH 4.J J J ).).pX).).pX).pX).J ).).).J 6.J J J J J 6.J J J J J J J sX`.pX).).J J 6.J ).).sX(.).).0.e.L._.).pXJ D J dXE.H pXcX X X_.pX).).pX4.{.pXpXJ pX6.H `.pXD J J ).).J J 6.F J pXH pXJ pXpX5.4.xXMXVXNXNXCXCX<X%.% u i G.w Y.6.J 6.J J ).pXpX).uXJ 5.D J 6.6.6.6.6.J 6.J J 7.,.K 6.).J 6.J 6.J 6.6.).).6.).6.J 6.5.J 6.6.J J J 6.J lXh (.J 6.).7.V H 7.uXJ 6.J pX6.J 6.6.6.6.J 6.7.iX^.6.6.6.J pX6.pX6.J 6.pX6.8.H ).).).8.N H 6.J 6.J 8.N J uXH 6.J F H Z 9.mX1XNXZXBXBXNX2Xa.,Xh.w w w w e n 7.G J ).).pX).`.`.).6.J sX[.).sXhX).J ).).).).).J pX6.pX6.J ).pXJ 6.pX).pXpXpX6.q.M M ).pXJ 8.`.J ).).pX3.5.J ).).J pX6.J 6.).7.$.'.).).pX).8.;.>.M ).pX).6.).).pXuX^.).pX).J 5.J ).sX5.).pX(.`.(.pXpXS J sX^.).6.).).pX).6.7.).9.i.s.p.mXCXNXCX<X; % w w w e J.`.J J ).`.`.pXuXJ 6.pX).J J 6.6.).pXpXJ 6.3.J 6.6.J `.pX).).).6.J sX).).6.D J ).).pX).6.J ).1.M F 6.D ).`.pX6.pX`.`.).pXpX5.F J pX).",
"pX).sX>.K pX6.pX(.).pXsX6.H 5.5.pXpX).pXJ J 6.5.7.J ).6.pX).J 5.6.6.).7.A ).pX).J J pX(.6.).gXa.mXBXi.mXCXMXW.V.C.G.G.w J.pX).).).J 5.).).).).).).`.pX).[.7.V (.pX).).).pXpXJ 6.J J ).).).6.).).pXpX).).pX).).J ).).).).).).).).pX).pX).).pX).pX).4.(.).6.kXXX].G J J ).`.5.F aXV (.6.pXJ 5.8.H ).7.^.H 6.6.).).rXE.J pXsXJ H J J (.(.pX~.).).).6.7.D ).q.f <.p.i.CXNXNXCX/ %.k.F.G.i w g 7.J J 6.J J 6.).pXJ pX1.Z pXJ J J pX6.).6.6.J 7.tXY.pXJ J 6.J 6.pX6.J J 7.6.5.6.J 6.J 5.G 6.5.5.J J J dXXXJ ).pX5.pXiXJ 6.pX).pX0.K 6.5.5.J 6.J 6.5.J J 5.J 6.6.aX2.C 6.pX6.J J pXpX`.J 6.J gXV F 6.J J J gXE.G ).).6.J F F Z aXa./ i.NXu.BXu.( s.:Xh.w V.V.w Z.B 5.D (.).).pX).J 5.G 6.~.).pX).pXJ ).pXJ ).).).pX).).pXpXpX6.5.J ).pXJ ).pXpXpXpXjXnX,.M ).pXpXJ J J J 7.fXiX`.J 5.D J aXJ 6.J pX{.).pX6.6.6.q.XXPXW.F 6.6.J J J J ).pXJ J pXpXpXpXC C uX(.sX_.).).7.C ).6.J ).).).pXJ ).pXsXsXdXw.y.mXq.mXCXNXa.^ ; h.w w w C.Y.C J J H ).J pXpX6.6.).).pXJ J J J 7.5.J pXiX(.6.`.`.fXS ).).pXpX).).pXpXpX`.).).pX6.pX).).).gX0XZ 7._.J 6.pXpXJ ).5.5.).pXrX~.pX5.J ",
"K ).7.qXR.6.`.sX).J J pXe.l N M H sX).).sX4.D 8.D `.).pX).pX6.pX(.`.).dX{.).6.J H J ).J J 6.dXCXu.BXNXu.a.lX!.u w w i Z.Y.pX).).).pX).).pXJ J pX).).pX).J dX/.).).pX).J 6.pX).pXpXJ 6.J 6.).J ).).pX).6.6.).J ).).).).pX5.C 2.N ).6.pXpX(.pX).pX).).).pX).uX(.aX<.S ).).).aXH (./.J 6.).pX6.dX!.J pXH ).pX).).).).).J 6.J pXG J H ).J pX_.J ).6.6.).).J zX0X@.a.%.u.NXu.a.^ 1.k.e i i r a 6.6.5.F (.).6.J 6.J 6.hX^.J 6.J J J 6.5.6.J pX6.iX_.6.J J ).pXD J 6.J 6.6.6.6.J ).).6.pX6.J pX).).J ).J 6.5.G 5.).J 6.pX).J 7.5.fXE.5.pX).6.pXpX5.pXJ 6.).pX5.J 6.kXP.S 6.J J 6.).).).).6.J pXp.z F 5.5.G J 6.).).C G pXJ F Z 0.a.1XBXNXNXBXNX2X1X! % w e V.w e ^.sX^.K D H ).pX).pX).`._.pX).).).pX3.D pXJ J 6.5.6.J 6.pXpX6.).).).).pX).pX6.6.pX5.e.0XT.J 6.pXpX6.J J J J ).sX6._.`.J 6.`.).).).J 7.J pX).pXyX{.iX/.<.S 6.J J J J J J ).).).6.).aXtXY.`.J J pX5.G gXE.H sX`._.pX).sX6.G _.sX[.zXw.y.mXy.p.u.s.a.^ ; h.w C.C.V.g g ).).(.).pX5.J pX3.G ).pXpX).pXJ pX).).).`.pX).).6.pXdX(.J 3.F ).6.6.7.6.H pX6.pX).).).6.6.J sX4.(.).6.).).pXpXC <.'.pX).pX).5.pX6.",
"'.).pX{.).).E.4.pX).J J kXwXT.T.!.).6.J 5.uX).iX/.).).).pX).pXpX).J ).).).pXpX`.q.z (.pX).sX`.VXt.u.NXNXCXnXyXw w w i e n 7.).).).).pX8.D ).(.J pXpX5.J ).).pXpX).pX).pXJ 6.J J ).pX).).).pX).).).).).pX(.pX6.(.pX).pX6.9.C <.R.).).`.`.).pX).6.6.5.).).pXuX).).hX_.).).6.uXiX^.).pXJ J 6.).(.pXJ 8.V ).).).).).J J ).).).pX`.(.).J J (.).).J pX).pXJ ).sXxXlXmXr.MXNXNXa.<X0X* V.i i r a G 5.`.^.H 6.pX).7.A J 5.6.J ).pXpXpX6.6.).pX6.6.J J 6.6.J J 6.pXJ 3.G J 5.6.6.).6.5.J 6.pX(.6.4.(.pXJ J 6.7.D ).6.5.5.J 6.7.8.~.pXaXJ 6.7.2.F 6.6.pX).J J 6.pXD J sXhX).pXpX6.J J J J J pX).9.s.0Xn pX).`.J J ).6.1.B J J H !.gXa.1Xu.u.NXNXy.<Xp.,X% e e e w e n pXuX^.J (.J ).`.sX).).).).pXpX).pXdX~.pX).).pXpX`.pX5.J ).sX).6.).).J 6.6.pXpX6.aXyXW.sXpXJ ).pXuXpX).).`.).5.sX).J pX`.pX6.6.6.D `.1.M J 6.J 7.pXpXsX`.6.).).).).6.J J J 6.pX).6.hX_.6.pX).J sX).`.[.`.J ).J 6.G J fX'.(.sX).tXq.e.VXMXVXu.NXZX^ - B.w w w r e a C F H G 5.pX_.aXrX].).pX6.).pX).J 6.J ).).6.J pX).J pX`.w.$.!.5.J pXuX`.).6.J J 6.J 6.).).pXpXsX3.H pX).pX).gX:.j (.6.).pXpXpX).pX",
").).pXJ 6.J 5.J ).pX6.J ).bXU._.J J ).pX).).pX).pX).).pX).).).).pXpXJ J J 6.pX(.kXwXY.pX`.`.`.y.mXNXNXmXCX1.kXw w u p e n ).).J ).).pXdX_.).).J J pXpX`.).J J J pXJ J 6.5.).pX6.J J pX).).).sX).).).).).).6.sX(.J pX6.uXsXyXXX_.5.J G J ).pX).).pXpX).5.D `.).).J pX).).).J J 6.J J ).).J 6.,.N V uX/.J J J ).).6.J J J ).6.(.).).J _.6.H J ).).).pXpX).).gXSX/ NXi.i.s.a.1XqXk.w i r r u ^.,.L 5.(.J 6.J aX^.J J 5.J J 5.G J 6.pXJ J 6.pX6.J 5.J J 7.J 5.D pXJ 9.V ).pXJ 6.).7.N H 5.5.^.J J pXJ 5.pX^.J 6.6.4.).7.5.3.J 5.pX6.J ,.R._.J pXpXpXJ ).6.6.).pX6.6.pX).6.J J J 6.J J J J 9.AXbXn 6.J J pXJ J 5.iX{.).).(.Z w.CX1Xu.NXBXCXp.^ $.:Xh.w e e V.e m 2.^.6.S (.).).J 6.6.5.J 6.A J pX3.K 6.J ).).).).pXpXsXpX3.N D pX).pX).).pXpXpXsX).).6.5.).`.).pXsXpX6.D C D `.).sX).).2.C ).`.sXuX*.<.W.(.pXpXsXJ 6.J ).pX).).).).pX).).).).).pXpX7.3.(.).pX).pX).J 5.6.).).8.H pXH J J F ~.iXhXVXe.p.lXqXCXNXCX^ l.e w V.w e I.P.E.!.6.D J ).5.).`.6.5.).pX).6.J pX).pXJ pXpX6.D pXJ J J kXwXH uX).pX).pXpX).pXV ).J ).).).pX).pXdXA K 6.5.5.6.eXP.H ).).pX).).pXpX",
"pX7.J ).pXpX).pXJ 6.pX(.5.J sXaX4.(.).pXpXpXpXpXJ 6.J ).pX).J 5.).).pX^.).pX_.).J iX_.pXJ J ,./ mXi.NXBXCXe.*.w w C.G.Z.R.).).).J F ).pX).).).).pXD ).pXpX).pXpX).6.J 8.S pX6.sX).5.J J pXpXJ pXpXJ ).).pXpX).).).).pX).5.^.).).pX).4.F J 6.J 5.5.J pXfX~.).J J J ).).).).6.J ).J ).pXJ pXpXcX{.^.(.pXJ pXJ J J J J J J J pXH J J ^.H pX).F G H J 6.pXJ ).9.SX/ i.MXt.u.a.^ qXk.w i r i w C tXV B (.6.5.G ).pXJ pXJ J ).aX3.K pX6.5.J J 5.6.pXJ J 6.J 8.$.!.6.6.sX[.J 6.pXJ J 9.Q.J 6._.6.6.G D 6.6.(.6.J pX6.`.J pX:.M H 6.D 6.7.rX{.6.6.pXpX6.).J 6.J 6.6.5.J pX6.5.J J J J ).).J 6.).fXPXI.).pX).J J ).).J J ).).(.Z 9.s.1XNXNXNXt.NX<XP.! h.w e e e Z.j j !.dX'.J J ).6.6.J (.).6.iXJ 5.tX~.J (.).6.J 6.6.J 6.pXtXP.B 5.J ).).).pXpXpX).pXpX).pXJ G pX6.2.J uXdXtXR.5.J J sX7.0XR.).J 7.#.M T.pX6.J 6.pX4._.).pX).).pX).).).pX).).).6.6.pXpX[.).5.J 3.K ).6.pX).J 5.iX_.pX6.J ).(.Z /.9.lXeXt.y.p.NXVXu.<Xl.e w w w Z.Y.sXhX(.).`.).J `.`.pXsX).J 6.pXpX^.).6.(.pX).pXsX/.pXpXJ J pX[.).).).).pXpXpX).7.A ).pXJ 6.).).5.J 6.jX'.).pX).).sXrXH ).3.S ).6.pX).",
").dX_.).pX).J pX6.J ).pXpX_.J pXiX`.).6.pXJ ).pXJ 4.J J J pX1.B ).pX^.).pX3.G 7.<.Z ).D ).6.d.p.mXBXNXu.ZXi.N V.w w r w V 6.J J ).).J pX).J J J pX).J ).).pXpXpXpX).).iX'.pX^.J ).sXpXD J pXpX).pX6.J J 6.).J J ).).).).uX(.).).pXJ dXD (.6.6.J `.).).`.).J ).).(.J J 6.).).).pX).J pXJ J ).J J ).).6.).).).).6.J ).).).J 6.3.Z J ).).J pXsX^.(.J J pX6.G aXMX/ i.d.mXBX1X! $.* e i r i w L.`.hX{.H 6.6.).).pXpX6.6.J J 5.kXR.7.6.pX).6.6.6.6.J 6.7.J rXyXpX6.pXJ 6.J 6.J ).6.J pXpX).J 6.).sX^.6.).).pX6.2.5.J 6.6.NXh !.sXpXJ fXS 7.>.H J 6.6.J J 6.6.6.6.uXD J 7.J 6.J 6.J J 5.6.pX6.J ^.J 7.6.6.6.J J 5.J ).J ).).!.gXZXCXmXi.u.CXu.( qX:X% w e e w e L.W.Z ).(.).).J J pX9.*.A F J 7.D ).`.`.J J pX).).pXpXpXpXpX[.).).J J ).6.6.J 6.J 6.6.J ).gXE.F 9.$.L 6.J [.sX).).).7.6.[.`.pX).1.wX}.!.6.).6.pX).`.).pXpX6.J J ).).J 6.).).pXpXpX).).J pXJ 6.fX'.6.).pX6.J J J J J pX).J R.^.N <.nXVXa.mXCXy.MXCX<X; % w w C.e g pXJ ).J ).).(.J 5.6.6.pXpX).pXJ ).pXpX).6.6.J ).6.J J ).pX).pXpX).6.6.6.J pX).gXQ.(.6.6.(.pXpXpX).3.L ).pX6.J 6.J pX(.J rX~.6.pXJ 6.",
"J J ).5.).6.<.J ).`.).6.`.).pXJ G 6.pX).pX).).9.K `.sX).J J iX{.J pX).J 7.%.n pXhX!.6.J ).1.r.y.BXBXNXu.CXp.f B.G.C.r e g J ).).(.6.J 5.J ).6.6.J ).pXJ J 5.J J pXpX).J pXpXpX).J G 6.).).J pXD ).pX`.pX).pX6.H ).).).).pXpXJ J 6.).J sXH 6.`.7.*.Z pX).).).J J ).J 6.D J ).6.).).6.J pX^.).).).).).pXJ J J 6.6.(.`.8.F 4.J `.(.J H ).).J ).).).).6.5.6.).7.y.1XNXi.i.NX1XqX0X* w i i i C.R.6.J J 5.J ).J G 5.6.6.).6.J 6.`.).6.pX).J 6.6.J J 6.6.pXpXJ G J pXpX).).6.6.).J pXJ 6.J J 6.).6.J 5.pXJ 6.J 9.h Z J pXpXjXXXJ 5.5.5.7.J pXyX).6.6.6.).5.J pXJ ).pXpX6.5.J ).J J J 5.J J 6.pX).J J J 4.6.J J J ).J J J J J Z 9.t.p.u.NXMXmXa.( Q Q h.C.w e e Z.J./._.).).).6.6.).J tXwX'.`.(.sXsX`.).6.).).pX).6.6.6.).pX).6.).).).6.J 6.pXJ 6.J 6.).).6.pXsXpX6.hX/.H ).J ).).6.6.6._.J 6.).7.Q.{.sXJ 7.A J ).pX6.6.6.J pX).).6.).<.S ).J ).pX6.).pXD ).pX).).).pX6.J pXpXJ ).).).J pX).Z 3.J Z bXAX1Xy.a.NXp.CX<X; h.w w w Z.g J ).).J (.pXJ 5.J pXJ ).pXJ uX_.pX6.6.6.pXpX).).pX).).).pX).6.J J 6.).pXJ J J pXsX6.pX`.).6.).sXpXfXQ.G 5.4.(.).).6.pX).).pXJ 6.pXJ ",
"pX6.5.G J 5.).).).).).sX5.5.J fXV J J pXpXpX5.fX'.G J 6.6.).(.J 6.6.5.J 6.Q.rXz (.6.pX).J e.MXe.p.MXVXt.a.t.L.y i w r e L.).J ).J pX).pX).).pXpX).J J pXpX6.J J J ).).).).6.).`.7.^.J J 6.).).uX).6.J pXJ pX).(.).pX).J 7.J ).pX).).).pX6.).D tX0X!.6.).6.J 1.B J pXJ ).).J 6.).J 6.J J J J J J 6.J 5.).).).).).(.6.9.A S J H ).`.(.).pX6.H ).).pXpX6.J ).7.d./ u.i.BXt.) %.! k.w i i i w K 5.D J J (.7.6.uXJ J ).pXpXuX).).pX).6.6.6.6.6.pXJ 6.).).pX6.J H 5.pXJ 5.6.J J 6.J 6.J J 5.).J J 1.B pX6.5.6.).hXpXG J pXJ G 0.z H pX).).6.J 5.5.7.J J 6.5.5.J J 5.5.7.6.).J 6.J 6.).).J ).).pX).J J J J ).).).6.).J J G 5.Z 7.CXCXu.i.BXt.a.2X0X;Xh.C.w V.e u j m H (.).6.6.).).pX)._.).pX).pX).pXpX).).pXpXJ 5.5.).pXpX6.pXJ J 6.J 6.J 6.).pXpX).).pXpX).6.dX3.(.dX_.).).J 6.).pX`.).pXpX).sX).5.5.J pX/.).).6.).pXpX).).J ).).J pX).5.J J pXpX).6.`.J pX).).5.J ).).6.pX).).).pXpX).).H ].{.R.XXAXVXBXNXu.t.NX^ z.B.w V.C.Z.T.J ).pXJ J J ).).).6.).J 6.).).J 6.).).pX).).).J pX6.J J 6.5.6.).5.D ).6.pXpXJ 5.D ).).pX6.pXJ J pX).6.aX^.(.sX<.K pX).).J 6.pX).`.`.",
"4.pXtXE.sXsX).).J ).J 6.aX(.).pX`.).D C pXaX<.H aXJ J J ).).J J pX7.^.).).J q.R.(.pX).).pXlXMXy.BXMXp.t.a.a.g y r r r e L.aX).).).6.J ).).).pXpX6.J J J 6.sX`.).`.^.pX).pX).J J uXsXpXJ ).).5.J pXsX).pX).6.pXA F ).pXpX).).6.J ).).).6.).).pX_.sXJ ).).uX).hX{.).pXpX).J J ).).).).).pX_.pXJ ).).pXuXH J D 5.H 6.J dXyX_.).(.J ).(.).).pX(.).J J 6.5.).6.sXBX/ u.i.y.s.VX! Q h.w i r i e n sX(.H J G J 6.G J J J J 5.J pX5.G 6.5.6.6.6.J pX).pXJ 6.6.pX).6.5.G 6.pX6.pX4.J 6.J J 6.).J J J iX^.J pXpXpX,.z 6.6.J 7.6.J w.@.m aXJ 5.6.J 6.4.pXpX).6.6.pX6.5.5.6.pXpXJ J pX).).6.J ).J J J pXpX).pXJ J 5.5.G J 5.G D ~.].gXmXa.CXBXNXCXt.^ %.Q h.C.w V.e J.P.g Z (.6.).7.H 6.pX).J J ).pXpX7.G ).pXJ 6.).pXpX^.J 6.6.).pX).).pX6.6.(.aXV pX6.J 7.G 5.J ).aXrXH ).).pXpX6.).J J ).).pX).).6.6.6.pX(.).pX^.pX).J pX).pXpX).).).).).pX`.).).pXpX).pXpX).).pXJ pX).J 6.).).).J G J pX).6.Z Z C Z f p.VXmXNXZXBXNX3Xl.e V.V.w e M K (.pXpXJ J ).sXJ ).).pX4.H 6.pX).).).).pXpX).pX).pX).).pXpX).pXpX(.5.J J J sXsX^.J ).pXpX).sX).J sX;.0 _.J J dX_.pX).).pX6.).).6.J ",
").pXsXpXJ ).sXsX`.).pX).sXdXK ).).).,.@.b A 6.(.pXpX).J 3.^.).).sXsX).5.J J {.[.7.5.H 6.H lXBXmXi.u.mXmXmX( d B.r w A.V.L.6.).J ).pX).).J J J J pX).).pXpXpX5.).).).pXpXJ pXJ J 6.7.J './.pXpX(.J ).pX).pXpXpXyX~.J J ).J 6.).).).).6.J J 6.`.).pX`.).).).).).).J 5.).pX6.).).pX).J J ).).pX^._.aX6./.uX`.^.^.(.J 6.J sXpX).).).).C K J ).).5.J J aXpXJ pX6.MX1Xu.BXu.mXp.! z.% e i i i w n 6.pXJ J J J 8.~.).6.).).pX).6.gX~.5.6.6.6.).).).6.pX6.5.J ).pX6.pX4.H 6.J 6.pX(.6.J pXJ J pXpXJ J 5.G 5.3.J xXP.J ).pXpX).9.d.P.Y.7.6.J 6.J 6.pXpX6.D 6.6.J 6.6.6.J ).pXpXJ J ).J 6.(.J pX5.H 6.J J 7.5.J D sX<.H 6.J (.K m 9.t.t.BXBXi.a.CX1XQ Q h.w w w y I.vXXX!.J J J sX`.J ).6.J J J 6.6.4._.J 6.J 6.J ).pX).6.6.6.J 7.G 6.5.6.(.G 6.^.6.6.6.J pXpX5.C J sX).).pXJ 6.pXJ J J 5.G ).6.5.J pXpXpX).).pXJ 6.).J J 8.A ).pX).J J ).).pXpXJ 6.).pX6.pX6.5.5.J J J J pX).`.pXJ pXJ J ).).(.D !.1.@.t.CXt.u.CXVXBX/ ; Z.w w w e & '.J J pXJ ).(.pXpX_.pXpX`.).).pXJ ).).6.J ).pXpXpX6.).).pXpX).).J pXpX6.pX^.J pX6.6.G J ).J pXpX(.aXVXP.~.`.).6.G ).).J pX`._.pXpXpX",
"D J pXdXJ G J 6.).7.G J G <.E.).).fXnXlXg R.pX(.pXpXsX,.l L ).G G pXpXsX`.`.J 6.pXsX).pXJ w.BXa.NXBXVXCXCX<Xj.V.A.w w V.g J pX(.).pX).).pX(.pXpX6.).J J ).pX/.(.6.).).pXpX5.).).pXpX).F J ).).).6.J 5.J J 6.).pX_.pXJ 6.J ).7.-.N J ).).).).).).J ).).J ).J 6.J 6.J ).pX).(.J J pX<.~.J J ).).J 7.~.).uX<.>.(.pXpXpX).J pXJ J G ;.>.B Z ).).9.L F 5.pXJ (.dXSX/ NXi.NXt./ ! Q k.w i G.i w n 5.5.H J J pXuX).G 5.(.6.6.6.6.pX6.D 6.5.).).6.6.J J 6.).J 6.6.6.pX`.6.5.J 6.J J ).).6.pXJ D 6.pXpX6.6.5.uXD ).`.pX).6.6.6.7.nXU.(.6.6.pX6.).).pX5.pX).7.J 6.6.J pX).J 5.6.).).6.6.).).6.>.C F G 5.J J 4.A J 5.iX).6.J J D L 9.a.mXu.NXu.mXmX( Q Q % C.V.V.e g 5.F ).pX).J ).sX).6.).).6.J pX6.).J 6.pXpXJ J J pX6.pXpX).).gXE.6.).pXJ pXA ).sXpXpX`.pXsXtXR.).6.).).6.pX`.pXpX).pX).).2.3.(.).6.J pX).J pXJ ).pX).).sX[.J pX).pXD G pXJ ).pX).J 5.pX6.J ).sX(.).).).).3.K pXpXJ uX).).pX~.uX!.e.*.r.u.1Xi.BXNXa.^ ; h.C.w w A.e n 7.J 5.(.(.).6.).).pX).).).pXpX).).pX7.J J J 6.6.).).pXpXpXpX6.1.z z M Z ).J 6.).aX1.B 6.).6.).).pX/.sXJ J pXpXuXz J pX`.pX6.6.5.J ",
"sX).pX7.pX).J J ).aX^.).).pXJ G G J jXeXI.).sXuXA ).pXq.Q.Y.(.1.M ).).pX).6.J pX).).pXJ uXkXp.NXNXi.p.mXCXVXU.S.i G.C.A.u n pX(.J 6.).J ).J J 6.pX).uXpX6.).).J ).).pX7.6.pXH pX).pXpX).).).J 6.pX).`.`.uXpX).).6.J J J ).J gXe.n ~.J J J J J ).).J pXD H ).pXJ pX).J 6.J F pXJ ).sX^.pX).).J J ).sXH pXrX/._.pX).).pX).6.J (.w.rX].{.!.).6.fX/.J J J 6.!.7.lX2XNXi.i.y.3X<X;Xk.r a i r F.'.6.J H ).).).6.pXpXD H 5.6.6.6.6.pX).6.).).pX6.6.).pXpX6.J pX6.J ).5.5.pX).).pX6.J 5.6.J J 5.G J 6.6.6.3.N !.).5.6.6.6.5.7.6.H pXJ 6.J 5.J 5.G 5.pX6.6.pXJ J 6.J J 5.5.5.G G J J 6.D J fX$.j B J D ).).uX`.6.).J J 5.H _.sXZ 9.CXmXNXt.i.mXt.( ;XQ h.w V.w V.a 4.~.J ).pXJ J ).J 6.pX6.6.H 2.J 5.G 6.J 6.6.).J 6.pXJ pX).6.).sXpX).dX~.9.*.L aXpXpXpX).pX<._.).pX).6.pX).6.pX).pX).6.7.rX].).6.6.J ).pX).pXpXJ pX).).).pXpX).).).e.j H pXJ 5.5.5.J J pX).J 6.pXJ J ).6.1.W.).sXpX(.pX).pXH ~.J d.N d.f.s.BXi.mXCX/ - Z.w w C.w B.g aXpX3.~.).).pXJ J pXJ 6.J 6.).).).pXsX).pX).pXpXJ 5.J J pXpX).sXMX;XJ.!.).pX).pXaXhX_.J 5.).`.).sXpXJ D D J ).zX%.h H 7.J pXpXpX`.",
"6.5.2.).).J J J J ).`.sXJ 6.6.J ).).).yX`.J D 7._.5.:.h XX`.(.dX[.J `.8.K 7.).J 6.(.pXfXZ e.i.NXu.MXmXy.CXxXXXJ.G.G.w r Z.T.)._.6.).).).J J 6.6.).).).pX).).aX3.S pX6.aX^.uX).J 6.).).(.pX).6.).pXJ ).pXpX`.pXpXpX).).pXJ J dXbXXX).).).(.pX5.J ).J 5.^.).H 4.J 6.).6.uX).(.pX`.).).).).).).).J J J ).).).J J 6.pXJ J 6.8.(.5.'.].sX^.(.).6.).pX6.D J 5.F 9.q.1XBXBXBXBXZX3XQ % A.h a t J.6.J ).).J J J J 5.).`.J 5.6.J 5.J ).6.).).6.6.6.6.J 6.5.6.).6.J ).6.6.D J 6.6.5.6.6.D pX).pXpX~.J 7.7.6.tXP.(.6.6.J pXpXpXpXsX).7.G J 7.3.J 6.pXJ 5.J pX6.6.).pX6.5.D 6.6.1.B J 5.5.D G G jXXX_.pX).J 5.G 7.J 6.J J 4.(.F 5.!.tXs.t.u.mXBXt./ ^ ;X,Xh.w V.w V.e n `.J 5.8.(.).J pX).).).pXpX$.Z sX^.J 5.J J (.pX6.pX6.J ).pXJ 7.3.J pXaX:.R.R.J 6.6.J J 9.<.!.6.).pXpX).6.J ).6.pX6.pXsX`.J 6.).pX).pX).).J ).pXJ pXJ J pX).pX).5.xX}.(.6.).).pX).pX).J 6.6.).pX).pXG J `.).).6.).8.z ~.6.(.Z 0.%.0X%.mXmXBXu.y.CX( - e w w C.C.w a ~.dXE._.).).6.J ).5.J 7.J ).).pX).).).pXpX).pXJ ).sXpX6.6.J ).8.jXeXg (.pX(.).6.pX).).6.uX(.J 6.pXsX`.sX(.).J fXIXU.Z uX).6.J J D ",
"J 9.V _.pX).).pX5.J 2.2.5.G uX_.pX).).J `.sXsXsX9.*.Q.{.J pXJ 5.6._.6.dXuX(.`.pX/.`.6.).pXlXMXBXNXy.t.t.s.kXz a V.A.w w J.(.J J J ).pXJ 6.J 5.J ).).).pX).).aXrX(.pXpXpX).).).sX`.).`.J J ).pX).pX^.J J J J J 6.5.J J ).pX).).J ).).).pXF 8.^.).).6.(.).6.D 6.).).).pXpX_.`.J ).).).).).).).pX).fX>.Z ).pX).J A J J ).pXuXH pX!.J pX^.H 6.J 6.pXaXS J pXH 6.zX1XBXNXi.t.r.^ ,Xh.p *.u V.g 6.J J J ).).J 6.J J 5.G J 6.5.).pXJ 7.G J 5.6.J 6.pXpX6.pXG 6.pXJ pXpXpXJ 5.7.^.J pX).D 6.6.J 5.2.J 6.).sXsXF 6.6.J 6.pX6.5.J 7.6.`.J 7.iX).pX6.6.pXJ J 6.pXD 6.7.).^.6.6./.`.J 5.J 6.).`.J 7.G J 6.J 7.6.J ).pXJ pXJ 6.H uXn q.a.CXBXu.BXmXmX( eX;X% V.V.w w Z.m G G 5.^.H 6.J ).).).).).pXhX_.pXuXpX).).pX_.pXpXpXpX6.J 6.).aXiX(.J q.e.s '.pX5.6.).J sX{.pXpX).6.5.J pX).6.).pXpX).).).J ).).pXC G ).pX).6.6.).).).).).).pXpX).hX`.pX).).pXpXpXJ 6.6.6.).pX6.J pXpXJ F G J J 6.e.Y.~.).J Z 9.$.$.q.NXCXBXmXi.t.2Xl.B.w C.w C.Z.J.(.pX).J J ).sX`.6.).pX^.`.J J 6.5.G J J pXpXJ ).J 6.).sXsX`.6.gX8.qXL.L 5.5.G J ).6.G 6.).6.5.J J ).pXpXuX).6.).(.sX).).pXpX6.).6.",
"pXsX/.J ).).).pXdX'.q.h `.^.(.pX`.sXpX`.).5.5.J kX}.'.aX).6.).).`.).).).sX`.5.8.V ).pX7.S xXMXi.ZXNXt.mXmXy.@.B.G.C.C.e Y.pX).J H J ).).pX).gX>.B pX).pX).).pX).6.pXpX).pXJ 6.G J ).J 6.).J J 6.pX(.).).pX).pX6.uXJ ).J 6.J pX).J J J pXD ).).).J pX).5.).).).).).).C pX).J ).J J J J J 6.3.A J 9.yXR.J ).`.pXfX4.~.J 5.).).(.H J J ^.).J ).J 6.sX).J pXJ ).zX1Xt.BXNXa.t.) Q % J.P.C.r a 8.G J J G J 6.J ).5.uX_.pXpX`.).6.J 7.E.J 6.J ).pXJ pXpXpXD J J 6.5.5.J D pX).).6.).J J pXJ 6.4.rXH ).).5.).pXJ 6.pX6.5.6.pX5.pX).6.,.K 6.J 7.6.).pXpX6.C J pX5.6.).7.8.D J 5.6.J J 6.S J 7.pX`.J J pX6.6.6.J 6.J J ).6.H W.hX9.a.a.NXNXMXCXCX2Xt.Q h.C.V.V.e D.].sX).6.5.K ).).H 6.).J 6.J ).pX).).8.C (.).J 6.7.G J 6.D (.sXpX).5.J fXDX<.M aX5.J `.`.).5.6.J pXpXpX).).J pX8.H pXpX).pX).6.6.pX1.B 6.J 6.6.).J J J ).pXJ 6.).).J 5.J J J 6.pXpX<.S pXpXJ 5.pX).pXuX`.`.).6.2.-./.].J ).D S 0.q.0XSXr.BXu.t.BXCX2Xl.y C.w w C.e H.J J 6.).(.).6.).pX(.pX_.pXsX4.A ).uXpXJ J pX).).pX).J 5.6.5.).dXe.wXW.R.8.S ).D H aX/.4.N `.`.).5.G ).pX`.pX).).pXJ ).6.6.pXpX).dX",
"pX).6.D ).J J 6.).5.fX{.J uX_.pXJ 5.J 5.5.J pXJ {.[.G 6.8.G G G J J J pX).7.4.`.`.6.6.^.~.gXNXi.i.NXNXNXmXs.h B.G.C.C.V.g pXpX6.H (.J ).).J gXbX!.6.J ).).).pX6.).).pX).).pXpX`.).).pX).pX).).pX`.pXG ).pXpX6.).pXpX).).).).).6.J ).).J `.pXpX).).).pX`.).pXD H 5.:.h B sX).6.J ).).1.L aXrXE.S `.`.pX).J ).6.pXsX(.6.pX`.).).3.K 6.H ).).5.6.J 6.).).J _.6.9.t.u.SXBXZXVX3Xz.% w S.r i w d L H J J J 6.J 5.).5.F J 6.5.5.J pX).).6.pXV D 5.).6.J J pX).).pXpX6.:.N F 6.pX).pX7.S ).1.N (.(.sX).6.).).6.pXJ J pXpX6.5.pXpX7.5.hX_.6.).pXpX6.6.6.7.^.H >.J ).5.6.uXuX5.6.).pX^.).).5.7.J G ).6.5.J J ).pX6.).J J )._.n ^.zXa.NXBXNXBXCX/ ^ W Q h.w e w Z.a C C ).dXsX~.H ).).J 7.J pX).`.sX).8.0.R.H 5.).pXsX`.).`.sXD J sXsXsX`.aXd.f.n pXfX~.).).>.D J (.).pX).6.).pX6.`.).5.).6.J pXJ ).pXhX`.J ).6.J J J J ).).6.6.6.).).pXpXJ pX6.J pX6.hX/.pXpXpXJ J 5.5.J J J ).pXdXyX!.J ).).`.pX9.w.kXBXBXMXu.t.y.a./ z.B.w V.w C.e u H ).).).).J pX).pXH ).).pXpXaX'.J 6.).pX6.J 6.6.).pX6.6.6.G J pXjXcXV ~.sX[.`.dXH sX).kXP.J J 6.pXJ C 6.J ).pX,.K ).6.).pXpXpXJ 6.",
"`.`.pX`.).).pXpX).pX(.pX).`.).sX).pXpX<.~.pXJ _.5.5.J 7.<.!.sX_.).fXA J 5.6.^.(.J ).`.iX~.1.y.i.MXCXBXmXNXt.L.B.i A.A.w L.pX6.aX!.J J ).).).).).pXpX).`.).).pX).).).pX).).pX).).pXpXJ pX).).).).).9.V ).6.6.pXpX6.6.J J J J J pXD J 5.<.Z pX).).).5.H sX).pX`.sXe.Q.}.~.J ).6.).).).tXB F pX`.).J J J ).).J J 5.5.6.).pX).pX6.rX~.).).J 6.pX^.).pX5.F ).H sXgXt.mXSXi.t.MX1X:Xh.w i i i r L.R.H J H J ).pXJ J `.`.J pXpX^.(.6.6.5.5.5.`.6.D 6.6.6.5.F pX).6.J w.%.T.pXJ 5.3.C J uXJ tXR.).J 5.J ).J 6.6.pXpXJ 6.6.6.).J 6.pX).J 6.J J 5.J 6.6.pXpX`.:.{ m aX`.pX6.8.J ).).(.pXJ 5.J pXpX).J 7.).(.pX6.6.).J J 6.H !.'.!.zXCXNXu.NXBXa.1X3X;X; h.w e V.B.g V R.H 6.pX_._.).J 7.3.(.pX5.A 5.6.7.hX_.7.S J ).pX).pX).4.S G J J 6.J 9.d.wXI.5.pX(.pXpXrX{.`.pXG J pX^.6.6.).).pXpXJ pX).).).).pXJ 6.pX6.6.).).).).).6.J pX).).3.2.).pX6.6.J J pXJ 6.).pX6.pX).6.pX).).J G J G ).pX).J 6.J 7.w.gXtXMXmXi.BXCXBXa.^ L.V.V.V.V.w Z.I.).).J H ).).).pX).).H 6.J 5.pX4.D sX3.K 7.D (.pXJ pXpXpXaX^.J 6.).jXP.!.6.G J pX<.C pXsX{.pX,.b >.,.B L (.pXpXfX^.H pXD D 7.5.).pX",
").9.A ).6.).pXpX).`.`.pX).5.J ).6.5.).`.).sX`.6.8.J ).sX{.`.).).J sXiX6.6.J ).).J 3.z F 6.q.y.mXd.NXu.i.t.MXW.e w r p e L.aXG ).`.(.).).J ).J 6.).sX_.).6.J pX6.G 6.J ).).).).pXJ pX`.).).).).J ).pX`.).aXA ).6.).`.pX).).6._.dX4.~.`.{._.pX).).6.9.B 2.K pX).6.nX}.(.pX).J pXJ J J ).{.`.pXJ ).pX).J J J ).pXsX).).).).pXJ pX/.D H 7.H 6.6.6.J 9.&.n pX(.F zXmXBXy.u.VXBX1X:X% A.G.i i V.g 3.Z J J F J pXpX).J 5.5.J `.pX5.5.5.J 6.).J pX6.6.J 6.pX(.5.5.5.J 7.bXR.7.6.7.8.E.H J J uXsX2.K pXH ).6.J pX6.6.6.6.pX6.).pX6.6.pXpXpXJ 6.6.J J pX).).7.s.<.n 7.5.5.6.pX`.(.6.J 6.6.pXH 6.).0.z ).).J J 6.).6.J ).pX(.Z Y._.e.s.BXVXNXBXCXDX3X3Xc.% w w V.V.a T.hX).).).H J J pXsX[.D 6.rX~.6.5.`.`.).pX`.J J 6.pX).).sXdXD `.9.V pX,.1.}.).pX).J 6.).).5.5.aX>.Z pX).7.G ).).6.pXpX).).).pXJ 6.pX).6.pXpX6.J ).J 6.pX).pX).7.e.n Z 6.pXpXJ J J pX).6.5.J J ).).sX).J sX5.2.H D ).pXpX,.C 8.9.0.9.MXmXVXt.NXBXCXmXh B.C.C.C.V.K.R.).J pXJ J ).pX).).sX).pXpXuX`.`.[.sXfX/.uX_.pX7.D J J 5.6.(.pX^.pXpX{.).pX).6.D tXR.J 6.6.9.%.m ;.M ].`.Z J pXsXpX~.pXuX6.7.^.).^.",
"J dXhX).).6.5.).J J J pXpXpX).6.6.).(.).).6.6.6.pX`.`.).6.6.).).pX6.6.).pX`.J J 7.e.h B 7.q.y.i.MXu.u.NXt.ZX<.y C.G.H.D.s C aXK (.).J ).).).).pXH ).pX6.).J J aX`.).).).).).pX).pX).pXpXJ J J J D 6.J 6.6.sX).pX).pX4.^.6.`.G 6.hX`.).G C J ).J pXjXiX<.!.6.J 6.6.iX_.pX).pXpX).).`.).J J pX).J J ).).J ).J J pXuXJ pXJ pX).(.sXuXH ).).J 6.uX!.d.P.T.6.H J 7.qXNXu.i.NXNX1X;Xk.C.i i i r a iX!.J J J J J pXJ J 7.4.S G 7.7.(.sXpXJ 8.>.Z pX6.J pXpX6.6.6.J 6.J G D 6.6.J `.sXpXJ ).6.5.1.R.sXD J 5.J 5.5.).5.6.5.6.(.6.6.5.J 7.5.6.6.6.).J J J 5.7.DXU.!.7.6.6.5.4.).J 6.(.pXpX6.D G J tXE.J pX6.J 6.J 6.J J pXJ !.Y.Z lXa.y.p.i.BXCXu.( ) Q h.V.Z.w w % j v J 3.D H ).H ).).pXsX_.sX).pX).(.pX`.pX`.1.z H pX).pXJ pX`.5.sXiXJ lX$.n (.).pX).pX).7.$.R.pXiXJ sXpXpXsXH pXpX).).).).).pX).pX).pXpX).pX`.).).).).pXJ 5.5.pXyXXXsXJ J aX,.Z 6.5.G 6.uXpX).).).J pX).).q.E.`.uX).pX).MXP.6.q.tXE.y.ZXy.u.u.u.ZX2X; y w V.C.Z.}.(.J ).).).(.).6.J G 5.5.J pXJ 6.(.7.J J 6.pX).6.pX).).pXpX6.).).uX).).J ).).pXpX).).dX0.K pX0.d.m  XU.^.[.`.(.pXpXpX).5.6.pX`.sXJ J ",
").pXpXpXJ pX7.D ).J J J pX6.J 6.).`.).J 6.6.pXpX^.).).6.).pX(.5.J pX).sXpX).sX`.dXxXY.].uXkXMXSXBXmXmXi.y.MXwXe w r C.A.% g aX~.Z 6.J J ).).).sX(.).).pX3.V ).pX).pX6.pX).pX).pX).).pX).pX).`.sX3.Z ).pX).6.).pX).pXrX(.pX`.fXZ 7.D ).aXrXZ J 6.J J 9.S H J J ).sX).).).).).pX).).).).).).).pXpX).).).).).).pXJ pX).).`.pX).(.J ).).J J pX).`.J jX*X!.pXJ J 7.y.p.y.MXZXBX1XQ h.w i i i r p (.pXJ J H ).6.5.J J J `.pXJ G 5.).6.pXpXdXyX'.pXsXJ 5.pXpX6.6.pX6.6.`.).pXpXJ G 6.pX).pXpX6.sX_.6.`.J 5.J %.M J pX6.pXpX5.6.6.sXJ 5.6.J ).pXpX6.6.6.5.J jXXX6.6.J 6.).).pXpXpXD 5.J pX).6.J ).5.D ).6.J J 6.6.6.D J J S L L q.mXi.u.MXBXZXs.( :X: h.V.e V.e y g M L 8.K ).H (.J J ).).J 5.pXsXuX(.).6.5.5.iXQ.`.J J 6.pXJ 6.pXD pX).xXwX'.J 6.).pX).).`.hX[.pX).).C pX).sX).pXpX).).pX).).6.6.pX).).pX).).).6.J ).6.6.J <.E.).).5.sXpXJ 7.0X!.5.).sX).J pX).J 6.J ).).pXyX_.5.J J ).J hXXX8.gXyXkXd.a.i.BXBXNXa.2Xh B.w V.C.Z.Y.sX).J D (.pXJ ).sXD (.`.`.sX6.A D ).`.sXuX).sXpXpX`.pXpXpXpX).J J ).6.G (.pX7.>.~.6.7.tXR.).tXjXU.R.^.^.).).J J pXpXpXpX(.).6.6.J J ",
"G J pXpX).pXtXR.pX).pXG 6.6.).J ).pX(.pX).`.pXsX).pX6.`.`.fXS pX).).pXG D ).).pX).yXQ.(.).jXDXBXNXu.CXmXy.zXkXF.C.C.A.w D.].).[.H J ).).).).).).).).6.7.tXR.J pXpX).pX).J J 6.pX).).).6.).).).pXhX_.).pXpXpX6.).pX6.(.).).).`.dXD `.).pX{.`.J pX).).fX{.`.).).).5.J J J ).6.).).).).J 6.J J J J J ).).6.).J 6.).J pX).J J (.).pXJ J J J J ).6.J (.pXpXJ `.).gXy.CXy.SXNXNX1X:X% w i G.i C.L.C (.6.D H J 6.).).).).J pX7.;.h N H 6.5.6.6.G 6.3.pXpXJ 5.6.).pX8.S H 5.5.).sX).).).5.5.6.`.).).6.pX6.uX).xXR.K G 6.J 6.6.6.6.7.6.6.J J J 5.6.pX6.pXpXpX5.7.J 6.).).).6.5.J 5.4.~.pXJ J pX).pX).J C ).pXJ 6.`.).sXJ J G !.Y.e.CXu.MXBXi.a.mX<X( z.h.w V.e K.+X}.jXR.dXB ~.`.J ).).).aX<.H pX).`.).pX6.).sX(.pXpXpXpXJ ).6.).pXuX).6.(.).7.D !.pXpX).).J 5.6.pXpXgX$.Z pX).).pXsX(.).pXpX6.J ).J ).J pXJ J pXpXJ 6.6.J ).).).6.J 6.5.J ).pXsXJ ).).).pXpX6.pX).pX).J J J ).).6.).).).4.J 6.gXdX9.0.MXa.BXi.mXs.NX2XP.y C.V.C.% n 6.J ).(.J G ).J pXsXJ F 6.pX1.~._.`.J 6.pX6.pX4.(.6.5.pX6.6.).pXJ J aXE.(.).dX0X~.6.5.`.`.4.E._.dXrX!.sX).).pX).J J pXpX^.pXpXpXpX`.",
"pXJ pX6.D 6.pXJ G J 7.`.).).).pXH 6.G J ).6.6.J J 6.3.F J dX`.).6.J pX%.j J J ).pXH pX).D 5.MXVXNXNXNXCXMXjXnXF.C.C.A.V.Y.7.D ).).).).(.).J ).pX5.F ).aX/.`.J 6.(.).pXpX).).6.J ).pX).pX).pXJ J 3.G pXpX).pXpX^.pXpX^.).pX6.G 6.sXJ ).`.J 6.6.G J J uXJ ).).).pXsX(.).J ).).).).).6.6.J 6.J ).).).).pX).).).pX).pXJ J 6.sX(.J 6.4.H pX).).).).`.).6.6.).).).w.y.mXMXSXNXCX1XQ h.w i i A.L.zXE.L 6._.J J J J J H sXpXJ kXbX}.iX~.5.5.J 7.D G E.J 7.3.S 6.2.G sX`.).6.pXJ 5.J J 6.6.).6.J 7.3.G 5.J 5.J gXW.^.D 5.6.).pX6.6.pX).).sXpX).J 6.6.6.6.5.J pXpXpX5.J ).6.5.6.5.G pXJ 6.6.J 5.6.J 5.9.;.b G J pX6.C C G J J n Z d.CXNXMXNXu.NXt.( 3Xz.% w e Z.a >.D ).{.sXhX!.pX).).).J pXhX!.sX(.pX).pXpXD 6.6.J 6.pX).).).).6.3.).6.).J J pX`.D G 6.).7.5.J J J 6.).[.pXpX5.G ).pX).J J 6.pXpXJ pXpX).pXpX5.J pX6.6.pXJ 5.G J pX).9.<.R.sX).sXuX(.pX5.7.J ).`.pXpXpX).).G F 5.J ).pX).uX).).aXgXjXjXlXCXu.i.t.BXi./ h B.C.V.C.e n 6.).).).pX).F ).).pXaXN S pXsX^.H 6.6.5.J pX6.uXH 7.D J sX).pX).pX).).pX6.J 6.6.J 6.J (.7.6.^.6.J _.`.).).).).pXpX6.G ).).).pXpXpX).",
").).).sXsX6.6.pX(.pX>.B sXsX5.G ).6.).F J ).pXpX(.w.$.!.pXJ ).).pX).J bXXX).^.pXpX).6.pX4._.lXmXs.u.CXa.MXiX0XJ.V.G.w F.J 1.h Z ).J (.).J ).H aXiX'.).aX(.).).).).6.pXpX).pXpX).).6.).).).sXpXJ fX~.J ).pXJ 6.J pXpX).).).pXdX^.H ).).pXuX(.pX/.pX`.~.`.).).).6.J pXpX).).).J 6.5.6.).pX).).J A J 6.6.J J 6.J J ).).sX'.`.pX5.J pX).J ).).J ).J J 6.J H ^.pXjX/ mXi.d.i.NX1XQ % w i i w n sXhXE.!.J J J J J 6.J G 5.J sXyXJ ).pXaX^.J 6.sX^.J 6.aXrX(.7.rXH 5.).pXpX).).).).5.J 6.6.J 5.4.`.).).pXpX).).sXpX`.pX6.C F sXpX6.D ).>.l J 6.G 5.6.pXpX).J 7.5.).^.6.4.J 6.aXD J ).).pX).6.pX).6.uXxX<.j H J pXrXV ).(.pXZ L d.CXNXMXi.t.i.CX/ 1Xz.h.C.Z.V.e d m ).J J ).H J ).pXJ 6.J pX^.).`.pXpX6.pXuXD J pX).pXpX6.J J pX`.).uX`.).J ).6.`.).J J sXsXpX).6.J 6.G 6.7.7.~.).6.6.pX).pXJ pX).J pXpXG J 7.S pXpXpXpX9.V !.).6.6.`.{.pXpX).6.sX).6.pX).`.).).J ).pXpX).gXS (.).G 3.6.J J ).pXhXgXzXMXCXmXNXu.p.t.( - B.w C.C.Z.Y.).).(.`.).pX6.H J ).sXhX^.J 0.A !.pXsXpXJ 6.pX).sXsX`.`.`.sXsX).).J 5.J ).pXpX).).).`.).uXsX`.`.sXJ H pXJ ).J ).pXpXsXA J 6.6.J pX).",
"6.6.6.J 6.pX).`.sXaXyX'.6.6.q.M (.sXrX(.J G 5.6.J gXbX(.6.).).).pXpX(.F 6.).).pXJ J ).J sX!.%.p.t.i.s.ZX%.fXe.g e G.C.J.).hXcX~.J ).(.J J ).J J ).).).sX).J pX5.G ).pXpX6.6.).).J ).).).pX6.^.).D pX).pXpXpXpX(.5.D (.).).6.).fXA A (.6.pX).).).pX`.`.J J J 6.pXJ J ).).).pXJ ).sXJ 6.6.J J :.2 m 6.6.).).pX).J G G J 6.G 6.).).pX).J G 7.F J 6.J 6.J J J J 8.1Xy.NXd.BXBX1Xz.h.w G.i w n 6.J pXF J 6.J J G J J J J 8.*.G 6.J 5.J pXJ pXJ 6.6.J 6.pXpX).5.z ~.pXJ J J J 6.5.6.).6.J J fX(.J ).pX7.5.J J 5.J pX).gXe.N F 7.6.6.6.%.g B 7.J 5.F 5.5.5.5.pX`.).6.7.6.J 5.).sX`.J J 6.6.5.F ).7.H jXPXXX~.6.J 6.pX).J 6.K L w.CXNXi.BXmXBX1X^ ( z.h.C.Z.e Z.|.L.M ).pXJ J H J pX).).).).pXJ J 6.pXpX).pXpX(.).sX6.pX).pXuX(.6.).pX5.G ).pX).).sX).J >.C J 5.5.J ^.J 5.^.`.`.6.pXpX).).).).pX).).).pXsX).sX`.).pXpXpXiX{.`.pX).`.).6.).).pXpX6.J ).).pX5.J ).).).).).).sX`.).aX$.Y._.`.`.6.G ).w.e.MXmXu.NXNXmXlX2Xg B.C.C.V.j.B ).).(.).pX6.uX(.).(.).pXpXaX1.R.).J 6.pX).`.`.pXJ 7.A (.pX3.C pXpXpX).`.pXpX).pX).).).pXpX2.D pXD ).J 6.6.6.J J pX).aXyX`.sXpX).).^.",
"6.6.7.J ).).sX).pXpX).6.6.J jXQ.!.6.iX[.sXaXH J pXJ J pX).).).).6.).).).pX).J pXpX).pX<.V C MXmXi.NXNXa.%.N e.a V.w V.J.sX).J ).J (.).).D D J ).).J 5.J sX).).pX^.).pX).sXuX).).pXJ ).J J uX(.9.K F J 5.5.J pX).7.~.).J J ).).aXhX/.J J ).).).).7.C 6.).J J 6.).).).J 6.J J pX5.J pX).).).fXi.~.T.pX).).).pXpX`.sX`.).uX).J J J J ).7.N )._.8.K H pX).).).pX7.VXi.u.d.y.NX1X;X% w i p w g 6.J ).).J 5.(.).pX6.J 5.5.7.yX(.6.6.J ).J G J J 6.6.J 6.6.5.6.%.R.!.6.6.J J 5.6.).).6.J 6.J J pX(.7.6.6.pXJ 5.5.G J 6.aXSXwXB 7.D pXJ bX+X'.7.J pX6.J pX).pXJ 6.6.pX).pXpX).J J J aXD J 5.fXH G pX).5.iXQ.6.5.D 7.A H J ).).Z gXZXCXBXBXNXu.a.3X2Xz.% C.V.y P.Q.}.hX).7.>.!.).(.).).).).J 5.J J 5.J ).pXpX).`.J 6.pXpXJ ).sX).4.V 5.fX~.J ).pX6.5.J pXkXR.).aXD (.pX6.6.D H 6.pX).pXpXpX).pX).).pXpX).6.6.6.J 6.7.J ).).).6.).J 5.>.K 6.pXJ 6.pX).).J 6.6.).6.J pX).).).J 6.).sXcX].J C *.N (.H e.1.SXa.i.u.u.NXd./ l.B.w V.V.u M N C (.J ).pX`.`.J ).).6.pXsXhX^.pXpX).).^.).sXpXpXsXiXH 6.gXR._.sXsX3.K ).sXsXsX`.pXJ ).6.tXY.aX_.).J ).).pXsXJ 5.C ).).5.pX6.5.H ).",
"pXpXpX_.).pX6.pXpX).pXpX).pXJ [.^.6.J J pX`.sXA ).pX).).).).).).pXpX).pXJ J ).J pX).6.hX/.uXlX1XBXNXNXa.DXtX1.F.w w C.u C G ).J `.J J (.sXpX(.).pXJ ).).J pX).).).6.5.).).pX).pX).pXJ pX6.J J dX{.`.J (.sX`.).pXsX_.sXsXpX).).pX).).`.`.).).).).gXV !.pXpX).`.sX).).).pX`.J ).pX^.).`.`.).).nXU.(.6.J ).pXpX).).).uX).6.5.uX_.sX).G pXQ.).^.`.[.).J J J J 8.2.y.NXNXSXSXBX/ ! % e H.H.e g pX6.G J J ).F J 6.J J J ).).J pX5.7.H 6.8.H pXJ D 6.5.3.5.5.J qXh F 7.J 6.J 6.J 5.J ).pXJ J 6.J G J 6.).6.5.7.pX`.J 6.J gXQ.).8.J ).,.L 7.7.6.J 5.4.(.6.6.5.6.6.6.3.D 5.6.6.J J J J `.0.@.~.`.<.K 5.pXH G 6.).).6.{.).J F ).!.gXNXCXu.i.NXa.mXmX( ; h.w V.y g Q.H ).).aXrXL H (.pX).J J 6.7.G J 6.(.J pXpX).J 6.6.6.6.pXJ 5.6.aXuXH sX_.sXD C ,.z !.pXhXiXJ pXsXJ G )._.[.).pX).J 6.3.J pX).).6.5.J 6.pX).pX`.6.pX4.H J pXpX).pXpXfX~.J 6.6.J pX6.2.H pX/.).sX).).).6.).pX).).6.G 5.aX,.X.f _.).xXjXy.a.NXNXNXmXMXCXl.B.F.V.C.w L.yXW.(.).H ).).J pX).G D D 6.7.`.G 6.).pX6.J 6.6.J pX).).6.).`.J 6.pX1.g ).).pXpX6.J ).).pXhX_.).).pXpX).7.*.v 4.h B J pXpX).1.B H J ",
"pX7.D H 6.J pXJ pXJ 6.).pX).).J 6.).pXJ pXJ 6.hX(.pX).).).).).pX7.8.D pXJ J ).pXD 6.).J pX7.e.VXVXu.i./ e.tXyXJ.e w A.w g S H ).J pXH G F pXJ J 6.).J pXJ J pX).J 6.`.).J J J pX6.J ).).pXpXH pX).sXpXZ 6.).6.D ).J 6.J pXpX6.6.(.J ).6.H J J J aX{.!.6.J ).2.v J J ).).pX).(.aXS J 5.*.D pXuXQ.).`.).).6.).).J 7.5.3.S pX).).).aX/._.pX)._.J ).).aXD J J 9.9.%.a.i.SXSXu.( ;X% e i G.A.a 3.2.H J J J J G 6.6.J ).J 7.G 6.pXpX).7.`.(.pXpXpXJ 9.E.pX`.(.zXwXB ).pX6.6.J 6.6.J J pXpXJ ).pXpXpX).).6.pXJ (.6.pXpXpXJ 5.6.pXsX6.tX'.6.6.6.6.6.pXD pXpXpX5.J 7.rXZ 6.J pX).J ).J J q.Q.(.G aX`.J (.).1.N F 6.J J 5.6.G H Z 9.y.CXNXBXu.mXZX( ) : % F.e D.T.G pXpX6.6.gXR.!.(.).).6.).).sX/.).).pX).).pXpXpXpXpX).pX).pX).`.sXsXD F J 6.gXtX0XL._.pX6.pXsX).pXaXA N G J 7.J ).pXaXrXH 6.J 6.).pX).pX).6.).pXpXpXdX^.G H 6.J pX6.`.`.8.F pX6.G aXiX!.).pX6.6.J 6.6.J ).pX).).pX).F aXbXnXP.K C aXxXVXCXBXu.i.mXSX1XL.B.C.V.w F.W.F G ).).).J J J (.sX`.`.pX7.).7.D J D J pXpX).pXpXJ pX).sX^.6.6.J 5.hX XJ 6.2.F dXS ).pX5.C J 5.G J ).).sXqXh ~.sX).).).pXpXhX{.^.).",
"pXaX^.J 6.J pXpX).pX).).).).).).).).).pX).dXV (.pXsX`.).).).).pXsXhXE.pX`.`.7.;.;.B J ).).9.lXlXCXNXNX1X#.iX<.g V.C.r V.L.sX).J ).).).sX).J J 6.D ).).6.J ).J ).pX).).).).).pXpXsX).).).5.`.`.6.D 7.4._.).pXiXsXD ).`.^.6.pX6.^.(.pXJ uX`.6.J ).).sX).).).pXkXY.!.pX).pXpXpX*.C ).J e.e.g K pXJ J J pX6.pX6.J ).sXsX/.^.5.D J J ).`.pXsX_.).pX).).pXsXH J aXw.p.mXNXSXMXu.1X! % e i i i u >.F Z ).6.J J J ).pXJ J J pX`.pX6.6.J pX>.L pXJ 6.6.pXpXJ J 5.pXhX`.6.6.6.J J pXpXpX3.b F 7.C D J pXJ 5.6.).`.5.5.).6.pX6.5.J 6.5.2.K ).6.6.6.6.J pXJ J 5.7.6.J pXsXG 5.7.G G ).3.F pXpXJ pX6.J ).pX).J gXQ.D J 7.D D (.`.!.Z aXi.a.NXNXBXmXmX2X<X; & V.Z.u L D J J pX9.uX].(.).J pXpXpX3.H pXpX).).).6.pXpX6.pXpX).pX).).6.2.G 7.$.@.f L aXjXjXR.J pXpX).5.J 7.,.:.@.d K J ).).pX).pXpX).).pX).6.pXpXpXpXJ pX8.C J sXsXA G D J pXD pXdX'.).dX[.`.[.J G J 6.J ).J ).).).).J 6.pX9.N (.gX0X].aXS ).zXVXt.BXCXi.BXBXCXI.y C.V.V.u f <.M Z ).).`.).).J G J 5.8.S `.dXsX`.`.).6.6.).).sXpX).).pX6.6.sXpXpXH 6.pXgXrXZ 7.(.5.6.tXR.).sX).).6.J J iXcX).pX).).pXpXpX).pXpXJ ",
").fX^.).pX6.5.J ).).pXpX).).J pX).pX).6.).pXiX`.).pX).pX).pXJ ).pX).6.6.J 5.9.SXh T.6.J 6.sXxXp./ NXmX1X$.R.%.u V.C.A.V.Y.5.G J J ).).pX`.`.`.sX`.6.).pX(.).pXJ J ).pXpXpX).pX).).pX).pX).J J sX`.sX`.pX).).6.pXuXH ).6.).pX).`.).).pXJ 6.pXJ J 6.J ).).`.pXhX{.).pX6.).6.:.1.Y.C *.9.xXM j pXJ ).J 6.6.J pX).J pX`.pXpX).).).J J J ).).).).).).pX6.pXpXH dXzXSXt.NXSXy.u.2XQ h.Z.i i G.F.Q.hXZ J pX).J J G J J ).J G 5.J pXJ ).7.y.d F 6.6.6.6.6.J pX).).J 5.J ).6.pXJ J 6.).q.g n 3.E.(.6.5.5.5.J J J 6.J 5.5.J pXpX5.5.pXiXR.6.6.pX6.6.6.D ).6.6.6.6.J J aX`.pX).9.B G <.~.5.6.6.2.G J J J ).6.J pXpXJ pX`.^.).J J !.7.u.a.MXNXBXmXa.2X2Xc.& V.C.% a sXJ <.K sX{.`.Z J J J 6.).iXH 5.).`.).6.).pXpXpX).6.J 6.J 6.aXtXY.7.hXeXI.R.2.sXyX!.).pXJ pXsX6.7.lX9.Q.I.~.8.N F J pXpXpX5.J J pX).).pXpXsXpX6.zXh S J pXfX'.`.pX6.6.H pXJ J J 6.J 6.6.).J pX^.).pXJ ).J pX4.J ).zXrXZ sX_.7.J `.pXw.MXCXy.t.BXi.NXs.g B.C.C.C.w j.W.jX~.J J J ).).pX`.J 6.pX_.J 7.G 5.>.J pXpX6.G J 6.J 5.5.J ).).pXaXD F pXpXhX`.).).6.J sXsXH pX).).pX).pX).J pX^.).).pXJ J pX).pXpX",
"pXpXsXD ).pX`.).6.J ).).).pX).).).J 2.K H 6.J 5.J J 5.J 5.6.(.6.5.J ).).aX).sXbX|.'.pX).^.pXtXt.i.BXt.CXeX3.q.C.w r r Z.Y.fX!.J J F J (._.J J pXpXpX).pXD H sX).J H J pXJ pXJ J J pX).).pXJ ).).).J 6.).pX).`.`.`.`.pX).).sX).J ).).pXuXH 5.pX_.pX/.6.J F ).).J J 6.6.).9.yX|.`.3.6.pXq.P.L.J ).J J pX).pX).pX).).pX).).pX`.^.).).(.(.pX).).pX).).pXpX).(.J jXqXmXu.SXy.i.1X; h.Z.i i r L.).7.`.J H ).J G J J J J 5.J 6.3.D pXJ 5.DX0Xm 5.5.6.6.7.3.H pX6.J 6.J J 6.J 7.G G 2.jXXXhX/.<.F 6.6.J pXJ J 6.pX6.6.6.8.-.G 7.).).).pX6.6.6.6.6.pX).J 6.6.6.7.D J 6.J 6.6.pX`.pX~.pXJ ).9.<.!.).pX).J 7.3.J sX).).pXJ ).J J Z 7.u.CXMXNXMXmXmX2X^ : j.e C.B.J.aXJ sX{.(.).`.`.H ).pX^.).8.V (.H ).6.).).).pXpXpXpXpX(.`.).sX[.sXsX^.).dXgX$.m `.sXJ pX6.J pXsXdXnXxXz E.aXuXQ.^.J 6.J 6.pX).).).).pX6.6.6.pXpX[.sXfX_.).).pXJ 6.pX).).6.J J J pX).).pXpX).).6.J J ).).pXJ sXpX).gXQ.H ).6.uX).J 7.9.lX1XBXp.i.i.mXa.g B.C.V.w Z.K.).6.7.K (.).(.pX).J pXpX).4.J `.[.aX/.!.pX6.aX^.).pX`.).sX`.).5.J aXpXH ).pXJ `.sX).sX`.pXJ (.7.J J pXpX(.`.pX).).J ).pXpX).).).6.5.",
"6.J pX).).pX).pX).).5.G ).pX6.).J ,.h '.J 6.).pXpX4.(.pXpX`.`.sXuX_.pX).pX`.).).pXpXpX).).aXq.t.y.u.a.CXmXfX0Xu u C.A.Z.R.sXD J ).).F J J J J 6.J pXuX)./.^.pXpX).`.J pXJ pXpX).).).).).pX^.^.pX).pX).).).`.).5.J 5.J J ).).pXpX).pX).sXpX<.(.).J 6.).fXV F J pX6.J uXpXfX].hXjXaX2.;.W.XXW.J 8.G D J ).).).).pXJ J 6.D ).pX>.H ).).5.F (.pXpX6.J ).pXJ ).pX7.i.t.BXSXi.i./ z.h.V.i i C.R.0.N H pXH J pX).J 5.C F pXJ J fXS J 6.5.^.yXiXG G J 6.7.uXJ 6.6.6.6.6.J 5.J pXpXaX'.(.5.G 9.0XT.pX).).pXpX<.S 5.6.6.J gX0Xn pXpX6.J 5.G 6.6.6.6.J J 6.6.6.7.).).pXpX6.5.).).J ).pXJ J 5.sXiXJ ).).J 7.4.rXS J J 6.J ).J J pXZ 8.u.t.i.i.i.a.CX1X2Xc.j.V.w V.a V ~.F ).).).(.pX).J pX).6.fX!.sXJ J 6.J pX).6.pXpX).pX).6.J J 5.7.^.).pX8.^.jXP.(.aX6.J pX5.F 6.aXsXnXXXH dX_.).sX).).pX`.).).).pX).pXpXpX).).).pX6.).).pXJ ).sXpX).pX).pX).).J pXpX).).pXpXJ pXJ ).).pX7.J J 8.A 6./.`.`.`.).).).aXw.q.a.i.NXNXBXt.CXI.y C.V.w Z.].pXpXfX].J ).J ).pX).J pX_.hX^.H 5.pX`.G 5.J `.`.pX5.J 6.J pX6.6.).pXsXJ H pXpXH pX).pX).pX).5.D ).(.).pX).6.pXpXJ ).J J ).).).pXpXpX",
"uX_.pXpX(.pX).pX).J gXE.J 6.).).aXyXQ.).).sX(.`.sXsX`.8.H pXG J sX).).pX).).).).pX).sX).4.6.SXt.BXu.NXCXp.E.qXC.F.C.r Z.Y.aX^.(.).).4.~.`.).).).6.D pXJ J 6.D ).J J J J ).).J 6.J J ).).).`.).pX).).).).).J 6.<.K ).J H ).pXJ J pX).pXpX).pX).pXpXpX(.J tXV Z 6.pXpXD J ).6.J dXe.V P.XX`.).J iX'.uXJ J ).pX6.).pXJ J ).).9.rX!.J J aX!.(.pXpXdX_.).sX`._.aXdXt.NXNXMXBXu./ Q h.V.i i w B gXQ.).J J J J ).6.9.D Z J 6.J 6.pXJ 5.).).G pXsX`.J 7.6.).6.6.6.6.J pXpXpX).5.J pX`.6.pXpXJ {._.5.J 5.J pX`.).6.6.6.7.pX{.`.6.5.3.J q.M J 6.6.pX).6.6.6.6.pX(.6.5.6.6.pX).6.5.J 3.(.pX).J 6.D H pX).pX/.pXJ J J ).pXJ ).`.pX!.aXBXCXBXBXi.t.NXCX2Xl.B.V.V.w h.Y.pX_.).).).).J ).).6.7.(.sX).J pXJ 7.J J 6.pX).J ).).pXpXpX).5.H G 3.6.iX_.`.[.6.6.pX).pXiX`.4.(.)./._.sX).pXpX).pX).).sX).).pX).pX6.pXpXpXpX6.6.J pXpXpX).).J aX6.D 5.5.).J J J 6.6.J 5.J 5.G 5.F J pX`.`.pXpXsX).(.).6.6.).).).gXzXqXa.BXu.BXBXCX^ J.Z.C.V.V.F.).pXpX`.).J J ).).).pX).`.J 5.6.6.G ).pXsX`.`.).pXaX`._.sX6.G 8.K F pXpXsX).J 7.F ).pX6.).8.K 8.K A (.J J 5.G ).pX).).).pXpX).5.6.).sX",
").).6.).pXJ J ).).pXsX`.pX`.`.pX).).J pX).).pX5.5.G 5.fX~.J `.J ).pX).).).).6.).pX).).aX4.(.lXVXNXNXNXa.^ R = B.w A.w J.`.pX).).J ).).(.J pX).6.6.^.pX8.S `.^.).).pXpXJ ).6.6.).).).).).).).).pX).).).).pX`.sXiX_.`.sX).J pXpXJ ).).).).).).).pX).).6.G gX{.3.K ).dX/._.pX).pXpXyXQ.`.sX).pX).J J ).pXG ).6.pX).pXpX).).).).{.).6.S _.).(.).pX).`.pXsXpX).`.gXmXNXBXMXNXt.( - % G.i i C.g aXJ J J J J J 5.J dX[._.5.pX).).pXpX).).6.6.6.6.6.J ).).5.J ).6.pX5.G 6.5.6.6.J 5.J J J ).dXA J 6.J pX).6.J 5.5.5.6.).).5.5.6.1.E.).dX`.J 6.pXpX).pX).pX<.K J 6.).).6.G J 6.pXpX`.J 6.J 6.pX/.J G J J 5.5.).).J J 6.9.V (.).(.7.p.s.BXi.i.NXNX1X2Xl.h.C.V.B.J.F ).(.8.3.H ).).J J pXsX(.).dX;.M `.uX`.pXH ).sX).).).J pX).sXfX~.8.~.sXJ J ).7.pXpX`.pX).pX7.uX`.).).6.G ).).pXpXpX).).).).pXpX6.).pXpXpX6.J ).pXpX).pXpX6.(.pXJ sXpXsX`.`.`.sXG J pX7.3.H 7.5.5.F Z pXJ J pXJ pX~.).5.J ).).pXJ 9.8.%./ p.u.i.y.CX<XJ.V.C.V.V.u z C (.pXJ 5.!.).).).pX`.).sXpXpX/.`._.sX).5.C pXpXsX`.5.J gX<._.dX(.5.5.J ).sXpXJ G 6.pX).sX[.jXh B J 7.2.>.S C F 5.5.2.F 6.5.pXpXA ).",
"pXpXpX).).`.pX).).pX6.6.(.6.6.).).6.J J ).J J pXpX_.`.`.dX~.).pX_.pXpX).).).`.).6.).).7.uXpXzXmXu.BXu.CX2X#.a Z.i C.C.p J pX6.J J ).J F J ).).pX`.pX6.sX`.J 5.).pXpX).).).pX`.).).).).).).J ).).pX).J ).pX4.6.).(.pX).).pX).aX^.).).J 6.J J J J pXpXpX).`.sXgX'.J ).).J 6.6.D J J 5.J ).6.).pX7.F (.dXE.J 6.pX).J 6.J J ).J G J ).^.J J H ).pX).).pXpXpX).J 9.mXNXVXBXi.a.AX;X% A.i i r g 6.J ).8.H J J ).6.J _.5.J ).pXJ 6.6.J J 5.5.6.J 6.pXJ 5.J ).5.5.5.pXJ J 6.).uXD J 6.J ,.N pXsXD 6.J 5.6.6.J 6.6.J pXJ 5.pX).6.uX`.6.6.).6.6.J pXJ pX6.6.fX/.H pXJ 5.5.uXH 6.5.J 6.J pX).pX).J 6.E.J 6.6.`.).5.J 5.J uX'.G F J 0.p.NXi.NXBXu.i.1X( : h.C.w Z.W.'.(.pXfXsXZ ).6.).J ).pX).J 7.qXL.(.sXpXpXJ D pX).pX8.A G D J sX).uX`.sX`.`.pXpX).`.8.A ).5.pX(.J pXJ dX'.).pX).pXpX).).).).pXpXpX).pXpXpXpX).).J 6.6.6.5.J ).).pX6.uX!.sXpX6.7.aXF 5.7./.`.pX[.{.{.~.6.pX6.).sX`.`.pXJ ).6.6.J 7.0.:.%.CXMXmXi.MXCX^ a V.C.V.C.h.P.E.H J pX/.Z J ).).pX).pX5.5.(.pX).J 7.).gXV Z pXpX6.sX`.pXhXJ ).sXpX).pXF 0.K pX_.pXG pX2.C 9.q.j S sXxXP./.w.b (.pXrX~.5.).).sX[.).",
"J 6.).).).J ).).).pXpX`.).pX^.4.H <.~.).).uX(.).`.sXJ sX(.8.>.J ).pX).).).).).pXpX).J 9.V `.jXmXNXNXNXCX( qXp B.C.C.C.u ~.pXsX).).).pX).H H ).pXJ 7.J ).6.pX`.).pX5.).pX).).6.J ).pX).6.D 5.J J J J ).J 6.pX(.).).).).pX).J pX).J pX4.H pX(.pXJ J pX).J J ).pX`.).).).).).pX`.).pXJ J J pX(.6.gXR._.pX/.J ).).pX).).pX).J 9.K Z ).).).J H H J pX).).pXpX6.).9./ VXVXu.u.s.AX! h.A.i i r L.7.6.5.J _.J (.6.J ).J 6.J G 5.6.J 6.).7.J J 6.7.G ).6.6.J 7.<.S ).).pXJ J J 6.pXJ 6.6.jXXXH 6.).J 6.).).).6.J 6.).pXpX).6.5.7.J J pXpXpXpXpXpX6.6.J 6.7.D sX).5.5.sX(.pXpX5.6.J J J J J J 6.pX(.).pXJ 6.J 6.pX).).).H J ).H J e.y.u.i.NXBXNXNX/ ( : B.C.V.e n (.pX(.sXsX_.).).).).).pX).pX`.[.[.H pX).dXV H ).pXpXsXhXiXD J 5.6.J J J pXJ 6.6.J J e.g sXsXsXpXH ).pXpX).).pX).pXpX).).J pXpXpX6.pXpXpX6.).pXpX).pX).pXaX,.M J 6.pX`.J 6.6.8.H sXq.z {.{.hX`.`.`.pX/.J ).pX).J ).6.pX1.B 6.7.J 9.w.e.d.a.y.a.BXBXNX^ & V.C.C.V.J.{.pX6.).).pX(.H J G 5.5.J pX).J J 5.H pXJ 6.`.J G 6.).pXpXpXJ ).).pX).).pXpXjX!.J J 8.`.pXtX].gX%.L.{.6.).iX).xX}._.sX[.dXD (.pXpXJ 6.",
").pX).).).pXJ J ).).pX6.6.).6.sX`.[.[.J ).6.J ).6.6.(.J 6.1.E.`.).).pXD ).pX).).).sX`.sXsX).e.1Xu.NXu.CX1XMX- B.C.C.C.w n 6.).).).).).).(.(.J 6.).pX(.J pX).).).pXuX).).pXJ 6.J J 5.J pX`.pX`.).J J ).).pX).uXD J ).).pXpXJ ).pX).).sX).).).pX).`.sXsX`.7.K H 5.H ).).).J 6.7.D J uX).).).J ).sX'.J ).).pX).6.).).pXpXpX).uX{.!.J ).J J (.J D J J J 5.5.pX).q./ y.NXNXZXt.BX! h.r i i A.a 5.3.).F J J J J ).J 6.6.5.).).).).pX6.pX).J G pX).5.7.J 6.6.iX(.6.5.J ).6.J pXpXJ J 6.J F ).6.6.J 6.6.G 5.6.6.5.J 6.5.5.D 6.uX`.pX6.J J 6.J pXpXpXJ 6.5.).5.7.,.M ).pXJ 6.pXpXpX6.D pXJ J ).).5.5.J 6.).).pX6.6.J 6.G H pXH ).kXi.NXBXBXBXCXu./ 2Xc.B.C.C.B.L.H 5.J J ).).).).).).J ).pXJ ).).7.H J pXsX/.`.).pXpXJ J aX<.H ).).sX9.>.L 6.).pXpXJ jXQ.J pXpXsX`.J ).pX).pXpXpX).6.6.5.J J J pXpX).).pX).).6.pX).6.`.`.dXbX'.pX).).).).6.J sX`.pXtXQ._.pXpXsX`.sXsX`.sX).pXpX).).pX).hX/.).sXpXdXjXxXu.a.MXu.BXy.s.^ j.V.C.V.C.e B q.M ).J J ).).J ).).pX).).pX).pX`.).6.pXpXJ ).pXD ).pXpXfX^.`.).6.).).).pX`.gX;.b C v C sX[.sXyX/.).sX).(.sXsXpX5.H 5.7.rXM G 6.).6.",
"pXpXJ 6.J 6.pXJ F J 6.).`.pX).`.`.6.3.D ~.7.D A 6.D J (.6.`.`.pXpX).pXuXF 6.G ).).).).pXsX9.e.p.ZXBXt.u.1X1Xj.B.C.C.r Z.Y.6.).).(.).).).).J J ).5.J pX).).).).).pX).).).pX).pX`.6.uXV F pX6.).6.J J 6.J ).J ).pX^.J J 6.).pX).).pX).).pX5.J ).).J 6.J ).dXhX(.iX/.J G 6.).pX).`.).J 5.J J J 8.-.L J ).6.J J pXJ J 6.J pX).J ).).J J J J J J pXJ J J aXJ (.`.e./ i.i.NXBXmXu.! h.i i i G.w B ^.`.pXJ J ).).J 5.6.5.).(.).7.H pX).pX6.6.>.Z 6.J pXJ 5.J J 5.J pX).5.pX).5.J 6.J 6.pX).J 6.).pX5.7.(.).6.7.^.J 7.6.(.pX).`.6.6.pX).pXpX6.6.J 5.5.6.pX5.2.H jXW.J D ).6.pXpX6.pX^.J 6.J J 7.D ).J ).).6.5.6.J 6.6.aXR.pX_.(.lXBXNXNXBXu.u.NX2X! : B.C.e F.XXuXV ).).J J ).pX).pX).).5.).(.2.H `.5.J 6.6.5.J ).pXpX).6.sX).6.G J dXcX].).).).pXpX).pX).pX).).J 6.J pXpXC G pX6.pXpX`.`.pX).).pX).pXpX).).).pX6.6.J J pXpXpXpX).pXD 5.(.`.sXpXpX_.).pXpX`.`.).).7.J pXpXJ pXpX).G G ).uXH pXsX{.jXxXZXBXmXBXNXi.mX2Xj.y C.V.C.Z.a jXQ.5.D (.(.).)._.`.sXsX).sX6.J J pXpX).dX).(.dX/.J 6.3.uX_.).J 6.J 6.6.J 6.gXxXT.9.3.T.).J 5.5.uXH sX`.pXJ 7.7._.pXuX_.dXQ._.pX6.(.",
"pXpXpXpX`.).pXpX(.).).).).sXpXJ 5.7.`.[.`.sXhX/.uX`._.`.).pX).pX).pX).aXJ aX^.(.).).).pXsXzXSXmXi.NXCXNX1Xp.J.h.G.C.G.C.Y.sX).pXH ).).).).).J pXuX_.pX).pXpXD 5.J ).pX).).pX`.).aX).uX^.J pX).pX).).`.`.6.).pX).).).pX(.).).).).pX).J 6.sX`.).pX).).`.aX4.(.`.).).aX<.!.pX6.J G J 5.5.F pX8.9.7.x b K 6.sX).pX).J pX6.J J pX_.8.H ).).J ).J J ).).J J sX_._.MX/ NXi.BXi.mXZX! % G.i i i w R.J G G 5.H J J 7.G J ).J J 6.pX).5.G 5.J 6.hX(.6.7.J pX).).J 6.J 5.5.6.H 6.).J 6.pX6.H G 5.5.5.G 7.(.).5.5.pXpX).sXpXD J 2.z 5.6.J J 6.6.J pX6.pX).pX).w.V !.5.6.pX`.pX6.7.D pXJ ).pX).6.D ).`.6.).J J 6.pXpX7.D 6.(.!.).(.pXq.BXNXNXBXBXNXNX/ <Xl.B.C.y J.sXaXE.pX5.pX(.J ).).J ).).pX).7.9.Z ).dX8.F pXsXJ ).pXpX).pX).pXpX'.).).`.pXpXpXJ J ).pX).pX).pX6.).).).J aX:.f _.pX).).sXpXpX).pX).pX6.6.J 7.>.G 6.).pXJ G J ).pX2.K iX/._.G C 6.pXJ H pXpX6.5.^.J sX`.).sX/.).).aX,.M H 7.J (.`.(.w.zXZXZXu.BXNXMXCX<Xj.y C.V.C.Z.J.F pXsX_.).D ).).(.6.J 5.6.pXsXpX_.J `.sXsXaXA J pX6.6./.`.).pX).pX).J 6.6.J 9.:.b 2.}.].pX).sX).9.@.Z pX6.6.7._._.sX`.).).sXpX6.`._.",
"pXpX).).pXpXJ pX).J J pXJ G 6.).pX`.`.pXJ 6.J pX7.D J pX6.).6.C J 6.).7.E.pX).H ).`.`.`.aXw.SXNXNXi.CXNX1XAXj.B.A.C.C.C.R.pX).sX).J J ).).).).J ).J ).).J 6.`.pX).J J J pXpXpX).pXpX^.).).).pXpXJ pX(.1.V H J ).pXJ J J J ).).6.J J pX).).pXpXpX).H 5.8./.^.(.pX).pXfXK H pXpX).`.sXpXH ).dXhXjXdXv 9 M L J pX).).pX6.pX).).).aX`.H pX).J J J J ).7.F F (.J SX1Xu.MXmXt.BX/ ! h.i i i p w Y.dXsX3.(.J 5.J ).`.).J pXJ J 6.6.pXpXpXJ J 6.5.6.sX).6.).6.J 6.).pX(.J J 6.6.6.J 6.6.6.5.D J sX).).pX5.6.6.J 6.6.7.5.).sXe.b m pXpX5.J 6.).pX).pXpXpX6.gXXXD J 6.(.6.7.5.J J 7.S J 6.J ).J 5.J ).).).J J 6.6.pX).6.5.M ~._.8.1.i.i.NXi.BXmXu.1X) : % w V.u C pX`.<.~.`.).).J J ).).6.(.7.,.2.R.(.aXfX].pXsXsX).6.7.V ).).pX`.).6.D G J pXpXuX3.N G ).pXpXfX(.pX).).pX7.nXW.).pX).).).pX).pXpXpXpXsXsX`.aXyX'.).pX).pXpXJ D 6.hX'.).5.3.e.M m sXsX_.6.6.sX/.).).).pX).J pX).(.9.xXE.B pX_.(.).uXdXxXu./ NXp.i.i.a.<Xj.V.C.V.C.Z.a ).J pX<.K G Z J (.pXpXpX).`.pX).,.z K 5.5.6.`.6.J sX).).pX).pX).pXpX6.D ).).gXnXQ.W.'.C ).pXpX).gXwXM C 3.D sX`.pXJ 6.6.J pX).sX`.).",
"pXpXpX).).pX).).pX`.7.A sXpX(.pX).J J 7.7.C (.aXaX!.^.pXiX^.dX[.(.).pXsX[.sXaXZ _.).`.`.gX9.lXVXVXBXNXt.a.:Xc.y p C.A.e n 6.J ).pXJ J ).pX).).).pX).J J 6.^.J J 6.J ).).J 6.J J 6.).`.).).pXJ ).pXG F 4.yX).).).pX).pXJ ).).).pXpX).pXJ J J J ).uX).6.pX(.sX).).pXJ pX/.J J 6.).J 7.0.K F pXJ q.9.kXM T.R.S ).).).pXpXD J J J J ).).).J ).).pXD F aXG L Z pXSX/ NXi.mXCXmX( ! h.i i i i i g C pXuX(.J ).pXJ J ).).6.J J 5.J 6.6.6.pXJ 5.).pX5.6.6.J J 5.6.).pX8.C H 6.J 6.J pXpX).`.dX>.K 6.G 6.J J ).pX).6.8.`.0.l %.}.].J 6.6.J pXJ J 6.G 6.6.6.sX).).).pXJ 7.pX`.6.J sXuX5.5.G (.7.).pX5.J J 6.J 6.pX6.6.6.7.tXV (.1.$.e.MXmXBXu.t.i.2X) - h.w V.e q l b G *.C J J ).J ).).).).zX0XT.S H pXsX).5.G 7.5.5.`./.J J ).pX).uXpX`.).pX).).kXB !.(.pXpXsXpXpX).).pXsXdXK J 6.).).).).pX6.pXpXpX-.F 6.).sX`.pX5.J J pX`.pX(.).7.8.`.zX1.}.Q.(.).).aXJ (.pX6.).6.D J 6.J J D 8.Q.cX'.`.`.).H ).7.e.t.t.NXNXBXVXZX( & Z.w V.C.Z.p H ).).dXhX^.S Z H 6.pX`.`.pX6.8.q.W.`.(.).J J pX).).pXpX).).pXpX).sXpX`.).pXsX/./.^.dX_.J 6.6.).).jXe.f V !.6.D 6.6.J pX).J 6.).).pX",
"6.5.).).).).pXpX).J gXE.H pXH J pXpX).pXsX'.(.pXdX^.J G 5.).).pX).6.(.sXD D gX].pX).).).dXxXlXBXmXBXmXmXCX:X& B.F.C.A.Z.g pX).(.aX).(.).pX(.5.J J pX).pX).).pX).pX^.).).pX).).pX6.).5.J J J 6.H pXtX*.L ).pXJ J ).).pX).).).pX6.).).pX`.`.pX6.(.).).7.^.).7.J ).6.pXpXJ ).pXJ J ).pXjX8.n pXaXzX[.iX0XT.].[.(.).J pX`.dX/.pXuXH ).).6.).(.).pXsX).7.dX(.m F lX1XNXBXNXmXVX2X:X% i i i i F.}.E.A pXH ).).).J J J J 6.J 7.J J G 5.6.J 6.6.J 7.6.J 6.6.J 5.5.-.G aX[.H 5.6.6.J J 7.5.G 5.hX(.7.J ).6.J 6.J 5.7.uX).e.;.R.g N 6.6.6.5.J pX6.6.J 5.5.).pXpX).6.J 5.G J 7.J ).J pXpXpX).2.f b K pXJ J J ).6.6.6.pXpXpX].Z G 3.eXlXy.i.BXmXmXBX/ 3Xl.% C.C.Z.s o.g S jXW.(.D J J J 6.J J pXcX XiXH G 8.G 6.7.D `.`.J 6.6.D (.pX).pXpX).6.6.J J 6./.(.J 5.J 6.).pX).).J J sX[.(.pX).).).).6.sXJ J 8.P.!.7.J ).pX6.pXpX).`.pXpX6.F pX/._.jXjXn aX6.(.).sXsX).J `.).sX).J 6.6.pXpX[.!.pX).).).pX).J aXzXBXmXNXu.y.MXCX1Xj.B.C.V.C.e s Z J J H sX`.'.^.(.).).).5.7.7.J _.sX`.sXpX<.(.6.).D 5.J J 5.G ).pXpXpX6.6.).aX<.~.(.).pX6.5.J ).J aXDXU.T.sXJ J 5.).pXH 6.6.(.).).pX",
"aX).).).).).).).pXpX).`.7.A (.J 3.F 6.6.J J J H pXpXsXq.M (.5.).pX^._.pXuX_.'._.pX`.`.).6.zXd.t.t.i.t.NX( 3Xl.y r C.C.C.n H ).).pXpXH J J pX4.~.).).).).).).J J `.sXpX).pX).).pXpXJ pX).pXJ sXuXG dXyXR.).pXuX^.J ).).pX).J pXpX).).pX).pXpX).).5.J pX^.J aX(.7.(.6.6.).J pXpX).7.2.uXjXm pXpXhXbXQ.Q.Q.H ).).).pXJ J pXpX5.H ).).6.J ).).J ).pXpXuX_.dXZ F w.1XBXBXNXNXVX2X:Xh.i i G.A.F.^.7.(.).uXH J J pXJ J 5.5.J 6.).pXJ 6.5.J 6.6.J 5.6.6.6.pXpXpXsXkXB G J 5.G J ).6.).pXpX_.).J 6.pXJ G 6.J 6.7.5.G J G kXvXXXW.Y.5.J 7.J ).J pXpXJ 5.J 5.6.6.).sX4.6.).G 6.(.5.J 5.J J 5.tX0Xg !.6.).6.J 6.6.J ).pXpX).H F C F q.NXd.u.i.u.t.t./ 2Xc.% C.V.w Z.e }.[.[.[.`.dXH ).).).`.pXG H `.sXfX`.<.~.6.).`.D 5.).sXaX`.).D J ).pXpXJ pX).).).`.`.pX6.).).).pXpXpX).`.).sXpXpX).).pX5.J 5.6.6.(.[.`.sX`.pXpXuX).sX`.6.7.J pXuXH J J G y.f L sX`.pXpX(.pX`.J J pXpXpX).pXpX(.`.).(.pX).J 6.).).pXlXp.CXi.s.y.y.u.<Xj.e C.C.C.e s j C `.6.J ).(.).H 5.6.J pX).dX/.).J 6.6.`.[.sXpXpXrX~.`.7.5.^.J 6.).pXpXpX).pX[.`.).pXpX).sX(.aX;.m hXXX/.pXpX(.sX).6.J ).`.).pX).pX",
"pX^.).pXJ J G 7.6.).pXpXdX{.J pXyX/.D pX4.^.8.N H 7.F xXXX(.).).sX).J pX`.`.).J ).).).).sXlXlXVXmXBXNXCX( p.J.B.C.C.C.C.Y.`.(.).J sX(.pX).6.`.).J J J J J 6.).^.).6.uX).6.J pX).7.E.).).).6.H sX/.J ).pXpXpX).`.).).).).).pX).pX).).).J J ).pX6.6.).).6.A ).pXuX).6.J J ).6.J pXaXrXR.jXT.(.sX8.K /.).).).J J 6.4.).A 3.7.uX(.J J pX(.).).5.H pX).`.`.sX_.F w.1XBXBXNXu.i.2X! h.i i i w L.6.J J G pX).J D J 5.J ).).).).6.J 7.6.6.C G pX).6.5.D J J 6.pX6.sX`.D (.pX^.).J 6.J 6.pXJ J 6.J 5.6.G G J J pXpX`.6.J dX(.fXcX).).6.6.J 5.5.G 6.7.J J 6.6.5.G 6.pXpXpX1.n 6.).pXsX).6.).).iX[.).J 6.6.J 6.).J J J ).).J J J H 0XBXi.i.NXu.CXa.mX2Xc.h.Z.Z.C.Z.h.M J G J ).gXV H ).).C ).).!.).uXfX2.^.4.D (.`.sX`.3.F aX~.pXpX(.J pXpX`.pXpXpX^.J pXpX`.uXpXJ 6.J pX^.).6.J pX5.5.F 8.^.).pX).`.`.pXpXpX).sX`.6.J 5.5.6.6.H J pXpXH 6.J qXU.!.`.pXpXsXpX).pXaX(.pXpXpX6.).<.~.pX).(.J pXpX).).).sXlXt.CXmXNXi.BXs.<XZ.e V.V.C.V.u g n ).sX).(.).).).(.pX(.sXsXpX).).).`.`.).G J pX).sX).J aXV `.6.J ).6.6.).pX5.H ).6.).pX).J pXpXyX].3.C J pXuXD 6.pXpX`.).7.F J ).pX",
"sX^.pX6.).7.h Z ).J pX).).pXuX).).pX/.`.iX(.gXQ.(.sX6.(.{.).pXJ J ).pXJ ).).).J J ).J J 6.jXnXt.mXBXu.CX( ! & Z.C.C.C.Z.Y.pX(.).).pXD J 6.H J J ).pX).).6.D ).).6.).pXpX).).).).uX`.).).sXpX).D 6.5.J ).pX6.J J J J 6.J J J pXpX6.J pXpX).pXJ 7.).).).aXrXK D ).6.sXuX(.J ).`.).`.`.pX)._.J 6.hX{.).6.-.v ).pXJ `.0.@.M iXD F (.).).).).6.uX!.pX).).5.J `.).dX1XNXNXi.NXu.2X:X% i i i r a 5.J J ).).J J ).J 8.H J J pXJ J 6.pXpX6.rXV -.C J pX).J 5.J 6.D 6.pX4.D 6.J 6.5.).pXJ pX6.J 6.6.6.6.pX).J 5.J ).).6.).pXpXH pX).6.6.6.6.(.8.^.J 7.F J ).pXaXJ G G 5.5.gX!.J G 5.6.6.).^.).6.F pXD J 6.4.J pX).).J ).).pXD J J q.y.i.i.i.i.t.CX/ ( c.h.Z.Z.Z.F.L.P.sXrXV H dX/._.`.pXuXA J G C J 9.{.].dXE._.uXJ 7.rX!.sX`.pXpX).).).).6.6.pX`.).pXJ J ).).pXpXpX).J J J pXJ pXpXpX`.A G ).pXpXF 6.pXpXpXpXJ pXpX6.pX).).sX`.uX).pX).).`.yXQ.J J (.pX6.).pXD `.`.6.).sXpX).`.`.6.).).).J ).)._.^.`.lXt.t.u.t.MXy.a.^ F.Z.V.V.w Z.=X*XW.Z ).pXH J H J 6.6.D G J sXJ ).).).pXpXpXJ J 6.5.6.J e.2 M sX`.sXpX`.).gX<.!.6.pX6.6.).J J 7.G ).iXQ.).pXpXpX).).J ).).sX8.N H pX",
"pX).pX`.).aXQ.!.pX).).pXJ 6.5.(.`.).pX6.J `.sX(.6.6.`.`.).).).).).J pX).(.J ).pX).).).).).7.d.t.NXi.u.a.1X:Xl.y G.w w Z.n J ).J J pX`.).pX).).).).pX).H sX`.J J uXD 5.).).).).J ).pX).).pXpX).).).`.`.).pXpX).).).).uX~.pX).).pXpX(.).).pX6.6.^._.).pX).`.iX^.pX).).pXpX`.J ).).).pXpX`.J 6.).pXA 5.0.%.g H 6.).pXr.;.g <.D ).G F J J 5.G _.`.pX).6.,.n sX^.dXi.u.NXNXu.BX2X:Xh.r i i G.u N D (.J 6.5.J ).6.pX(.6.J J pX6.J J 6.).).gXkXn F 5.J ).J 6.pX6.D ).pX).6.J 3.D F 6.J 7.3.~.).).pX6.pX5.5.pX5.C 0.*.K G D 6.G 7.5.5.5.J 5.3.S 6.dXsX4.N D pX6.pXJ ).6.).uX6.).pXJ J (.5.J pX).J ).pX).sX).J J J 6.J J J J J /.xXMXi.i.i.i.t.NX( ( : h.V.e e u g ~.pXhXiX~.).).).).pXsXiX`.pX(.G D _.sXpXsX(.5.`.sX/.(.6.pXpXpXpX).pXpXpX).).6.6.6.).).).J ).pXpXpX).).).pXpX^.sX`.dX#.d ^.pXsX/.pXpXpXpXpXpX).pXpXpX`._.pXsXuX`.).).J _.).7.J (.pX6.pX<.A (.H 5.pXJ 8.D ).J 5.).).J J J ).pXF _.7.q.mXa.a.NXi.y.CX! j.V.V.V.w h.W.`.pXuXH pX5.H ).J ).pXpX).).pX).).pXJ ).pX6.pXJ 6.6.J J lX0XY.).J 6.).).6.sXsXG J J 7.(.<.E.).sX`.F 5.J G 5.6.J ).sXsX(.).pXzXR.H ).",
").pXpXpX).sXsX(.J G pX6.H aXrX!.6.).J aX7.*.L pX).`._.).J ).).).pX).J ).J ).).pX).).).).pXw.y.u.t.NXBXmX( ! - B.G.C.G.Z.R.).).).).).).).pX3.H pXpX(.dXD F 7.J ).pX<.H ).).6.J pX).J J J J 6.).pXJ J pX).).pXJ ).).5.J J J pX).J 6.).).6.J 6.).`.).J 5.(.6.).pX).pX6.J ).).pXJ J 6.5.J pXJ 6.A 6.iX4.{.bXXXJ ).H 1.f.;.Y.`.`.(.sXJ H aX<.].(.H sXsXaX0XY.pX_.9.mXu.BXNXNXi.CX<X% r r i i i R.).J J 6.).J J pXpXJ J J G J 7.).J 5.5.5.5.jX{.).`.6.5.G J J pXpXG G 6.).6.uX(.J J 6.aX`.H pX5.5.5.0.3.(.pX7.4./.jX!.aXD 6.).6.6.6.).J 7.).F J 5.).aXrX!.7.3.J E.).6.J 6.).J 6.6.J 5.J ).J 6.6.D J J 5.pXJ 5.J J J J J J (.!.kXi.y.i.u.i.u.s.1X2Xl.B.C.e e h.].(.).J J `.).).).J pX).).pXpX^.sX<.K J sX).sXpXG J sXJ ).).pX).J pXJ ).sX).pXpX).`.).pXpX).).5.5.).^.pX5.J pX5.3.H 1.e.H.~.sX_.sXsXpXpXpXpXpX).pXpX).).5.J 6.rX(.6.(.`.).6.pX`.).6.pXpXsX{.`.pXpXA 7.8.!.).sXpXJ 7.H ).).(.0.x l -.:.p.a.BXBXu.MXmX,Xj.e V.V.C.e B pXJ ).).J )._.).).J J ).`.pXpX).).pXpX5.7.(.pXsXpX).uX).hXXX`.6.).pX6.J ).).9.B J J sXJ uX'.pX).7.).).).J 6.D (.J D J ).J 6.hX{.).G ",
"J 6.6.pX).6.uX).aX>.L 1.B `.[.).).).).pXtXwXL.).).).).6.6.).).pXJ ).pXJ H ).J ).).(._.sXpXlXSXt.u.BXi.mX1X! l.e i C.u F._.`.pXJ J J J 6.2._.(.pX).).pX`.J pX).).pXsX).).pX).pX).pX).).5.).).).).sX).).).).pX`.J 6.uXD ).).).).pX).).6.pX).).).).aX>.(.).).pXpX6.).8.D pX).).).).pXsX(.pX`.pXiX(.aX'.).).6.^.).pX`.jX:XY.pX`.).pXsX(.pX{.(.pXH H sXaXzXM H 5.0.t.NXi.u.u.i.CX! % i i i G.i j H J ).J ).).(.6.5.J J 7.G 3.H 6.6.8.D J 6.5.J ).7.5.6.J 5.J 5.7.pXJ J J 6.J J J G 5.J sX).J 6.J 7.<.].pXpXpXhX7.3.Z aXpX(.).pXpXsXsXpXpXsXJ G pXJ J 7.J pXiX).).6.pX).J 7.5.D ).6.J (.6.pX5.J pXJ J 6.J 6.pX).J J J J J (.H zXt.d.NXi.i.NXa.mX2X- B.w V.F.J.Z `.pXpX).J ).).).).).).6.).).).6.rX~.J J J J 7.<.S 8.F ).).sXpXpX6.pXH 6.J 6.pX).J J ).).pXpXpX`.).6.3._.`.pXsX`.).gXeXH.`.pX).J pXpX6.6.pXsXpXuX/.pXpXpXpX).sX).`.`.).pXpX).J J pXpX).J pXpX).dX:.M {.`.J 6.pX).pX).J J F e.8.L L #.p.y.i.s.i.SXa.~ - V.C.V.V.Z.g pXuX).).).(.(.).pXpX).(.J 6.pX).J ).pXpXsXJ 5.6.pX6.).).).J 6.).pX6.).`.J 7.uXiXD !.7.7.J F ).sXsX`.sX`.pX6.`.).).sXJ D J 6.A ).7.C ",
"H 6.J pX6.5.J pXsXhX{.rX'.H ).).).6.J 6.`.{.sXJ J ).).).pX).J ).pX).8.^.A A ).J pX_.F J `.xXSXt.NXBXNXu.1X:Xl.V.G.C.H.w n J pX).pX6.~.sXhX_.).6.J 6.J J ).).).J J ).).).pX).J ).).6.6.).).).pXJ ).pX).pX6.).).pX).`.pXJ 6.J ).).).6.`.pX).).).).aXyX(.6.J J 6.).pX9.L D 6.G ).).).6.pX).J ).).7.D ).6.J pX).6.J pXJ /.^.6.J ).7.Z pX).).).J J F ).7.jXQ.H 7.e.p.NXi.i.NXi.s.! h.G.i G.i r J.).J J J J J J 6.6.J G 6.sXuX(.5.J pX`.J 6.pXJ 5.J 6.6.).pXJ 5.).pX).pXJ 6.D J J 8.K C J pX6.6.J pX{.J J 7.5.G w.<.B J uX).5.5.5.5.G J 5.J 9.$.K 6.J 7.D G pXpX6.6.pX6.J pXpX).J 6.).J J 6.aXH 6.pX6.G 5.G J J 6.J J 6.J !.J 9.mXe.u.u.i.u.s.CX2X- B.C.V.F.L.Z F pX).pX).).).).).).pXpX).6.D pXJ ).).6.J ).dX[.).iX`.(.6.6.6.).sXsXpXpX).).).).pXJ ).6.).`.sX).).aXuXF G 6.pX6.6.).wXW.pX).pX).6.6.pX).).pXpX`.pXpXpXpX).).pX).).).).pXpXpX`.).5.G pX5.G ).pX6.nXW.).aX(.pX`.pX).pX`.pX7.9.cX{.w.r.NXMXt.s.i.d.a.:Xj.V.C.V.V.F.E.V 5.).).).).J J 6.).).6.J J ).pX6.J 6.J pXpXpX).).).).).pXpXJ 5.5.sX`.sX3.H ).`.[.6.5.`.sX`.J J 6.5.J ).dXiX_.pXF pXsXpX^.sX[.6.,.B ",
").pX6.(.sXpX(.).pX).).sX).`.J J 5.J ).J `.F J pX).6.D J 7.).).J 6.pXsX`.fXR.).J (.pX).~.7.e.r.i.NXi.t.i.CX,Xl.V.G.C.C.Z.g H ).).).pXJ C J ).J pX).pXpXA ).pXG ).J J ).).).sX).).pXpX`.).J J J ).J ).).).).).pX).pXJ pX).6.(.J ).pX`.).).pX6.J G ).pXpX).).5.5.).pXzX!.!.sX/.J J 5.A (.pXJ 6.J fX~.).).).pXJ sX).J pXJ ).6.^.(.fXS D D (.).).).(.J sX`.).`.aXlXCXt.i.BXi.u.CX^ % r G.i i e n 6.J J J J J J J 5.J J J 2.K J 7.J 6.D 6.J pX`.uX).6.J 6.6.6.).6.J J 5.).pX^.`.pXsXq.@.M 5.7.6.J J J pX6.5.J D fXQ.).J 5.5.7.6.).7.G G J J gXbX~.J J 5.6.(.J 6.J J 7.6.(.pX6.).<.M ).).J 8.N H 6.5.6.6.J ).6.J J J ).).).Z 8.;.i.SXu.NXNXt.a.p.( - B.C.V.Z.J.{.E.(.<.(.pXJ H ).).6.J ).).aX^.).`.).).pX).(.6.pXgXz A `.pX).`.).pXpXpX).pXpX).).J ).).sX).J 6.pX6.J pXpXD G ).`.).`.).5.G 6.pXpXpXsX).pX).pX).pXpX).).sX`.6.).).).).J pXsX).sXJ w.f L pX_._.sXiX~.aX5.J J J 6.J ).).7.5.aXdXaX6.kXe.BXMXt.NXi.r.s.:XF.e C.V.C.h.L.aXD (.J (.).).pX^.pXJ J pX).).sXpX).pXpXJ J 6.).).).).pXpXpXpXpX^.(.pX7.hX~.J 5.F sX`.(.6.).).6.pXdX(.6.4.).pX6.%.M J ).pXD 6.aXyXE.",
"pXpX8.H 6.).`.J 5.).pX).`.).6.4.D (.pX).6.G J 5.G 6.^.6.).).J pX).pXJ ).`.(.J pX(.).).J 6.y.SXy.t.i.u.NX/ ! l.B.C.C.A.V.T.(.H uX).fXuX<.Z 6.H J 6.).pXiXH 6.uX(.).).).pX3.G pXJ ).pXJ ).).).pXJ ).J ).).).).pX5.J ).J ).).).J J 5.3.G ).6.J pX^.J J ).).).9.B pX5.iX{.).).pX).7.8.~.(.pX6.).).).).).).J J ).).pX6.K J J pXH 7.J ).).^.).J ).J J 6.).pX).H aXlX/ NXi.i.u.u.ZX:X% i i i r F.Y.J J J J 6.G G J ).).J 7.%.B J 6.J 5.5.J J G C 6.6.J 6.J pX).).6.J J J J 5.J J 7.G zXDXh H pX).8.N Z G 6.uX).uX^.6.6.5.6.pXpX).).dXuX).).pXJ 5.5.J J 6.J J 5.J pXJ 6.`.pX5.7.G uXE.D 6.J 9.E.H J pXpX).).G pX7.A F J ).J F 8.e.MXMXi.u.u.u.a./ ( - B.V.V.B.J.pXsX).^.J ).pX(.J 6.).`.).6.pXuX6.J ).).).(.6.).).dX0XP.J J pXpX6.).pXpX6.D ).6.D ).J J pX).).pXpX).sX6.`.iXE.).).).).aXfX~.H ).pX6.6.pX).).pXpX6.pX).6.4.pXpX_.pX).).6.3.^.).pX).kXh a pX(.J J pXpXpXpX).pX).).`.pX6.sX`.pXdXjXaXkXAXi.BXmXmXNXMXCX! j.V.C.V.w D.R.7._.).(.H J J ).).6.`.pXD J G J 6.J ).pXpX6.).`.pX6.J J pX).).pXpXG J ).).pX).dX<.C G ).pX).J ).5.(.).).sXpXpX).xXP.B 6.J `.pX`.pXsX",
"6.pXdXN J J 6.6.).).6.).5.5.).`.`.).6.8.N {.pXdXE.~.(.sX).6.J ).pXpX^.(.J pX3.Z `.).J J 9.lXVXu.NXu.u.BX1X:X- B.G.w A.Z.g pX(.).J pXsX{.uX~.).J ).).).pX).pX).2.N _.pX).tXE.).pX).6.pXJ 6.J pX).).pX).pX).).pXsX_.pXpX).).).).).pXtXB J 8.J ).).J J J ).pXuX`.6.uX(.6.6.J 6.5.6.iX_.J G ).7.2.H J ).6.9.B J 6.J pX/.<.H J J ).).3.H (.).).pX0.Z ).).).pXJ ).lX1Xu.i.i.NXy.i.:X% r i i C.T.sX(.).J G 5.D H J 5.5.5.J jX'.).6.pX7.D (.).9.V ).pX6.6.J J 6.J pXpXJ 6.J 6.J G 7.J 5.SXP.Z pX6.gXyX(.6.G 5.6.J J 6.J ).pXpX6.5.5.5.6.J ).pXpXuX).D J pX6.J 7.H 6.6.J C 6.6.6.).).pXJ J 6.).`.).).).pXJ 9.E.J 7.E.(.J J J J ^.e.xXBXNXu.NXa.p.mX2Xl.B.V.V.B.Y.sX).pXpXpXH J ).J ).`.).<.B ).pXpX`.`.sXpX).*.z C ).sXhXpX^.J 6.).).pXpXpX`.6.aX^.).pXpXJ ).pX).pX6.6.`.).pXsX`.).pXpX).sXsX4.V 6.pX6.D J 7.5.J uX).).pX`.pXpX(.J ).).sXyX(.5.5.J gXwXT.sX).6.6.J J J ).`.sX).pX5.pX^.pX).pXpXdXzXdXnXVXi.mXNXmXlX1X~ & V.C.C.B.g V `.`.).).G J ).).).).J pX`.`.`.).pX).6.5.5.).G J pXpXsX).).pXpXpXpXpXG *.*.>.b (.tXrXE.Z 7.J ).pXrXB pX).5.6.6.J gXtXm ).`.6.*.L ).).",
").).1.rXB ).6.).).6.4.(.pX`.pXA D pXpXgXE.(.aXsX[.J J J J ).).J ).).).J J (.hX].).).pX(.jXe.y.NXNXa.NXNX1X;Xg Z.C.C.w F.W.J (.).).).).5.E.).pX).pX7.F pX6.).pXfXW.F G ).).pXJ J 6.J pXJ ).).).).J J 6.G J J pX).9.&.B pXJ J pXpX6.hX[.5.uX_.pX).pX^.J G ).).).6.J ).pXpX).pX`.`.pX`.pX^.(.gXQ._.).).pXsX{.6.pX7.J J sXpX).5.K ).sX_.G H ).pXtXY.).).J J ).6.w.1XNXNXi.u.NXBX<X% w G.i w M N J 6.6.H 7.J J J 5.J ).5.J J 5.J pXpX/.J 6.<.(.G 6.6.pX6.G J 6.J J 6.).).8.z H pXpX).hXXXJ G 6.pXaXJ ).pX^.).6.D G J J 5.5.7.5.7.J ).).J G 6.6.6.6.D J ).6.pX^.6.6.6.fXS 7.J 6.J J 6.5.J 5.J J 5.J J 6.pX(.5.J ).).J J J J G lXe.y.u.u.u.mXZX1X2Xl.y V.V.e g N 3.G J sXiX_.).uXD ).6.iX{.J pXpXH pX6.).#.>.h L.J ).pXpX`.pXpXJ pX6.pX6.5.^.`.`.).).pX`.J ).pX6.pX`.).pXpX).J 6.J pX8.K pXiX/.).pXsX`.).sXsX`.pXsX).).sXpXpX6.J J 7.C J 6.7.6._.sX[.^.5.6.pXpX6.pX).J C ).sX6.).`.pXpXpX6.pXpXjXjXuXMXCXCXNXVXp.g.,XF.e V.V.V.& R.pXJ 6.J iXF ).J 6.).J J ).5.6.5.5.).pXdX(.pX<.R.pXJ 5.).).6.5.J sXsXdXjXqX$.J.J ).`.sXpX6.).).6.sX`.J 6.6.).pX).`.jXW.`.pXgX$.s 5.A ",
").1.M {.`.G ).D ).pX`.^.).J aX`.~.6.6.pX_.J 5.5.2.5.(.).pX).pXpXD J pX).).J J ).).).pX(.1.lXDXCXt.u.NXi.CX! & V.C.C.C.u J ).H pX).).7.4.K H pXJ 6.uX_.pXpX).).).).).).J J ).pXpX).).pX).).pX).).pXJ 6.<.H J J J tXU.!.6.).).).).pX).pXsX`.).pXpXpX).sX^.H 5.6.6.(.(.6.).pX).J 6.).).pXpXG ).J 2.F ).pX5.J ).pX^.pX).7.H 7.<.Z H ).sXtXB J ).sX(.J ).).).).pXlX/ t.i.i.BXBXs.! % e G.i i a L.J 6.6.J 7.J J J ).J 5.G 6.3.).).7.D 6.J pXuX).).6.5.6.8.S ).6.6.J J 6.J e.P.m sXpX).6.5.5.G J 6.uX).).pX5.J ).pXJ J J 5.5.7.J pX`.).<.D pX6.6.).sXuXpXA ).pX5.5.6.J 6.pX6.5.J 6.J J 6.J J J G G J J 5.5.5.J 6.J D J J J J (.nXAXBXNXNXNXNXCXCX2Xl.y V.V.Z.F.g R.`.J J pX).).).sX5.).).pX6.H sX`.).sXe.%.E.B n `.).pXpX).).pX).pXpX).aX~.(.pX).).).pX).).).pXpX6.(.6.J 6.J ).pX).pXdX'.).).pXpXpX6.6.J J ).).pX).pX6.5.).pX6.).J 9.E.H 6.pX`.(.6.6.J ).5.J pX).).`.q.M Z D sXpXJ J pXpXpX)._.gXgXkXMXCXCXNXi.1X2XQ u V.C.V.C.Z.B J J sX5.3.~.G G ).).pXJ J 6.^.pX4.(.).pXpXpX/.(.6.pX).).).7.`.).D pXpXsXcXwXW.sX`.pX).).sXD H ).).J 6.).).pXpX(.).).).6.pX9.SXg B /.",
").jXQ.G 8.Z 6.^.).6.D D 7.H ).pX6.4.V (.pXpXJ 9.@.m ).J ).).pXpXpXG H ).).).H ).).).).6.9.w.SXZXu.NXmXBX1XeXF.e C.C.C.e Y.pX).J ).).pXsX/.(.pX).).).pX5.).).pX4.D J ).).).6.6.pX).6.).).6.J ).).).pX^.iXJ ).6.).).6.J ).).pXD J J ).).6.G ).pXpXpX).).sX4.^.).pX`.J J ).`.`.pXD J ).).aX,.x ;.x f M 5.sX`.).6.J 6.).sX).pX[.8.B (.J sX`.F J 5.J (.pX5.(.6.J lX1Xt.BXBXi.mX( ~ h.e i i i V.n J pXpX).).).J J J pXpX(.J ).J 5.6.J J J 5.).J 5.6.6.6.iX_.G J 6.5.F pX5.jXbXR.F 6.5.8.(.sX`.).).6.5.6.7.7.H 5.5.J pXpXpX).pX).pXpX6.yX~.5.).pXJ J 6.6.).J 7.J J 6.6.).6.7.(.).6.).J 7.J J J J J G G pXpXpXpX).`.`.J ).6.(.(.8.nXZXu.NXu.u.t.t.) - w Z.V.V.e F.].).sX).).).).J 6.sXpX).sXhX`.`.`.pX).lXbXbXP.R.pX).pXpXpXpXD ).).6.pX`.`.6.J ).).pX).).J ).).pXsX).pXpXpXpXA J J 6.(.).6.J pXpX6.6.7.5.G J J G J 6.pX).6.5.sX).).sX[.8.H ).).pX).pX).pXsXJ 6.).pX).hXQ.sX(.5.pXJ ).pX).pX`.).sXjXqXqXCXNXu.u.NX2XeXJ.B.C.V.C.y L.pX).4.tX].`.^.~.(.).pXpX).).G J dX).5.5.J pXJ 7.J 4.(.pX).pX^.sXpX3.6.J ).`.pXJ J J 6.J J pX(.J pXpXD ).6.6.5.(.(.pX6.6.7.w.jX}.S G ",
").pXpXpX/.`.`.pXG pX^.J `.).J J `.dXsXJ J 4.`.gXbX].J ).J 5.5.G 7.D H D (.pX<.!.).(.pXJ 9.zXd.s.y.BXNXBXCXmXu B.A.C.w V.n J ).pX).).sX).pXJ ).).).J 6.`.pX5.J iX/.`.).).).6.pX`.pX).).6.).pX).).pX).).6.).).6.).pXD ^.uX(.pX`.).).).).aXE.A J 6.).).).).pXpXJ ).pX).).J J 6.pXiX^.pX3.3.e.>.F 9.N b m ).6.J pXJ ).pX).6.D 5.8.T.).J H pX).J 7.F F J sX(.).).lXCXt.MXNXBXBX1X; h.e i i i F.{.J 5.).).7.J J J J J 6.pX5.J J J J J J 6.).J 6.J 6.pXJ 5.5.6.D 6.).J G 5.J 7./.H 7.6.).).6.5.J J 6.J J aXuXJ 6.6.J ).6.J 7.J J 5.G 5.G pXD J J ).6.6.6.5.J ).).J 6.8.C J pXH 6.6.J 6.6.J 6.6.J ).pX(.(.pX).sX3.C C F 5.2.Z D :.&.t.ZXNXmXNXt.CX^ l.D.e V.C.B.J.sX`.pX).).).).).).pXpX).).).pX).6.pXJ zXfXcXW.Z sXJ pXpXpXpXuXJ 6.pX).).pXsX).).).6.J ).).J 6.).6.J pX).pX).iX`.`.`.).6.sX(.).pXsXsXaX/.`.`.uX`.).pX6.aXpX(.pX6.J ).pXdX`.).).).pXpX).).sXpX).).6.).J G J pX).pX).5.G ).).).pX).aXnXmXa.u.NXi.p.t.%.J.B.C.V.e J.g F pXrXQ.sX).`.).J J pXpX).9.&.m pXsXpX(.).6.J `.).pX).pXJ pXpX5.6.iX[.sX^.pX).pXpX6.).).pXpXpXG H pX).).pXuXsX).J 6.6.6.J dX X].gX~.",
"J ).).).).6.7.3.E.).pX_.).pXpXJ 5.F pX`.pX(.6.pX).).J J ).pXpX(.).`.).^.J )./.(.).J ~.hXgXw.%.CXy.i.NXNXCXmXJ.e C.C.A.Z.Y.).J J J J pXpXpX).J ).).pX(.J pXsX_.pX).6.4.(.).).pXJ pX).).pXJ J ).J ).).).pXJ pX`.).pX<.S pX).J ).pXJ ).).).sXiXJ J J J 5.J J pX).).).pX).).).7.J pX3.A hXgXrXwX@.] q m Y.F pX).J pXJ J pXJ sXdXE.Z J `.).pX6.).7.D Z F J ).(.uXzX1XNXi.i.MXNX2Xz.% e i i G.w K pX6.J 5.J ).6.J J 6.J J pXJ J J 7.(.6.5.J 5.7.3.H 5.5.6.).).pX).).).pX6.J ).).pX6.).).5.pX6.H 6.J 6.5.J aXD 7.5.H 6.6.5.6.).6.pX6.J ).J pX7.J J 6.6.).pX).J J 6.6.gXrXZ 6.J 5.J J J pXpX5.).pXG J A C G 3.;.O.0 l 5 [ m Z F qX3 #.ZXBXNXCXu.ZX( & B.C.Z.C.h.L.pXJ pX5.).6.H ).).pX).pX6.D J pX).pX).zXyXXXcXZ 7.).pXpXpXpXpX).`.).).).pXpX6.J ).pX).J pXpXJ J ).pXJ J J 6.J D (.).pXpXpXpXD J sXpXuXsX).6.5.J 6.J 6.`.`.).7.).).pX6.).pX).pX).).pXpX).5.).9.z (.pXpX`.pX`.).pX,.B (.J ).pXpXJ 6.lXa.a.i.y.CXBX/ Q a V.C.C.e I.U.z L ).5.3.F 5.J J J J pX).zXtXY.J pXuX`.7.J `.pX6.J J ).).pXpXpX).).pX).7.J 6.C G pX).6.J ).sXpXH 6.4.S ).pX).).).pXpXpXpXJ J 5.J `.",
"pX).J 6.5.J dX%.b F iX(.J 5.pXsXsXD F (.pX6.J 6.D J 4.H ).pXpX).).J ).).J H J J (.).Z ~.xXlXe.mXNXBXNXi.CX%.a Z.G.w A.C.R.).pXpX).(.).pX`.).).).pX).pXD (.pXJ J pXJ `.(.).).pXuXJ ).).pXpX).J ).6.H ).pX).).J J 6.yX'.pXpX).).6.).J pX6.J 6.8.~.).).sX`.pX).pX).6.).J ).).fX'.sXfX!.).e.R.%.<X}.P.s j Z 3.C F J pXJ J ).6.pXhXG K H J 6.).J uX`.).(.J J Z 7.w.1XCXBXBXBXi./ Q % % i G.G.I.Z 5.G 5.J J J J J J J pX).pXpX`.<.V ).6.pXJ 5.6.`.J J J J ).6.J 6.6.J 5.J ).J 5.6.).).6.J J 9.2.K J 6.7.J 6.pX0.(.J J 6.6.6.6.6.6.pX).5.5.5.pX).5.6.pX3.J 6.5.J 6.6.pXhX3.G J J J J 5.G 5.pXJ 7.E.H kXz *.N e.q.L =.#.L.}.D Z kXwXq.NXi.NXCXBXa.2Xj.e V.V.V.Z.Y.sX).pX`.`.aX(.).pX).).6.).`.pX).).J J dXQ.(.sXfX~.).6.pX6.).sXuXJ 6.J pX6.6.pX).).6.J ).).).pX).J pXpXpX6.J ,.B (.6.5.6.6.pXpXS J 6.pX6.D 6.6.G J pX).).6.6.uX(.pX6.).).6.6.J 6.5.).pXaXrX!.lXP.Z J pXJ pXpX6.5.xXW.).pXJ G ).).`.lX1Xa.a.f.i.VXZX<XJ.V.C.C.Z.F.J yXR.5.8./.(.).).6.D (.6.6.aXyX_.H ).pX).dX^.J 6.pXpXH J J ).pX).).6.J 7.pX_.aX0Xn 6.J 6.).J 7.).).pX/.).J pXpX6.J 5.pXpXpX).pXuXS J ",
"J pXpX6.6.D J jX0Xm J pX6.J 5.J `.hX{.pX6.5.J pXpX).[.`.pXJ ).J ).).).J ).(.H ).J ).).L gXxXnXCXBXMXt.y.a.%.H.Z.G.C.A.Z.R.pXpX).`.).J ).).pXJ J J pX).`.).J ).).J ).).J ).).6.uX).J J ).pXpXpXJ uX_.J 5.D J 6.).).G G pX).pX).).pX6.J pXpX6.sX_.5.5.C 2.N ).6.).pX5.).).J ).pXpXsX).6.tX].SXKXOXGX+X}.!.8.].^.(.pX6.).).pXH pX,.M (.J ).).J ).).6.K ).6.H 6.w.CXmXBXNXi.i./ z.% % i i i ^.sX).pX).J J 5.J ).).7.D J J J 5.pX^.G 6.pX5.6.).J 6.pXJ J J 5.G J J 6.J ).J J 6.J ).6.J 6.5.7.Q.(.J 5.pXpXD 6.dX_.pX5.J J 6.5.5.J 6.5.6.J 6.J 5.5.6.5.rXJ 5.6.J 5.6.J 8.fX(.6.J J J 6.J J 4.J ).6.A sXkXR.cXjXnXbX#.L.}.~.J H F eXZXu.BXy.BXu./ <Xj.V.V.V.w e s F pX).).J aXD (.pX).).).).pXpXpXJ ).).pX).pX6.pX`.6.pXpXpX(.6.).sXpX).).pXJ `.pXJ uX^.pXpXJ ).).).pX6.).sX).jXR.J 5.pX).8.A J pXD ).pXpX`.pXuXrX(.).J 6.6.J J J 6.J J 6.).pXpXpX`.(.pX).hX_.jXyX^.D 5.).).pXsXpX).H 5.7.J `.).).J w./ a.a.i.MXt.CX! u V.V.C.Z.J.!.(.5.J (.).).J `.pX(.J 6.6.).J ).(.J 6.5.8.).).).pXpX6.G J H pX).pXpXpXD _.pX6.jX].).pX).).6.pX`.pXpX).6.(.pXpXpX7.V (.6.).).pX).pXJ ",
"J J pXsX^.sX`.).yX{.(.).9.C ^.^.J ).5.6.pX7.J ).pX).H 5.6.).pX).).).).).J J ).J D (.).(.^.zXSXCXMXy.MXBXa.MXu Z.C.C.C.C.S ).).pXJ J ).J J ).pX).).).).).pX).2.S ).).).pXJ J 6.pXpX`.^.6.).).sX).).).pXsX`.).pX).).dXA H pX).).J J pX).).pX`.).pX^.aX,.-.@.Z pX).pX`.).).).J J ).).pXpXhXsXcXXX{.{.{.cXdX].`.sX(.pX8.S ).pXJ J xXW.F ).J J ).).).sX`.H pX).).jXmXmXu.NXNXi.CXP.% % i i i B 6.6.pX).J J 6.).J 6.pXJ J J 5.J J 6.6.J 6.pX6.J 6.J J 6.6.).pX).).J 6.J 5.J G 7.G J 6.6.5.7.(.).pXpXJ 5.2.).6.6.8.z G J 5.5.J ).J 6.).6.pX6.6.6.J J 6.pX6.6.6.6.J J 6.6.uXD 6.J ).).).6.J uX(.J pX/.J uX{.hX{./.yXIXK.!.7.H J H 9.a.u.i.i.y.a./ <Xh.B.V.C.e K.I.m pX).J J 7.E.J 6.).pX).).).pXpX).).J J J 6.5.(.pXpX).pX).).sXJ ).pX).6.7._.pXsX`.`.pXpXpX).).).pXpX`.).6.pXsX`.pX).J pXsX[.sXpX).J J uX).pX`.sX`.pXpXpXpXJ ).4.J pXJ J ).).).`.).).J J J 6.J pXpXpXpXH ).6.pXpX).pXD pX_.).pX).J e./ s.CXi.e.a.t.:XZ.V.C.w Z.K._.8.^.uXD H pX`.6.J (.J ).).).).J ).pX6.1.E._.6.`.sXdXuX^.^.J 5.J J pXpX`.J pXsXpX`.).pXpX(.sX).pX).).).`.).J 6.J pX/.J ).J J pX6.6.6.",
"pX).H pX).).).).0.N (.5.9.E._.).).6.pX).6.).`.).pXpX0.L ).).pX).J 6.H ).pXJ H )._.).H D G zXSXa.BXBXy.NXa.VXL.y G.w C.u Z ).pXpXpXJ 6.J ).J J J 6.J ).).pX).iXZ G ).).).pX).pXJ pX).).pX).pX6.).).6.J ).).pX).pX).6.`.).).pXpXpX).).).`.pXG 6.).).9.jXjX0X!.6.6.).).J J ).).).).).pX).J `.J 6.).pXJ 3.`.pX5.5.J 6.gX'.J pX).J uX].H pX(.).).).J ).).).J ).(.aXMXa.y.NXu.u.a.#.% B.G.i w g 5.6.J 5.5.J J J J J 6.J ).pX6.D J 6.6.J J 6.6.6.J 6.J J ).J 6.J 6.6.J J ).6.D J 6.F J 5.6.^.).J 6.6.pXgX<.L G J 7.h ^.J 6.`.`.pXpX6.5.J J 6.6.5.5.7.>.K 6.J J pXpX6.pX6.7.D J 6.J J 5.6.D J 6.5.G 6.pX).J 5.5.J G iXQ.H pXH J !.e.a.NXu.NXi.t.1X2X& V.V.w D.=X*X`.).).).).4.K G H J ).).pXJ pXpX).).).sX^.pXsX).pX).).pXpXJ 6.).pXpX6.1.B S pX).).6.6.pXpX).).).pX).).pX).).pX).pXpX).5.G 5.J dX4.`.).pX).).pX).pXpXpX).pX`.).pXpXpXpXD J ).J J pX).pX6.J 6.).6.J pX`.1.N J pX6.G 7.^._.).J J J 6.lX1Xa.NXVXe.BX/ ^ j.V.C.w F.W.^.yX_.pXsX(.(.pXpX^.).6.J ).pX).pXJ 5.6./.`.7.A F 5.6.pX`.).pXJ J 3.J 8.K J ).pX`.).).pX).).J pX).6.).).6.pX).pX6.).pX`.).6.(.pXpXpXpX",
"sXsXpXJ J 6.pXpXjX].G 7.>.!.).).pXpXpX).pXpXH 6.pX).hX].).pXJ 5.J pX(.F ).).(.(.J ).).)._.jXqXZXNXu.BXBX1X%.g Z.G.G.C.C.R.J ).).pXpX^.).).).).pX).).5.J ).).).1.M (.).6.J ).pX).).).).).).pX).).pXpX~.).).).pX).).<.M ).J ).pXpX3.(.6.H gX<.K J 6.`.[.yXXX).8.A C H ).).).).).).pX).).).6.J `.).).pXiX(.pXuX).).pX).).pXpX).iX'.(.).).(.).6.6.(.).).(.).(.uX9.y.mXMXu.NXBX1Xh h.e i i A.a G ).aX3.H H J J ).6.6.J J J pXJ J J pXpXJ 5.5.6.J pX).6.6.J 5.5.J J pXJ 7.5.(.J pX).5.A J J J 5.J 6.7.6.jX{.~.6.).`.aXpXH ^.6.5.5.6.pXJ J 6.6.pXpX7.yX!.6.5.5.J 6.6.5.7.J pXJ ).).6.J pXuXS 6.iX(.J pXA J pX6.J J G 5.J J ).H J e.t.u.u.i.NXZXt.3Xj.V.V.V.F.T.F 5.).pX).).dX/.`.3.H ).).pX).).pXpX).).).).pX).).pXpXpXpXpXpX6.3.G pXpXjXbXY.pX`.).pX).pX).).).).).).pX).).pXpXJ ).).pXpXpXJ 5.6._.).pXpXpXpXpXpX6.6.pXpX).).6.).pXpXpXuXJ D J ).J pX5.6.).).pXsX).`.J zXW.!.sXsXsX`.).J 6.).).).pXe.a.CXu.BXBXSX( wXD.e C.V.F.S K ).pX7.5.J F 6.6.(.).sX`.).pX).pX).).).).J sXsXJ ).J pX).).pX6.5.`.J iX{.`.).pXpXpXJ pXJ 8.S ).6.).).5.J ).).).pX).J pXpX).).6.pXpXJ ",
"G J 6.8.A J ).).).pXsXaXyX_.6.J 6.6.).).pXpX(.J J J J ).J ).pX^.).J ).J J J (.).`.(.).^.!.gXd.p.u.NXBXi./ :Xj.y C.C.C.C.R.pX(.).pX).pXJ (.).).6.pX6.uX).pX).J iX'.J J pX).6.).J ).).).).).pX).).J pXJ F 6.A ).).6.rX{.J J J pXaXrXH aXA 6.hX/.D ).).6.J 6.pXfXrXE.!.J pX6.J 6.J J ).7.V ).).J J pX).).pX6.6.).pXJ J 6.J ).).).aXN H J F J pX`.).).).).).).H gXy.mXBXBXNXNX/ L.h.e i A.G.w n J ,.R.).J J J 5.6.J J 6.J 5.).).5.5.J 6.5.6.5.5.J J 6.).pXpXpX).6.5.6.7.^.J J J 6.pX1.M ).J 6.J 5.J J J pX).pX5.G 5.6.J G 7.<.H 6.5.7.G J J 7.5.).).5.5.5.J 5.J 6.5.pXpXJ J J D ).pX7.).uXJ 6.6.J 6.tXB 5.).6.J 6.A J J J F J d.a.NXNXi.i.t.CX) & V.C.Z.e d b -.B pX).).).`.`.hX!.).).pX).pXpX).).J ).pX).pX6.6.pX).pXpXpXpXjXR.J ).pX[.`.J ).6.J pX).pX).).J 6.>.K ).6.).).pX).pX).pXsXfXV _.).pXpXpXpXpXpXpXpX).).).).).pXpX).sXpXsX`.0.z *.C J pX).).J J pX8.v J dX'.J J pX).9.>.!.pX`.`.pX7.kXCXs.s.BXZXi.( Q.J.y w Z.u o.{ 3 l V `.`.).).pX_.).).).pXpXpX).).).).6.J J 7.3.(.pX).pX7.5.).`.).5.K 6.J ).pXpXpX6.J pXuXpXG J J pX).J ).).).pXpX^.).aX>.H pXJ 6.J ",
").).9.V /.J (.).pXJ 6.).).aX4.J 5.D J 6.6.pX6.J ).).pXJ ).J J pXpX).).).(.pXK H J ).H ).F 0.d./ i.BXNXu.mX:Xl.y C.C.G.e B ).`.).).).pX).(.).).pX).).).).6.J pXJ pX).).pX6.J ).J ).).J ).).).).).pXJ pXH ).iX).6.pXJ J pX).J J ).iX(.pXuX(.pX6.`.).pX`.pX).).sXhX{.sX(.4.).).pX).).).sX{.).).6.J ).pXJ 5.6.pXJ J pXJ J ).).J D 8.0X!.pX~.J J 5.H (.).).).(.J 7.qXBXi.i.BXNX( h h.e a r i C.d ;.N m 2.F J J 6.J J J 5.J J _.pX6.pXJ 6.J 5.6.J 5.J J 5.6.5.5.J 6.J J pXF ).pX6.6.5.fXR.6.J 6.5.6.J 7.G 5.5.5.pX).7.J pXJ J ).6.6.6.pX`.).J 7.J H J pX).pX6.pXJ 5.6.J 6.4.J 2.D G *.S J 5.J J (.pX6.sX`.J J 6.J pX^.J J J H 6.d.mXi.s.BXu.NXa.3Xj.V.V.e w j q n {.6.J pX).).J 6.).pX).pX).pXpX).).).J 6.(.pXpXpXpX).pX6.).pX).sX).).).6.).6.D pX).).).).).6.).pXjX'.).).).pXJ ).pXJ J ).1.h H ).J 6.6.).pXpXpX).pXJ 6.J ).pXpX).pXpXpXpXxXbXjXE.).).).pXpX).).tXP.'.sX).).D G uX:.n B 6.J J ).hX%.t.CXCXy.CXa.( @.a Z.C.C.e f f.g L.'.).`.pX).).J ).).).).pX).pX).pX).6.).).pX/.).).pXD aXQ._.pXdX0.M J 6.J pXpXpXpX).pX).pX^.).J ).sX6.F ).J pX).6.J 7.rX!.sXpX6.).",
").sXuX'.J `.).6.J pX).).6.6.pXJ sX^.).J ).pXpXJ J F pX).6.6.F J J ).).).).6.^.H S ).5.F F gXSX/ BXy.MXBXt.! ; B.G.C.A.J.Z (.).).).pX).pXJ J ).).pX6.J 6.pX(.).).).6.J ).pX).pX).).6.6.H pX).).).pX`.aX~.(.6.6.J 6.8.S pX).6.).6.6.J 6.).`.sX^.).).).).pX).pXJ J 6.pX(.sX).).pXJ J pX6.3.A ).pX).J 6.4.D ).6.J ).6.D ).pX5.J pX).hX_.).).J ).iX_.).).).).J J 6.kXt.i.NXBXa.( - h.Z.H.r i i j V XX{.iX(.F J J 6.J 6.J J J F 5.7.J 5.5.5.5.J J 6.(.5.J J 6.).pX5.6.J ).6.*.z K J 6.).J 7.J J 6.6.5.6.pXD 5.J 7.2.z S pXpX).7.C D 6.J 7.G 8.5.`.5.J ).6.6.6.6.5.5.J J pX).7.E.!.aX<.K 6.).).).3.A 7.G D 8.J 6.J J 6.6.J J (.pXd.s.i.u.u.u.u.CX2Xk.B.V.e F.XX+XP.L ).).).).pXpX).J J ).J ).).).).).).6.(.).6.J ).pX`.pXuX).sX).pXpX).pX).).pX`.).).pX).).sX).).pXpX`.pX).).pXpXJ J pXJ 5.sXhX'.pX).dX^.).pXpXpX).pX).uX_.pX).pX).`.pXpXpXpXhXcX{.pX`.pXD pX6.J pX{.).pX4.A fXE.7.qXM j ).pXD H 4.i.i.t.CXBXNXZX2XQ % V.V.w V.u W.=XM v !.2.S `.pX).).5.J ).).).pX).pXJ sX).J ).6.J J pX`.6.>.F J aXzX2.b (.).J J pX).pXpXpX).pX6.(.).pXuX(.).pX6.6.J 6.).sXJ J pXpX(.",
"D pXpX6.(.).6.pX4.D ).J 6.).sXuXJ pXJ `.J 5.pX).).).H pX).sXD ).).).).J G pX(.).(.J rX~.F D xXVXmXp.i.i.CX;XL.V.G.i C.F.R.).).).pX).).pXpX).).).).pX).).`.).J ).pX).`.).pX).pX(.pXpX).).J ).).).).7.D `.J pXpX).6.`.uXJ 6.(.6.J pXJ ).3.C J `.).pX).).).pXpX^.pXJ 6.pXJ J J J ).J ).pXhX'.).pXpX).pX/.`.pXpX).).pX^.H pXuX(.).J J ).J J ).).).D J ).).).uX(.aXe.t.p.y.i.NX1Xc.h.B.A.G.r H.Q.L.(.5.6.J J J J J pX6.5.J pX6.H pX).6.J J pXpXJ 5.J 6.6.J J J 6.pX).).J :.>.}.'.J 8.N G J 6.5.G 8.<.(.pXpXpXpXaX%.h !.6.).6.9.~.).6.6.pX).8.(.G J 5.C 5.J pX6.pX).pXJ 6.6.pX`.J J 7.>.(.6.6.J aXE.6.uXN j J 6.J J J J J J Z pXlXCXBXu.NXt.u.1X) % Z.V.e L.W.cXbX].).).pXJ J ).).5.(.).).).).).pX).).`.`.pXpXpX6.J pXpX`.pXJ ).pXpX2.A ).pX).pX).).).).6.pX).pX).sXpXpX).).pXpX`.`.).sX`.pX(.).pXpX).sXpXpXJ ).pX).sXpX6.D J J ).pX6.).pXpX).).6.).pXsX`.aX).6.J J 7.*.A E.(.pX`.hXxXB _.).pXF 9.y.i.t.NXBXNXBX2XrXZ.e C.V.V.w u }.{.z  .h Y.F ).pX6.iX~.pXJ 5.6.7.C J ).aX^.).).pX).).pXpXyX!.6.5.kXyXT.H 6.6.H J pX).).pX).pXpX).).6.pX).J 6.).sX).pX).7.J ).pXpXpX",
"uXpXpX`.).J ).pXiX_.).pX`.).J pXpX).D J 6.pX).).).pX).).J pX^.).).6.J 4.~.).).J ).).`.`._.sXw.t.CXMXVXNXCX! h V.i G.C.e R.pXJ ).8.H ).pXJ ).(.hX,.M J G ).6.`.).).).).pXJ ).).).pXpX).).pX).).J J gXE.J ).).).pXpX).pXuX`.).pX).pX6.(.xXP.!.J J ).J pX6.D pXJ `.aX).).`.`.`.).pX).J ).).pXJ J pXpX).6.J pX6.).6.6.).).6.pX~.).pXJ J ).J J ).pX)._.).pXJ ).).7.%.mXBXMXi.NX2Xl.h.e i G.i F.U.].6.6.6.J 6.J J G J pX).).6.pX).pX6.pXpXJ J pXsXpX).J pX).`.).6.6.5.J e.#.Y.J 7.6.pXiXH J 6.).pXpX^.5.J 6.6.6.5.jXXXJ 6.5.7.E.^.2.D ).J pXpXdX^.(.9.V Z J 5.).7.*.K J J 5.J J J 6.6.Q.G 5.J 6.J J J J fXh M 6.6.J 5.J J ).(.pXp.t.i.u.u.t.u.CX3X% B.V.C.e j L H ).3.F ).).).).pXsXD H ).).).).pXpX).).).pXpXpXuX~.).).pXpX`.J pX6.tXR.).).pX`.0.z (.pX).pXJ ).J J pX).pXJ pX`.).pXpX6.(.sX`.).).).pXpXpXpXpX5.(.5.G pXpX).pXpXA pX`.sX).).pXpXpX).J ).pXpXpXuX(.J 9.Q.].[.sX`.pX5.hXQ.pX6.>._.w.i.y.t.i.i.i.u./ h % V.V.V.y I.I.T.7.e.xXg m (.J 6.).).pXpX1.V (.gX1.B pX).`.).).pX).`.sXpX`.sXsXsXhXyXE.H ^.).pXJ ).`.).pXpX).7.>.z F ).).).sX).pXpXpX6.8.V H ).pXpX",
"6.pX`.pX).^.).).pX(.J J J 6.uXH aXJ iX).).).pX).J 6.J J J J ).).).).sX`.).).).).).).J (._.8.e.s.CXp.r.NXt.! l.V.C.C.C.Z.n pX).J 7.~.(.sX`.).(.(.MXn $.R.).pXJ ).).).).pX`.).pXJ J ).).pX).).).6.).).).[.).pXJ ).).).pX).).pX).).pXpX(.).[.).pX).6.G J sX`.pX_.J pX).).).5.J 3.K ).).J ).pX6.D J 6.pXpX).6.).pXpX).pXpX).sX(.5.J pX(.J ).).).).).J J 6.(.^.).gXy.t.BXi.BXNX/ z.h.Z.G.i G.r s v ;.f 6.G 2.H J J H 5.F G 5.).5.5.6.J 7.3.J J 6.6.J 6.J J 5.G 5.5.pXJ kXeXZ 5.D 5.8.2.S pX5.G J 7.A J ).6.6.6.pXJ J 6.6.6.).pX7.1.B 6.5.C J 6.2.C 6.hX[.J J ).zXh !.J J pXJ J J ).).J 6.).7.G ).6.).6.6.bXW.6.).).6.J J F H D VXCXy.i.u.i.NXa.3Xk.V.e Z.Z.a M m 1.V _.J ).).).).sXgXL 0.L J ).).pX).pXJ pXpX`.sXsX).).sX`.pXJ ).pX[.sXpX6.).0.;.L._.pX7.D `.).pX).).sXpXpX).J 6.6.J sX_.J 6.6.J 6.pXpXpXpXpXiXuX@.B pXpX).).pXiXJ J J pXpXJ ).sX`.`.aX<.`.`.dX<.).sX_.aX>.J 5.J pX6.6.).gX0X!.q.mXi.i.u.MXBXa.( W % C.C.w F.PXXXb +.1 }.LXJ.).).).).J ).pXsXiX(.pXyX/.7.F J pXJ 6.pXJ J sX).6.6.pXuX).sX).(.).pXpXH J 6.pXpX6.e.{ f !.).6.(.).6.6.6.pX).yXQ.).J pX).",
"pXJ J pX).J J ).).pX).8.K J ).pX7.^.).pX).pX).pX).pXuXJ 6.J J F pX5.J ).J ).).).).).6.H `.w.w.mXa.i.i.i.a.:XL.V.C.V.C.Z.R.).pX4.^.'.).6.pX).(.J lXXXrX`.6.).).H ).).).).).pX).).).).).pX).pX).`.`.sX(.).pXpX(.).).).).pXpX3.(.pX).`.`.).J 6.J ).pX`.J J pX).pXJ 6.8.Z 7.9.F 9.K Z pXpX(.6.pX).gXV (.pX6.).).pX).8.K pX).pX).J ).).).J (.J J ).).J J ).H H 6.sX^ t.BXi.i.t.( - % Z.i i i G.T.Z 0XL.J pXE.Z J ).J pX_.6.J G 7.J J 6.pXiXJ 6.5.6.J 6.).5.6.H 6.5.J 5.pX/.(.pX5.J dXhXH 7.).`.).pX).J J 6.J 6.5.).(.6.6.5.J 6.6.hX^.J gXE.F w.,.m 7.C C pXJ J 7.0XN *.H 6.J pXJ D 6.J J J 1.;.&.b F 6.J J D J ).J 6.J ).D H G e.a.u.i.u.i.p.s.3Xh.V.e Z.V.% g M f W.).).pX).).pXJ gX0.R.{.!.`.).).).6.`.).pX6.J pX6.J ).0.C [.sX`.9.V pXsX).xXU.].pXsXsX`.).).).pX).J pX).pXpX).sX^.pX).pXpXpXJ 5.D pXpXpXpX).gX0Xn pXpXpXpX).pX7.J ).J pX7.*.G pXJ pX/.).6.6.iX).sX).aXyX_.sX(.6.).pXpX`.hX(.kXNXNXi.u.SXBXt.2X>Xh.C.V.C.e h nXf.#.P.s R.Q.H ).6.J ).).).).6.).J J 6.dXE._.pXpXJ J ).J 6.pXpXpXpX).6.5.pX).J pX).).6.J 6.6.pXnX;XW.[.).).6.C ).pXpX).J ).pX6.J J pX",
"pX).).).pXsXD (.pXpX6.uX/.6.A J pX).pXuX(.J 6.).J 6.6.J J J pXV J fX!.).(.).).J (.).sX_.H tXzXmXt.i.BXi.CX:XL.B.G.w V.u (.6.).pX).J J ).).).J 5.6.`.J pX).).pX).J ).).J ).pX).).sXpXJ ).pXpX).J 5.J J J pXuX^.).).).pXpXpXiX(.pX(.).).pXJ ).`.pX).).).).pX6.).6.0.K hX5.7.3.-.F !.6.).,.l L ).pXsX).J sX).6.pX).fX'.J pXpXpXpXJ J J ).C H J J C H J J ).J ).7.mXNXu.u.y.u.2Xl.h.Z.p w G.C.T.!.].sXD sXgXK (.).).).5.J ).6.J 6.5.J 6.J J 6.).J 6.J J 6.pXJ 6.6.6.J J H 6.5.6.5.N C 7.J ).7.5.J 6.J J 6.5.5.pX).6.6.6.6.6.J 5.G 6.pX).dXH aXbX!.7.,.B Z pX6.6.sXtXY.~.7.J 6.).).J J 6.J gXnXyXP.S J 6.J ^.J 6.6.6.J J ^.(.8.,.u.i.i.i.s.i.CX3Xh.V.V.V.V.F.H. XT.Y.dX`.`.sX^.).pXsXkXm (.`.J ).pXpXpX).).pXaXD J pX`.6.kXP.H 5.6.dX/.6.).6.pX(.).).pXpX).pXpX5.G pX).).pXpXpX`.pXpXpX).).pX`.sXsX`.J 6.J sX).pXnXY.pXpX).pXpXpX`.pX5.).pXsXxXg J pX6.J pXpX).).pX).).).`.pXC 3.J ).6.pX^.).pXw.a.NXBXa.e.i.CX/ 0Xh.V.V.C.V.P q eXOXOX=XT.`.`.).aXH H ).).pX`.).pXpX).`.`.pX).).pX).J pXJ pXpX).sX,.N _.sX).sX).).).pX).pXpXJ ).hX(.).pXJ fXE.(.pX6.pX`.H ).pXJ J J ",
"H ).).pXJ pX`.J ).).pX).J sXiX^.sX<.K ).pXpX).pX).6.6.4.D ).).hX).).).).pX3.Z `.).(.).).).iXxXi.i.BXi.BXmXmXP.B.H.C.C.e M pX).pXpXJ ).).).).).pXJ J ).).pX).).).).J J ).).pX).).6.pX).).).pXpX).pX).).J J pX).).).pX).sX).).).`.).pX).pX`.).).sX<.H pX).pX`.sX9.gXR.5.9.5.gX7.Y.!.J pXqXrXY.pX6.J ).).pXpXJ J 6.).sX4.D pX6.6.6.).J 6.rXZ J )./.Z J ).).J 6.7.qXmXNXmXi.p.2XwX% e H.G.r C.V n (.6.7.-.uX{.H J J 7.A ).5.5.J 6.pXJ 5.J 5.J 6.8.K ).J 6.J 6.5.6.J ).).).5.J J zX:.j S J 5.7.J J 6.J J 5.6.D J J 5.6.6.6.uX).pXD J 6.5.6.pX6.).).dXcXXXJ 5.J 6.J sX{.6.7.J pXJ 6.6.J 5.6.pX X'.6.).).6.6.J J J 5.pXJ J 3.F 9.lXt.i.NXi.CXBXs.^ h.V.V.V.w F.d d R.E.F ).).pX`.).pX).fXQ.Z J pX).).pX`.`.pX).sXsX`.).).sXhXhXpX^.).).pX6.3.J pX^.(.pXpXpXpXpXpXfXE.H pXpXJ J ).6.6.^.pXpXpXJ 5.J ).pX).gX@.B sX).[.[.6.pXpX).pXsX,.z _.(.pX).sX{.).pXpXJ 6.pX6.).pXpX).).).tXf m '.).pX).).5.G kXa.u.i.u.y.i.a.1X0Xh.V.V.C.A.K.K.wX*XXXhXS (.6.6.6./.(.).).).pX).pX7.J ).pX).).J ).sXJ ).pXJ pX).4.#.d j D ).G ).).).pX`.).sX`.pXJ J J pX).).`.6.pXpX).8.;.N ).pXpX6.",
"`.J J pX`.).).J J J J pXpX).).pX6.iX`.J J pXJ 6.).pX).`.(.).).J J ).).J 6.hX!.).).(.)._.pX8.e.t.NXi.MXNXa.) g V.G.C.C.F.W.).pXpXpX).).pX).).pXpX).).).).pX`.).).).).).).).).).).pX).J J D ).pX).).).).pXJ ).).).).6.).).pX).).).).).pX).).).pX5.yX'.pXpX6.J J dX XsX5.9.F gXuXY.!.uX).sX{.).pX).).pX6.6.pXpX).).).J pX).5.2.H ).pX4.H [.(.).(.`.).6.G J J 8.0.e.a.i.mXBXi.) @.h.e i G.r F.yX{.0.C dXrX!.pXJ J G 8.^.).5.).).6.).6.).6.J ).6.sX^.D 5.J 5.5.J ).5.J J 6.J 5.5.7.nX}.J G J uXpXJ J J J ).6.pXJ 5.J 6.6.).J 6.pXsX).6.6.J 5.pXJ J J J 7.8.J G 6.pXJ J 6.7.(.J pXpXpX6.A J ).J 5.J J 5.7.D J 5.J J 6.J J pX!.dXSXCXu.NXi.NXNXCX<X% V.C.i u B.$.W P b Z ).pX).).pXJ pX).sXpX(.(.pX).).).6.pX).pX`.sX6.uXJ 6.).`.`.pXsX).dX/.sX).`.J J pXpX5.G J pXsXpXD 6.8.S ).6.^.pX4.J 6.aX>.!.pX6.J #.$.T.aX).J 6.pXpX).pX).1.r.s !.sX).pXJ 5.6.pXpXpX).6.6.J ).`.).pXJ q.tXg H ).pX`.`.fXE.kXCXmXu.u.y.i.CX/ ; h.V.V.C.C.W.L.B [.`.gXE.!.sXsXsX_.sX).pXJ ).8.C ).`.).pXpX).).).pXuX).pX).pX_.kXq.].L.~.aX<.S H pX).pXpX5.>.K pX).).).pXJ 5.5.5.5.J q.;.@.!.pX).pX",
"pX).).pXD J pX).pXJ J J ).pXpXpX6.G 6.).J 6.6.J J J ).pXpX(.J ).).J J ).(.(.).(.).).^.).`.jXxX/ t.i.y.i.1X;XF.Z.G.G.V.J.aXD ).pX).uX(.).).).pX).).).).pX).).aX#.f _.).).).).).).).pX0.V 4.Z pX).).).).).`.).).).).).).).).`.).).pX).pXpX4.S pX`.`.pX).pXuX(.pX).pX7.sXw.3.A 6.n !.sX).).).).pX).6.5.5.6.A D J pXpXpXJ pXrXE.K H ).`._.6.J (.J J ).pXpXH J aXgX%.mXi.NXmXNX) g h.e i i r u H 2.9.R.F dX(.J J 4.K J ~.sX<.B J 7.>.K pXpXJ 5.5.J 6.).pX6.6.pX).6.pX).J 6.6.).pXpX[.^.9.A H 5.J ).pXpXJ 5.D J J pX).6.J 6.6.5.J 5.6.6.8.4.A 6.4.J G J 7.`.pX).6.6.7.A 8.D 6.D G C 6.6.uXJ 5.7.D (.J 6.6.pXD J J J 6.J J ).H H xX1Xu.u.NXu.a.a.) h.V.V.C.Z.B.0XnXI.g j H 6.J 6.6._.sXsX6.!.`.).pX).).).pX).pXJ J 7.V ).pX`.sX).6.2.D pX).).pXsX6.).J D pXpX_.).5.6.).sX).iX`.).`.pX5.6.7.D pXyX!.pXpXpXqXP.M S pXpXpX).pX6.J ).y.q.K.~.pX).).pXpX).pXpXpXpX`.sXpX(.).pX5.J q.0XW.!.).).).J ).[.lXa.NXu.u.NXy.a.^ = h.C.V.C.Z.g g T.!.pXpX/.(.pXpX`.).).).pX(.).kXP.!.6.J ).pXpX).).6.).6.J J ).F q.tXn T.aXpXhX[.).pXJ J 6.9.;.j Z sXpX).J ).sXuX).).).kX0XL.pX).pX).",
").).pXpX).).).6.6.`.).pXJ 5.5.pXpX`.`.uX).J ).5.).).).pX).).).J ).).).).(.).).J ).`.).).!.hX8./ mXBXi.y.mX:XL.B.C.C.C.u ).sX).pX).).).).).).pX).).).).).).).gXNXM s 6.).).6.J ).).6.hX/.hX).).).).).).).5.).pX).pX).).).).J J ).).pXpXpXsXuXJ J 6.).J pX`.pX).).0.2.3.w.[.[.hXY.L 7.).).).).pXpXpXuXpXpXuXD _.J pXpXpXpX`.sX[._.).).).pX`.(.).).).J pX).H pXw.MXmXNXBXu.CX^ l.h.w i G.A.w ).tXE.pXG D ).J J uX^.J J 5.pXuXJ 7.rXR.5.J 6.).sX4.J J 5.6.5.J J 7.J ).pXJ ).6.5.G 6.5.uX`.J D ^.J J pX6.pX^.5.5.J 6.6.pXpXpXpX6.5.J 6.uXuX/.pX`.aX4.H 6.H pX6.6.6.pX).pXpXpX).1.h F ).J J 6.6.J J J 6.pX6.).J pXJ J ).J H `.(.zX1Xi.NXt.t.u.a.) % V.w C.Z.B.$.P.-X*XW.`.).pXpX`.(.pXpXhX).H pXpX).).).pX6.).`.).sXhX).).(.pXpXsXhX_.sXpX).).pX`.`.dXuX`.sX).6.D _.`.).pX).).).7.5.iX~.sXhX`.`.).).pX).jXyXP.R.6.5.).).J pXpXJ xXwX].sX).pX).pXpX).pX6.pX).).6.aX(.).8.J ).kXP.`.sXaXJ aX@.L ).xXCXi.u.u.i.i.CX/ - h.C.V.C.C.% K.XXJ 6.pX^.(.8.S ).pX).).sX).).sX[.).pX).pX6.).sXpXpX).pX).`.pXJ kXDXh B uX).).J ).pXpX4.(.kXr.5 d H pXpX).J ).sX`.pX(.gXbX`.pX).pXpX",
"pX6.J pX(.).pXpX).).pX`.pXgXR.`.`.).pXpXsX7.2.N R.pXJ pXpX).).).J G C H (.(.).`.(.(.).`.Z ).w./ mXi.NXi.t.:Xl.B.G.C.C.e B pX).).).).).).).).).).pX).).pXJ J pXAXlXs g pX).pX).).).).).6.).sX).).pXpX).pXrX(.pX).pX).).).).6.).).pXpXpXpX).pX`.).).pX6.H ).fXV sXw.G A 0.F C 2.C L Z pX).).6.6.aXJ 6.6.(.sX`.J 6.J 6.J pXJ pXJ J J J ).).).).).J ).).).pX(.(.jXnXt.u.NXNXs.^ & h.w i i G.w M ).pXpXuX).J ).J F 6.J ).5.J J pXpX).pXJ J 5.D 6.uXJ 5.J 6.pX6.D pX_.J 6.J 6.6.tXR.J J J 5.pXJ J 6.J J 5.J 6.5.J ).5.J 3.G 5.5.6.pXJ 6.pX).7.2.G 6.`.).pXpXD 6.pXpX6.J 6.6.6.6.dXwXR.C 2.J 7.N Z 5.J J 5.J J 6.J J J J J H H ).w./ BXt.u.u.t.CX<X% Z.C.Z.w e 0X-XI.XX].`.gXz !.sX).).sX).sX(.6.pX`.).).6.6.J pXpXJ J ).).`.J pXpX).0.z ).).pX).sX).).sX).pX).sX{.).).pXpXpX).J sX`.`.pXpXpXsX).sX6.J pXJ pX`.pXsXsX).pXpXpX).pX6.'.J pX`.pX).pXpXpX6.J ).).6.pXpX^.).sX[.sX[.sXJ 5.pX`.sX$.g (.e.s.NXi.NXBXi.u.^ z.h.C.V.V.C.h.J.pXpXpX`.`.).dX_.J pXJ ).pXpX).).6.).pXpX).[.6.A ).).sXpXJ J pX).iXAXU.!.).6.pXpX).pXpXsXJ jXAXwXK.R.J ).pX).).pX).).:.b H pX).pX).).",
"J pX).pX`.J J J 7.(.).).pXsX`.J 5.).pXpX6.fX/. X4.G J J ).pX5.D J gXP.!.(._.`.^.).(.J (.].[.d./ mXMXNXu.mX! l.B.C.C.A.u R.sX).).).J ).pXJ J ).).).aX>.H sX4.Z dXAXP.n pX).).).).).J 6.)._.`.pX).pXpX).`.`.pX).`.aXD ).pX).pX(.).).).).).).).pX).).).sX`.).sX`.pXzX^.dXhX[.dX0.F m L F _.6.).pXpXpXuX^.`.6.).pXpX).pX`.pXJ pX6.H ).(.).G (.).).).J ).).).).J aXlXmXNXNXNXs.^ l.% w p i G.w Y.5.J 6.J J J 5.5.F J (.6.6.J 6.D pX6.5.J 6.pXpXJ J pX).6.6.6.4.J pXJ 5.6.6.J 6.pX`.6.J J J J 6.5.A ).).pXJ J 6.J J 6.5.rX^.aXD J 5.J J J 5.7.%.j L J J ).pX6.6.2.G pXJ J 6.J pXJ J pX%.g ).pX/.D J J 7.D J 6.J 6.).J 6.H H F F e.CXNXi.NXu.u.a.<Xh.Z.C.C.Z.U.wXD.~.[.).[.,.s m 5.sX2.H pX).).).).).).6.pXpXE.pX).pXpXpXJ ).pX).pX).kXP.(.`.sX).pXpX).).pXpX).).6.pX).).sXpXpX).).).pXpXpXpXpX).7.,.B ).pX`.).).pXpXpX).pXpXpXpXuX).J ).pX).).pX).pXpX).pXpXpX(.8.z !.sXJ pXJ pXsXpXsX).J yXQ.F lXZXu.NXu.u.i.NX) - h.V.C.C.C.% n 7.D 6.3.D ).pXsX).).pXJ 6.).).pX).).pXpX`.pXdX{.J J J pXsX^.(.pXJ lXW.H 5.).pXsX).).pX6.J ).[.|.Q.`.).pX).).).).pXJ xX}.Z 6.).pXpX6.",
").G J ).pXpX).7.D H 6.J J 6.6.pX).).6.6.pXuX'.pXuX^.J G ).dXuX_.).(.[.(.H H 6.).(.).).!.R.7.lXZXVXt.i.u.mX:Xl.V.C.C.C.J.~.pXJ ).).`.).pX/.`.`.pXz *.0.M Z hX_.)./.hXsX).).`.`.D `.sX`.>.L pXpX).pX`.).).pX).7.C pXiXA ).).).`.).).pXJ pX).6.{.bXaX).).pXpX)._.dXq.Z pX6.5.9.0.!.].Z Z D ).pXJ 7.J pXpX6.).pX).6.).pX).pX).8.K ).F J 0.M !.).).pXD ).pXJ (.pXpXy.t.BXNXmX/ ^ l.h.w i i i Z.R.7.J J 6.6.J 6.E.5.H ).6.6.J 6.J 5.7.J J J J 6.pXJ J 6.6.pXpXpXD J 5.J ).6.J 5.5.J ).pXJ J 6.6.pX~.6.6.J 6.J 6.).J 6.D J 5.6.pXJ 6.6.J 6.6.6.nXU.R.6.H 6.6.6.7.tX~.6.J 6.6.J 7.6.D 5.nXW.J 6.6.).J J pXpXJ J J J 6.J J J H G Z kX/ p.i.u.u.u.u.<Xh.Z.V.V.L.nXI.K._.).].cX@.q , q 7 &.m pXJ J J pXpX).sXsX[.`.).0.N ).J _.pXpX).sX).[.rXS ).).pXpXpX).).pXpX).pXpXJ pX6.G ).`.).pXpXpXpXpXpXpX`.1.g T.4.S ).).pXpXpX).`.pXpXpX).pX).0.f Z pX).6.6.pXpXpXpXpXpX8.:.f j sXpX).uX(.7.S sXuX).J 5.J gX1XmXu.u.BXBXa.^ z.h.V.C.C.C.j.E.).uX<.<.B 5.F pX).).pXsX)._.pXpX).).pX).).pX`.7.5.).6.D ).).pX6.7.iXQ.6.`.).pXpX).pXpXsXpXpX(.pXpXpX6.J ).`.pXpX).).sX{.`.).pX6.6.sX",
"uXpXJ 0.z H `.dX/.6.H pXJ pX6.J 6.J pX(.6.(.J pX).sXe.M ~.pX`.`.`.).J (.(.J H ).(.).`.(.~.6.e.1Xi.t.NXu.i.%.L.V.C.C.C.F._.pXsXpXJ ).).).`.pX).gX} _ 3 W.{.).4.(.pXJ ).).`._.7.z b C q.q.g J pX).).pXpXJ 6.).e.*.n dX/.).).).).pXpXpXuX).pX).B ,.pX).).pX`.`.J ;.<._.uX9.F aXcX].!.`.!.V S pXaX^.).pXpXpX).pXpX).J 6.pX3.`.gX'.sX{.0.E.XX(.).).).`.).pX).(.pXsXy.NXNXBXu.CX<X- h.w G.H.r F.K 6.(.6.6.6.J J J 8.Z J 6.J J J 6.6.6.).pXJ J J 6.J J pXpXJ 6.D ).J 6.J J 8.@.z H pXJ 6.J J J pX).6.J 6.J J ).pXJ J 6.).6.pXJ 6.6.J pX).pXpX6.J sX6.pXJ 5.6.6.pX).pX6.6.G 8.*.Z sX).).).6.>.K pXJ J 5.J 5.).).6.J J J J H (.).Z gXCXi.i.u.NXNXCX! h.C.e Z.}.nXK.Y.sX_.B @., d M 0 q g Y.5.4.<.Z pXpX).^.[.`.pXsXtXW.sX`.(.pXsXpXpXpXJ 1.V J ).pX).pXpXJ 6.J 6.J sX(.pXsX^.F J 6.J J 6.pXpXpX).(.rXW.!.sX4.H ).pXpXpX).).pX).).pXsX).lXwXY.pXpXJ ).pXJ pXpXsX).kXi.;.q K aXJ J J sX^.J uX).9.<.Y.gXCXa.u.NXy.NXCX! - F.V.V.C.D.I.~.pX).sX'.hXdX~.D ^.).).).sXJ ).pX).).6.6.6.).0.>.!.sX>.B sX).pXpXpXH sXsX`.pXpXpXJ pX).pX6.).^.pXpXpXaXA Z 6.6.J ).pX).).pX).pXpX`.D ",
"D J 1.%.$.n pX6.pXuX).J ).).pX).).`.pX).).`.).pX).).kXY.n pX).).7.D J H H (.(.J C (.).(.!.sXlX/ y.MXNXu.mX! g V.C.C.C.L.sX).6.rX'.).).J J pX).sXAX>XI.`.pX).iX(.6.).`.`.pX).q.K !.R.DX&X}.).).).).pXpXpXpXJ jXwXR.pX).).`.).).6.).).pX).pXpX3.D ).).).).J 2.,.<.m C v 7.5.Z {.XXfX!.{.^.`.6.pXsX6.J 7.J 5.J J pX4.~.aXiX(.sX`.J pXjX].J ).).).).).).).pX).(.dXMXCXBXNXu.CX:X- h.w i H.i u m 6.J 6.6.J 6.6.D pX(.F 6.6.J 6.6.).pXJ 5.6.J J 5.J J J 5.5.6.).J J 5.6.J 9.qXL.Z J J J pX).).).pX6.J 6.pX).J ).6.J J J 5.5.J 6.).pXJ pX7.5.5.G J J 6.J J 6.J J 6.5.pXpXuX7.yX!.7.J J 6.6.jX~.5.5.J 6.6.J J 5.J J 6.J J F D J H (.mXNXi.i.i.u.s.:Xh.S.D.Z.B 9.L b z >.#.eXP.=XHXwXU.XXgX'.dXQ.'.pX`.`.^.J pXpXpXhX).).).pX7.G ).sXpXpXgX'.(.`.pX`.pXpXuX).pX).).pX).pXpXsXiX).pX).pXpXJ J pX).).7.yX].pXiX(.J 6.6.J ).).).).6.).pXpXdX.X{.pXsX).).pX).J 6.).aX:.nXwXU.P.).sX`.`.).pX6.J pXsXcX_.9.a.a.MXNXi.i.a.:Xl.h.Z.C.C.h.L.6.(.).pX(.).`.sX^._.sX).).pX/.).pX).).).`.[.1.0.B N 5.yX'.6.).pX).sX^.).sXpX).pXpX).).6.6.`.).J J 6.J pX[.).6.).`.J pX6.J 6.6.6.).sXsX",
").).[.yXwXY.pX6.G ).).).).pX6.pX2.v pX9.*.L ).pXJ 6.).Q.'.J J 6.sX`.).H H H J (.iX!.4.Z (.J e.1XBXy.mXBXmX! a V.C.C.Z.L.aX`.rX'.`.`.pXsX).).pX).{.U.{.).pXpXpX6.).`.).).pX).kX$.j c 1.+X!.sX).).).pXpX).pX).).[.`.pX).`.).).pX4.).).).pX).pXsX`.).).).).9.0XnXgXb c C 0.2.Y.].].cX'.uX`.).aXA (.sXpXpXaXD ).J J `.).).pX).pXpXG G ).).(.).(.).).).).6.).J 5.5.t.a.i.u.NXZX^ l.h.r i r G.Z.n J J 6.6.6.5.(.).6.).J 5.J J 6.pXJ ).pXpX).pX).6.J 6.J 6.J 6.).pX6.J 6.J kXPXT.B ).6.J 6.J J J 5.6.J 5.G 5.J J 6.6.J 6.J ).J 6.J 5.5.5.7.^.7.H 7.*.Z 6.J 6.1.K 6.E.J 6.pX6.J 5.J J (.pX6.J J 6.6.J J J 7.G ).6.J J J G J J ).!.8.( t.i.u.i.t.s.~ h.V.C.Z.M 7.T.hXfXqXeXOXI.XX{.hX`.7.sX[.sX{.`.`.`.6.6.6.D ).pX6.).(.).sX1.S (.pXsX).sXpX^.).(.7.>.~.sX).sX`.`.pX).pX).`.pXpXpX(.`.sXpX).).).).`.sXpXpXpX).).pX).).).pX).).pX).6.).pXG 5.6.).).pXpXpX6.6.H q.rX}. XQ.[.).pXJ ).pX).sX).).pXpX(.gXa.t.i.u.BXBXa.,Xx.F.Z.V.Z.F.M B [.pX).pX).).pX`.`.).pX).).).pXpX).`.).J D e.pX:.2 g Z pXpX).`.).pXpXG C 5.6.5.).J ).pX`.).pX6.J pX).pXJ ).).6.z S pX).).).pXpX^.>.z ",
"pX).J J sX`.6.aXuX(.).).pXpXpXpXqXh m dXbX!.6.6.^.`.).5.5.J pXJ J 6.J ).).H (.(.(.J _._.(.sXlX( mXNXNXBX/ ~ j.V.C.C.V.a J ).).9.V ).).).`.pXpX).).J J ).).pXpX).).).).).6.).gXwXQ.tXg W.`.pX).pX).).aXD ).).pXJ ).sX`.).pX).).`.).).).pXJ ).J 5.F ).).6.uX[.yXeX<.b x -.!.T.!.].sXpX).pX8.2.{.).pX7.J 5.).6.8.2.Z ).pXpXJ 6.pXtXR.).).J ).).J J ).).pXJ 6.J 6.t.NXNXu.i.CX! - h.A.G.G.r J.Y.J J 6.pX6.J (.7.0.L J J 6.J J 6.J J 5.J J 6.>.N J J J 6.6.J J 6.6.6.6.J dXjXXX'.5.6.(.J J 6.J 6.J 6.6.6.J 6.J J pXJ 6.J J 6.6.7.<.D uX^.J fX!.w.<.Z 6.pXJ dX[.J J 6.pX6.7.J 6.G J ,.N 7.G J J J 6.J J 6.^.J 6.J 5.6.J J H G Z e./ NXu.NXNXu.ZX,Xh.V.C.e L.yX}.PXxXe.XXGX}.j 5.).`.`.sX).hX`.`.`.pX).pX`.[.sXsXsXdXD J 6.tX].pXJ pX7.*.!.sXsXD 8.Q._.pX6.).).).pXpXpXD 5.G (.sX`.).pXpX).pX).).6.6.).pXpX).pX).).pX).pXpXpXpXpX).).pXuX_.sXpXJ J 6.6.pXpX6.tX}.`.pX).5.6.).).J pX).).uX`.).`.`.q.a.t.i.NXi.NX/ ! $.Z.V.C.V.F.9.d (.sXuX`.`.).).).).pXpX`.uX(.pXpX).).pX).sXkX7.d.XXK._.pX).(.pX6.pX).aXV (.pXsXsXJ ).pX).pXpXsX`.).).pXsXpX).q.h !.pX).pXpX).).6.tXY.",
"sX`.).).).6.pX).`.).).).pXJ 5.J dXbXW.5.J J pX^.).6.6.6.J J J 6.J (.6.C H H H F F J H F (.6.e./ u.u.u.i./ Q j.V.C.C.C.w M pX).dXE.H pX).).pX).`.).uX^.aXN ).).).pX).).pX).pXsX(.hXvXXX~.6.).).).`.pXsX/.).).pXpXS ).6.6.J J pX6.J pX).pX`.).).dX/.G J pX).pXJ dXeX0XZ ~.m Y.T.^.pXpX).7.9.S (.pX6.sXaXD G J aX'.!.7.G ).6.6.pXdXK F ).).).).pX).(.pX5.C C 5.C VXt.u.mXNXZX:Xj.% r i i i J.tXV J 5.2.2.G 2.G gXB F 6.5.6.J 6.).6.J 6.G 9.qXR.pX).3.J pXpXpX6.5.J 6.J J pX/.J pXJ 5.G G 5.6.6.J 6.).pXJ ).).5.D 6.6.J J 5.6.J sX>.Z pX6.pX6.aXQ.(.G J 6.J 6.aX>.K 6.aXaX5.G J 3.0XP.7._.).).5.D J 6.J J 5.J 6.J 6.J H G G Z d.CXNXu.u.p.u.s.~ h.C.w Z.& d L.cXbXwXn jXwXB m (.`.`.sX`.[.sX`.[.[.dX4.{.sXsXsX[.dXhX[.sXhX'.hXhX`.hXyX].sXsXhX[.[.sXsXhX[.sX).).sXsXhXhX[./.`.`.`.sXsX`.sX`.`.sX`.`.sXsX`.sX`.pXsXsX`.`.sXsXsXsX`.sX`.pXpXsXsXsXpXpXpX).).hX{.pX).6.).pX).pX).pX4.J ).).`.).).lXCXa.y.NXu.i.1X! h Z.C.C.C.u fX}.V K sX`.).`.`.).).pX).).sX).6.pX).pX).pXpXq.:.Q.I._.pXsX`.).pXpXpX).pXsX(.pX).sX`.H pXJ 6.).pXpXpX).).pXpX).jXXXH 6.J pXpXpXpX).{.{.",
"sX`.`.sXsXsXpX`.).).).).pX9.V `.).(.pX`.sX).`.`.`.sXpX`.`.sXpXpX).).6.pXF F (.J H H (.(.~.7.y.p.u.BXNXNX/ z.J.V.C.C.A.C.u (.`.).iX_.pX`.`.sX`.).).sX4.uXQ.`.`.sXsX).).).`.sX`.`.).J pXuX`.uX).).J 6.`.sX).).).sX`.`.sX/.`.sX).iX/.pX).pXJ ).pX`.sXiX_.`.6.J `.sXdXeX|.bXW.Y.n G 3._.dX0.>.E.(.sXsXsXdX).pX`.).pXF pX_.6.).`.).dX1.Z `.).).pXD ).5.J aXsX3.G 5.#.mXi.u.MXCX:Xl.h.r i G.r a V [.aX$.R.^.<.Q.`.fX'.H 5.J J J 5.J 5.6.5.J pXhX).).,.l m 6.6.J pXpXJ J pX).).6.J pXpX7.(.).(.J ).).pX).pXJ ).).sX^.6.pX6.5.J 6.J 7.qXB 5.5.5.6.).).pX).pX6.).).7.yX]._.dX0.G 6.G fXW.).`._.pXpXuX/.).).sX`.pX).pX).)._.).`.{.4.e.CXt.u.s.i.u.a.,Xh.C.C.e V.% s v v 1.P.Z 9.tXY.H G C G G J 8.K F 8.8.Q.Z sXpX).gX>.f K 6.J J (.sX`.).sX`.sX/.`.sXsXpX6.).sXsX1.B sX).`.sX`.hX`.`.sX`.sXsXsX`.sX`.`.sX`.sXsX`.sXsX`.sX`.`.dXuX`.`.sX`.`.uX`.sX`.sXsX[.hX[.hX'.`.iXsXsX`.[.sX`.[.sX1.Z sX^.(.`.pXe./ NXi.i.i.y./ AXP.Z.C.V.S.u F.}.jX].`.sX`.sXpX`.pX`.sX`.sXhX`.sX`.`.sX`.dX0X0XL.].).).`.[.sXpX).sXsX`.`.`.`.sX).[.sXsX6.J `.pX`.`.sX`.sXsXsX`.sX`.`.`.`.`.sXsX`.).pX",
"`.sX`.`.`.sXsXsX`.sXsXpX).hX X`.sX`.`.`.sX/._.pX).`.sXuX(.sXsX[.`.sXuX{. X{._._.`.(.(.(.(.gXMXu.u.i.MXmX/ Q g V.C.C.C.Z.I.`.`.).`.sX`.`.`.sX[.sX`.sXyX'.sXsXsX`.[.[.[.`.`.`.[.[.`.`.[.[.[.fXD ).<.~.`.sXsX`.[.`.sX`.sXsX`.sX[.[.sX`.`.dXaXF _.sXsX`.D (.hX`.).sXdXw.y.d }.XXR.rXQ._.w.#.m Y.sXsXsXdXdXdX(.pX`.sX].[.sXsX`.pXsX`.jX!.F H _.aX4.C F 0.v G 7.G e.p.i.BXNXi.s.:X- h.A.i G.i K.T.J dX|.XXhXQ.`.aX6.K ).`.).).pXsX).).pX`.`.).).pXpXy.A 2 b ).`.pX).sXsX^.sX).sXsXJ `.sX`.pX`.`.`.sX).`.sXsX).7.;.l H pXpXsX`.pX`.sX{.sXpXpX).sXpXA `.).pX`.).aX^._.[.3.:.L !.`.{._.sXiX_.`.6.).`.pXpX).pXJ pXJ 6.D _.).).).F rXlXa.s.i.NXBXu.mX;Xh.C.V.D.+XU.p l k k z x ;.*.L c =.c c x x -.C c -.-.z v L 5.C 8.qX$.j v C C C C C C 5.2.G G G G 5.9.N ~.5.5.jX'.7.5.F J J 5.G G J J 5.5.6.5.5.3.C G G 5.6.J 5.6.G G G 5.6.6.A 5.J J 2.G G 6.).).).5.7.(.).sX).pXpXsX`.).pX).).aXtX!.).iX/.).9.p.a.i.i.i.NXy./ p.$.B.C.C.C.Z.Z.F G 6.G J G G ).J pXH 6.J J ).pXpX`.`.sX`.sXjXwXXX(.sX`.`.sXsXhX`.`.`.sXpXpX).aX(.(.sXsXjX'.sX`.`.).pXpX).sX4.K `.`.`.`.sXsXsX).`.`.`.",
"G 7.J J J G G 6.J G 5.3.A J J 6.pXJ 7.J 6.H 5.J J J 5.uX`.6.).).).pX_._.J J 6.c L (.).F F 5.y.NXBXNXi.u.( ; F.Z.C.C.C.Z.g J J 6.J J J J ).J J 6.).J J J J J J ).5.C ).).).pXJ 6.pXJ J ).J fX/.`.iX'.pXJ ).).pX6.J ).).sX).).).).pXpX7.5.aX/.!.pXpX,.>.[ l K uX_.dXjXDXU.n !.].hX`.:.@.U.|.T.pXpXpXaXsXhXaX(.pX(.H J ).pXpX).6.G 5.9.M !.H pXtXpXF w.F C 2.0.e.CXSXBXNXBXZX<X- h.r i i r a 6.G G J 5.C 5.G 9.8.S Z ).pX).).pXpXpX(.).pX).6.pXJ jXIXVXg j pXpX).).).).pX).).sX`.).pX).pX).).).pX6.J J pX8.:.y.P.!.sX).pX).pX).pX5.J ).pX).).dXiXZ pXpXJ 7.J ).5.;.:.dX{.Z F G 2.C 5.C 2.5.F 5.5.5.5.3.5.G 5.3.A C C C C C C y.CXNXNXu.i.i.a.~ h.C.Z.L.uXV l 8 k &.8 9 @.b b l x x =.l x l k x x ;.M b b -.-.-.%.,.O.q b v v v -.v -.-.-.v c c c 2.E.v -.-.v -.2.C 2.v v -.C C v v C 2.2.-.2.2.C C 2.C 2.2.C 2.2.2.C 2.C -.>.C 2.*.N L C 2.C C 2.2.C C 2.C 2.C 2.N C 3.2.C C 5.D 5.C C 2.F 9.i.s.p.BXi.u.NX1X! ; B.C.C.C.D.u v -.-.x v -.z v v v C C 2.v C v C v C C 2.C 7.7.S C G J 5.5.5.5.5.G C 5.8.G G 6.J F 5.5.J D J ).5.5.J 6.5.G w.%.j 5.5.J J J 6.7.G G 5.",
"l b 2.v v C -.-.2.2.2.2.C L 2.C 2.*.C 2.2.C C C C C 2.C -.C C 2.C C C C 3.C 0.<.m C C C L ;.p.BXu.i.NXNX2X; u Z.C.C.C.V.u v -.v C C -.z v C -.C 2.C 2.v 2.C 2.v 2.V L 2.C C 5.C C 2.C C 2.C C 5.C C 2.G C C C 3.G C C 2.5.F 2.C C 2.5.7.J !.C 5.;.~.%.@.>.f z C 2.0.gX|.{.T.Z C ;.$.H.Z 4.K C C 2.2.C 0.8.F 5.G 5.F 2.C 2.2.2.2.L 6.'.F C C 5.aX7.7.gXC 2.C y.u.MXu.y.MXu.<Xl.% A.G.i A.u z -.v =.c -.c -.v 3.G L v v -.-.v C 2.C 2.C C 2.G 2.5.gXIX+XT.K C C C G 5.G G C 5.C 5.C 5.C C 2.C 2.2.C C C e.$.W.Q.C 2.2.2.C 2.2.2.C C 2.C C C 2.5.2.v 2.2.2.C -.2.q.A C C C v v ,.N -.v c *.=.=.-.=.c v v =.-.-.-.c v c v c -.e.a.NXi.u.u.i.mX~ % C.V.s 0 X.8 8 6 8 8 o.6 9 9 9 6 [ 8 8 7 k 8 X...l l 7 0 0 k =.@.q.e.g d 8 l k k &.k &.&.k k k =.l k =.&.&.k k =.v c -.c c c -.c c c -.-.*.c -.c c c v -.-.-.-.v -.v c -.-.2.v 2.<.B C c 2.N 2.*.v v -.v v -.c -.C v v -.v v v c v -.>.h L ;.p.t.i.i.i.u.y.1X! - Z.C.C.C.e a o.8 &.l 9 *.b x =.x =.x =.x x x k x x c c -.-.,.z v c x c c v 2.2.v -.c 2.2.C -.v -.=.v -.v v -.v C 2.2.3.2.0.i.$.b C 2.-.-.C 2.C v -.",
"s d c -.c c =.c c c c -.C c c c -.-.c -.-.v c c c v c -.v v v v -.v c c x c =.K L c c c c :.s.y.mXBXi.u.( l.j.Z.C.C.C.Z.g X.k l k k =.c x x c c =.c =.x x x =.c c v x v v c c 2.-.v c c c -.v -.v c c c -.v v v v v c -.v v -.v c c c -.C v v ;.@.f $.}.bXwXg v -.2.(.6.6.L =.#.$.B d b 2.v v -.-.-.-.2.2.v v *.v v -.-.c -.2.C C v c c c c v v 0.-.C aX8.2.e.qXy.u.u.MXZX! l.h.r i G.G.r 0 7 7 8 k &.&.l b &.l x &.k k &.x k x x c c c c =.-.c c =.>.2.v c c c c =.c =.=.=.=.-.c =.c =.c c -.-.-.-.c 2.K c c -.c -.-.c c -.-.v -.c -.-.c -.=.-.c c -.=.c -.=.-.3.8.2.c c c -.v k c ;.3 d b =.=.x x #.d b =.=.*.x x c =.c :.p.mXi.u.u.u.i.,Xh.C.V.Z.e f 6 7 7 8 X.&.X.8 9 6 | ..3  .7 < 5 4 7 6 6 6 4 3 3 { 2 *.jXY.9 5 < 6 6 6 6 6  . .6 6 6  .6  .6 8 8 8 8 7 8 &.8 8 8 X.X.X.9 8 &.-.x =.c x &.[ 2 x =.=.=.&.x &.*.z c =.k c =.x x =.c x -.x =.c c x -.-.c c c =.c c c =.c c =.V L c :.p.u.i.i.i.u.i./ ! z.Z.C.Z.G.F.s 9 k k ;.l 8 k 8 8 k k k k &.k k k x x 8 8 8 8 &.z z z 7 8 k 8 X.&.&.&.x k &.&.&.k =.c x &.=.k =.x k l c =.=.*.q.wXM =.=.=.c =.-.v -.@.",
"g n b &.k k ;.z x =.=.k &.x x x x =.c =.=.x =.*.l x =.c c c c x c =.z c c c =.b x x c c c :.s.p.p.u.i.a.) - j.V.C.C.C.D.j o.l 8 8 ..l 8 8 9 8 8 8 &.k k 8 k k &.k 8 8 9 X.8 8 8 8 &.&.l 8 k X.k  .7 k l 8 k 8 8 8 8 X.8 8 X.X.X.8 8 8 8 X.8 8 &.qXSXW.m c N j k k k X.X.k o.` :.;.j N h b =.=.=.c =.c =.-.v =.*.z =.=.=.c =.c =.l x x x x x x x x 0.L 2.3.<.q.%.i.i.BXi.s.<X; h.p i i C.g o.&.9 6 6 6 ..8 9 o.b 8 &.k X.k &.l 9 8 7 ..k 8  .7 8 X.8 X.8 8 8 7 ....6 8 8 X.8 X.&.X.&.8 X.8 k 8 8 X.k &.8 8 k k k &.&.k x &.&.&.&.o.7 9 X.k k =.=.=.=.k =.k &.&.l &.&.=.=.x &.k #.#.@.@.I.K.b =.k k ;.SXh q X.&.l l k 8 X.k :.e.ZXmXu.t.BX/ c.B.C.Z.V.D.d 6 9 8 6 6 7 7 X.7 9 k &.&.0 X.8 8 &.l 9 8  .6 9 0 %.N l l o.7 7 6 9 6 7 6 | 6 6 X.o.2 6 6  .9 6 6 6 6 6 6  .6  .6 6 X.8 6 6 6 4 7 8 8  .} = d 9  .6 o. .6 l z *.2 [ < 6  .6 6 ..8 8 O.l 9 k k k &.&.l 8 8 8 &.k k &.x =.&.8 x x :.e.i.i.NXNXu.u.CXQ g Z.C.C.C.B.s q 6 6 7 &.9 6 6 5 5  .2 < < 6 4 6  .< 6 6 ' 2 5 6 6  .@.2 6 6 4 ' 6 o.6 6  ...7 8 8 8 X.8 X.8 8 X.8 9  .o.7 ..8 k X.X.7 k 8 8 X.8 &.qX",
"R.b 6  .8 9 &.x 8 7 X.X...8 8 8 o.7 8 &.8 8 X.k k 8 k &.8 8 8 X.8 8 k k k k ;.&.d 8 8 8 7 } r.y.u.i.i.s.^ l.j.Z.C.C.C.F.X.l k 8 6 X.8 6 6 5 5 4 4 4 | 4 4 4 | | 6 6 4 1 < 6  .6 4  .X.6 4 4 5 | ;.b 4 6 o.< 6 6  .6 6  .6 6  . . .6 6 6 |  .6 4 ..lX].,.l b b ..6 ] ' [ 2 #.$._ f M b M 9 6 6 6 8 X.8 8 &.k &.l k k X.8 X.X.X.&.l 8 8 8 8 8 &.k x 8 l &.=.&.:.d.ZXNXi.i.s.^ - h.H.i S.p 6 6 8 8  . .6 [ 2 1 < 5 ' ' ' < 4 ' 7 < < < < 5 [ f 0 4 ' | 6  .6 | 4 4 |  .5 ' < < 4  . .6 6 6 6 6  . . .6 ' 6 6 6  . ...X.7 6  . .o.o. . .6 6 8 2 6  .X.o. .o.| |  .6 '  .' | [ N 2 @.xXnX<.N l 5 6  .6 ..*.$.2 | @.0 6 4 o.2 < O.0.y.t.mXNXu.a.; B.C.V.D.s 8 8 7 9 X...k k 8 k 9 6 8 &.k 7 8 9 ..7 9 X.X.8 6 6 [ ,.l X.8 l 7 9 8 7 4 @.$.0 6 | &.l ..7 8 7 6 6 6 6  .6 6 6  . .6 6 X. .6 6 6 6 ' 5 #.VXL.b 6 X.6 o.7 X.0 < &.*.:.f 0  .6 6 6 6  . .8 7 5 < 4  .o.&.9  .6 6 6  .l 9 6 ..l 9 ..o.:.f.d.y.u.u.NXmX,XL.B.C.C.V.F.>.b 2 f 9 8 8 6 8 8 7  .7 ..l 7 6 5  .7 9 o.@.l 6 6 6 7 7 6 4 |  . .5  .6 6  .o.7 5 < < 6  . .6 |  .6  .6 6 6 ..6  .6  .6 6 6 6  .7  .kX",
"6 4 4 6 6 6 6 4  .6 6  .6 6 6 6 o.k < 5 o.6 6 4 4  .< 6 7 6  ...6 6 < 2 o.2 X.*.b 6 6 5 [ *.r.e.i.i.i.s.<X- & Z.C.C.D.b | 9 6 6 6 7 7 8 8 8 6 6  .6 6 6 6 6 6 6 6 6  .6 5 6  .' 6 6 |  .6 6 6 | 6 6 ` , 2 6 4 ] 2 6 6  . . . . . .6 8 6 ..7 6 8 6 6 8 ;.-.l 9 8 { f [ l b *.%.#.s B z X.6 6 6  .6 4 6 6  .6  .6  . . . .o. .6 | 4 o.6  .2 9 8 9  .7 6 | | [ O.;.s.s.i.i.CX<Xl.h.H.G.G.2 | 9 | 4 6  . ...l 6  .9 < o.6 6 ' < 5  .2 6 6 < [ d 7 < | 6  .6 6  .| ' 2 4 ' < 6 4 < ' < 6 6 | 4 4 4  .6  ...7 5 4 6 6 7 < [ 1  .| | [ |  .6 6 | ..4 | ' [ ' | | | | ' ' [ $.2 ] 2 < 1 5 < ] | ' ' < < ' ] ] 1 ] ' < < ' ] < ' ' < < r.f.i.CXi./ ;XB.C.h.U.b 8 8 *.b X.&.9 o.8 X.&.0  .6 8 8 9 8 ..6 5 6 6  . .8 6 6 k 8 8 8 8 9 6  .6 &.>.9 6  .9 6  .7 7 8 8 6 X.7 7 6  .6 6  . .9 6  . .6 6 6 6  . .>.x 8 9 6 } 3 9 ..o. .< 4 O.>.0 ..6 6 6 6 | ' < < < < < 2 4  .6 6 6 6 <  .6 6 6 < < < '  .#.#.:.p.y.u.NX1XQ L.B.C.C.D.a ;.M x x 9 6 ..7 6 6 6 o.9 8 8 l 8 ..l X.9 8 k 6 8 X.7 8 o.&.9 X.8 6 8 8 o.6 6 6 7 6 @.f 6 .... . .6 6 6 7 6 6  .7 9  .6 6 6 6 6 6 6 ' ' ",
" .7 6 6 4 6  . . .2 6 6 6 6 6 6 6 |  .< <  .6 ' 2 ' < < < [ 2  .< | @.d < 6 9 8  .5 5 7 &.[ :.e.y.NXt.a.<Xz.j.V.C.D.g  .6 6 6 9 6 6 6 6 6 6 6 6 7 8 8 X.7 8 [ 2 8 6 ..7 8 6  .&.l o.X.8 8 X.8 O.O.O.f m j o.,.N 9 6  .6 6  . ...9 7 6  .7  .6 6  ...5  . .X.7 o.} f ;.j k 8 :.eXm 0  . .6 6  . . .6 6  .' 6 6 | 4 | 4 | o.6 |  .< | 7  .&.9 4 < 5 6 |  .o.| O.' r.p.i.BXy.2Xz.h.H.S.d | 9  .' 9  . .6 6 6 6 6 6 4 ' < 4  .9 6  .2 2 6 O.@.j  .6 6 6 | < 4  .6 o.l  ...6  .7  .&.0 4  .6 6 6 6 | <  .4  .6 4 4 4 ' O.;.3 < | '  . .7 | 2 b f 4 [ f 4 ' ' |  .' '  .| .. . .9 O.2 < | ' < ' 6 | ' ' |  .6 O.h f 4 ' [ < 4 ' 2 ' g.:.d.CXBX/ ;XB.D.D.b ;.0 k k k 8 k k 8 k 8 =.&.k x 8 8 8 6 X.8 8 6 6 6 8 8 &.l 7 7 8 8 8 6  ...6 6 6 X.8 &.@.6 ..9 6 6  .< 2 6  .7 6 6 6 6 8 l 6 X.8 .. .7 6  .7 9  .7 8  .:.B 6 ..7 &.&.7 6 8 8 6 ..9 X.o.[ b >.h 6 X.9 [ < 6 7 7  . .7 6 6 6 +.f 5 6 6 9 #.#.:.:.p.i.u.mX:XL.B.C.Z.h.j X.*.0 8 8 8 8 8 X.8 8 X.7 6 6 6  .&.9 ..7 7 o.[ 9  .7 o.&.z 9 6 ..8  .6 ..&.6 6 6 6 k k 6 7  . .X.7 6 6 6 6  .6 8 6  .7 7 7 7 7  .{ d f ",
"9 8 X.X. .6 6  .X.' 1 6 6 6 6 6  .6 7 8 ..6 6 ..6 ..7  .6 4 6 6 6 6 k 8 5 9 2 '  .9 6 9 [ o.7 e.d.i.a.a.^ ; j.V.D.M X.7 7 8 8 9 9  .7 8 8 8 8 8 8 8 8 8 ..{ @.g 6 7 8 9 8 X.6 0 8  .8 8 6 X. .o.;.2.Z z 8 X.&.8 8  ...6 6  .6 7 6 6 6 7 6 o.&.z 6 o.6 o.7  .6 o.:.j k l 6 7 X.z 8 6  .6  .6  . .6 o.6  ...6  .6  . . .o.6 o.6  .6 6 6  .6 6 6 9 6 6 6 6 o. .o.} #.r.d.p.f.s.:Xh.H.a |  .9 O.2 5 6 6 6 6 6 6 6 6  . .6 6 6 6  .6  .2 6  .*.7 6 4  .6 |  .6  .6 | 4  .4 o.2 6  . .6 6 6  .< 4 | [ 9  .| < 4  .| | ' o.O.*.0 ] [ 9  .' ;.n M k |  . .| | 6 |  . .o.< o.6 6 o.6 o.7 < ' ..7  .6 o. .4 | | 4 l *.| 6  .6 6 4 | < ' #.A SXNXmXt.z.h.K.j 0 ;.z 8 8 o.< 9 k 8 8 8 8 x x X.8 8 8 X.k l k 8 8 k k X.8 8 &.8 ..7 6 @.f 7 8 8 ..2 8 X.&.8 8 7 9 8 O.h d [ l X.6 6 6 6 6 |  .6  .6 6 X.k k 7 7 6 7 6 6 X.&.8 8 6 o.o...&.k 8 o.&.7 [ [ <.M z 8 o.7 8 #.h 0 o.[ 9 8 8 6 6 O.@.d o.6 9 5 #.,.;.1.d.y.BX^ ~ g B.Z.K.g 9 6 X.8 8 8 8 8 8 8 9  . .7 8 8 8 &.*.7 6 6 7 o.&.7 6 6 ..k 6 ..7 6  .o.l ..&.6 7 7  .2 6  .6  .6  .o.6 6 6 6 o.9 6 6 6 6 6 6  .6 O.h d 6 ",
"5 6 7 8 X.8 [ f @.@.d 2 6 9  . .6 7 6  .6  .6 7 6 6 ..7 o.&.9  .6 6 5 6 8 9 6 6 9 6 6 6 5 o.5 O.:.d.a.a.<X;Xj.D.g o.7 8 8 7 8 9 O.{ 0 8 8 8 8 8 8 8 8 X.&.1.W.M 7 8 8 < < 6 8 9  . .7 7 X.o...l 8 8 6 6 6 8 O.f 6 6 X. . .7  .6 6 6 6 6 6 6 8 8  .6 7 6  .6 6 6 *.l X.X.7  .6 6 O.3 6 6 6 X. .6 6 X.8  . .o. .6  .6  . . .o.7  .6 6  .7 6 6 6 < 6 6 6  . . . .;.#.#.r.g.} r.Q h.a  .o.6 6 o.k 9  . .6 6 7 6 6  .| 6 6 6 4 6 6 6  .7 6 6 ' < | < 6 6 4  . .4 4 | 4 4 | | 6 < 4  .6 < 4 | 6 6 4  .6 | o. .< < ' < | | @.#.2 f 9  .6  .l l | |  .| o.[ ' <  . .[  .o.6 [ @.2 | 1 <  . .O.2 6  .|  .|  .6 6 | ' 6 4 4  .o.' 4 4 | &.x :.p.s.p.: h.M 7 9 1 < 7 7 &.&.b 8 X.&.9 7 6  .X.8 8 8 X.8 k 8 8 8 6 6  .8 8 X.6 &.k 8 k &.8 8 7 X.l 7 6 7 6 6 8 8 6 &.E.x @.f 8 8 8 7 8 X.7 X.7  .7 6 9  . .X.7 7 ..6 9 7 &.7 O.@.0 ;.l 8 6 6 6  .o.&.2 6  .|  .6 6 6 &.z 9 O.h 0 6  ...7 ..q.d 6 o.f 9 ;.e.<.3.BXd.BX/ :XJ.B.h.g x k 8 8 k k k 8 k 8 8 7 o.k 8 8 8 8 8 7 &.k ..6 X.6 8 6 ..o.7 8 8 8 7 8 X. .4 < 7 7 7 X.k 6  .8 9 o...X...&.6 6  .7  . .6 4 4 5 6  .;.M 8 7 ",
"7 6 4 |  .6 &.z *.wXY.k 8 6 [ 7 9  . . .6  .6 6 ..7 7  .7 l 6  .6 6 9 5 6 6 6 9 6 6 6 7 7  .7 o.;.:.p.u.<X! h.D.M X.k k k k k &.*.tXb 8 8 6 8 8 X.6 8 X.8 8 7  .8 8 8 ;.b x 8 X.7 X.8 8  .&.k 8 8 8 8 8 8 6 &.x 7 X.6 X.8 6 X.k 8  .8 8 X.k 9  .&.k 8 X.X.8 X.7 8 X.8 8 X.o.] 5 :.f 6 8 8 o.7 8  . .6  . .X.o.7 ..7 ..7  .X. . .6 6 6  .6 9 o.f 0  .6 7 o.o.o.O.} :.r.) $.g.; * q o.6 8 X.8 8 7 7 X.8 6 7  . . ...7 6 6 7 8 6  .7 6 7 6 &.l 6 6 | 6 6 6  .6 6  .6 6  .6 6 6 6  .o.[ 9  .6  .6 4  .6 6 6  .6 &.[ > 3 [ r.g d  .o.6 8  . . . .[ 2  .o...6 9  .o.o. . ...x 8 &.@.f 2 ' ;.b 4  . . ...6  .| o. . .6 | ' ' [ 6 | ' ] 1 +.r.p.CXc.* ] 6 < ..3 3 6 | 7 0 5 6 6  .< 4 4 < < < | < 6 < < < 5 4 4 < < 4  .| 4 4 6 | | 6 4 6 |  .4 4  .6 6 < ' 5 0 6 O.@.f 4 | [ 2 6 8 X.8 X.&.k O.+.3 d X...6 o.8 6  .|  .*.N 7 7 7  .l ..] < 9 o.7 7 ..8 X.8 8 8 6 9 o.O.k 9  .6 ..7 6 &.z 8 8 k 6 6 ;.0.*.d.p.i.^ :Xl.h.D.d 4 6  .9 6 6 6 8 6  .6 6 6 8 8 k 7 6 X.&.0 7 X.8 7 8 X.&.7 k l 7 X.8 X. .8 &.} d l X.8 X.X.7 8 8 8 6 8 X.8 X.X.8 8 8 o. .X.8 8 8 6 6 X.8 6  .",
"7 O.@.f X.6 4 6 6 X.X.6 7 ..*.7 6 6  .8 6 6  .4 o.l 6  .6 ' 6 7  .8 6 6 2 2  .9 6 6 9 7 6 8 o.o.O.:.f.r.^ >Xk.u  .6 6 6 8 7 8 8 9 8 X.X.6  .9 6 o.l 9 X.[ 9 8 7 8 X.[ 0 l  .6  .8 6  . . .7 X. .6 6  .6 8 X.6  .7 o.l 6  .7 8 7 X...9 7 7 X.8 6 6 6 6 X.X. .o.6 6 6 ..o.< &.N b ..&.9 6  ...k 6  .X.X. .6  .X. .6 X. .o...6 o.7 8 X. .7 7 9 6 9 5 o.9 6 o.o.o.O.:.:.r.p.y.f.$.* d | < < 4 | < < 6  . .6 6 o.' < 6 7 o.2 2 < 4 6  .6 6 ' 6  .[ @.0 2 < <  .6 |  .6 4 ] ' < 5 6 6  ...6 6 6  . .| 6 6 6  . . .4 #.+.O _ d n 9 |  .6 6 |  .|  .&.l  .| | ..6 | o.o.o.| 6 ' < { f l 2 &.9 ' < | | 4 | ' ' | ' ' ' ] 1 { ] 1 < ' ' ' ' [ r.;.^ : P , > , , { q 1 ] 1 1 , 1 1 ] ] < ' ' ' 1 < < < < < 4 4 < ' 5 < < < ' < < < < < 5 6 < ' ' < < 4 6 4 | 6 5 < 1 @.f < < ..7 6 5 < < < | 6 4 } kXg 0 ' < 4 6 6 < 4 6 6 5 | ..[ 2 6 7 O.;.b ' 2 7 6 ' 7 6 7 6  .6 7  .o.8 ..2 6  .6 6 6 4 < 4 4 | 1 6 &.=.#.f.d.^ ;X- u s 0 6 6  .' < 6 6 4 6  .6 o.6 2 5 '  .< <  .6 < < | 6 6 4 O.7 5 | 4  .6 ' 6 6 ' ,.M < | 4 6 ' 6 6 6  .| < 6  . .' < < ' [ l 6 6 4 4 o.6 6 6 ..9 ",
"1 ' *.b | o.@.3 < < ' < < ' 4 o.6  .6 < 6  .' 6 ..7 ' ' 6 &.0 5 6  .6 6 6 6 5 5  .9 b &. .] ' ' o.:.g.f.~ K.L.d  . .6 9 6 6 6 | 4 < 4  . .6 6 5 |  .6 ' &.9 4 [ ] 3 M d < < < < ' ' ' < < 4 4  .5 < 4 4 ' ' 4 4 < | 6 4 ' < 4 | | 4 4 < < < | | ' < 4 < ' ' ' ' 4 < < O.z b &.2  .6  .< < 4 4 4 6 | |  .o.6  . .6 o.6  . .| 6 6  .o.6 5 o.< 4 } 3 q 6 2 | [ ' [ O.O.) t.p.#.d % 0 | | < < ' 5 5 < < < ' 1 < ' ' 1 1 ] ' < < < < 1 1 1 1 1 ] ' &.l < 1 1 1 ' ] 1 1 ] @.f < < 1 1 ] ] ] 1 1 1 ] ] < < < ' < ' < #.u.h j d 3 ] < ' 1 ] < ] 1 < ] ] ] &.@.1 < ' ] ] ' ] ` ` ] } @.3 2 1 ] ' 1 1 ] ] ] 1 ] ] ] ' { ] 3 ] @.5 ] ] ] ] 1 { } O.^ : $ o U X X o o X X X U U o o o U o O O O + O O O + + + + + > > > > > > > > _ > > , _ > , , ] 1 1 1 , 1 1 ] , , 1 ' 1 1 1 ] 1 1 1 1 1 1 ` 1 7 2 < ] ] 1 1 ] 1 1 < 1 ] 1 1 ] ] 2 1 ] '  .6 [ 2 1 ] < 2 ] ] ] < < 1 1 ' ' ' [ < < < < < < < < ' ' 6 5  .k #.:.d./ ! - s j 1 5 < ] 5 < 1 < < < ' < 6  .6 | ' < | < < < 4 | 1 5 ' ' < 4 < < | < < < < ' < 4 ' < ' | 1 < 5 < < ' ' 5 < < [  . .< [ 2 5 5 4 4 ' < ' < < 5 < ",
"] 1 1 1 1 1 ' 2 1 1 ] ' ] 1 1 1 1 ] ' < < < ' < 1 1 ] < < ' ' 1 1 1 ] 1 1 1 1 1 1 2 3 [ { @.f [ 3 +.g.E $.s b 0 ] < < 5 6 6 ' < 4 ' ' < < 5 4 < < < 4 | 4 ' ] > l j b 9 < | < 4 ] < 4 | 6 | < ' [ 2 1 ' ' ' < < < < ] ] < < ' < < < < < ' < < | 6 6 ' [ 2 4 | 4 6 6 6 9 ..< [ l ' < ' ' < 3 ] 1 1 ] 1 1 ] 1 ] < 1 ] ] ] 1 1 1 ] 1 ' ] 1 1 < < } *.q ] 1 ` ] ` ` ` ` #.t.CX) P P _ _ _ > > _ > > _ > _ _ > , _ ` , 1 1 , ` _ , , ` 1 , 1 1 1 1 ` ` 1 ] 1 1 ] ] 1 1 ` [ 2 ] 1 1 , 1 1 1 1 1 1 ] 1 1 1 ] ] ` , 1 1 ,.rXz f 1 ] 1 1 ] ' ] ] ] ] _ ` { d %.} , > ` ` ` +.{ 3 + Y _ _ > + Y Y Y Y Y + > Y + + + Y Y > _ Y > _ Y Y Y O Y T T , #.W $ T @ 3 T X o X X o X X X U X U @ X X X o X X X X U U o X X X X I X X X U X X X X X o o o o o o U o o o T + O o O O T O + > > , ` Y + h W.} T O O + _ Y + > Y _ _ > Y _ 3 , _ Y _ _ > > _ > > , , _ > ` 3 , > , > > _ > ` > , > , , , , , , 1 1 1 ] , +.} } s.! s q + $ d O.{ q &.{ Y Y + > > > > 2 { > > _ > > > > _ _ , > _ _ > > > > > > , , 1 ] _ , , , ] 2 3 ] 1 ] 1 1 1 ] 1 1 ] ] ] ] 1 1 1 1 , ] 1 1 < 1 ] ] ",
"+ + O O + O O + + O + Y _ > + Y _ > _ + Y + Y > + > > Y Y + > > > > _ > _ + _ Y 3 { > 3 Y 3 E T Y T g.E q $ o O O O o o O + T O O { { # + + Y Y Y + + + Y +.#.{ q q , > _ _ > > 1 _ > 1 _ 3 O.0 l +._ > ` _ + + _ Y > _ Y Y q &.+._ _ > + > > , 1 1 < < ..] ` _ > _ _ > > > > _ > > ` _ 3 , , _ _ > _ > _ > _ > _ > f *.+.Y _ _ > Y Y + + + Y _ E O O U U U T T T T T E g.( W   . $ .     I       X o @ Y U X o . X o o O + Y T X o o U X o o o U o o T U U o o U o o X U o o U o o o X U U U X o X o U U O o o o O U U o o + _ U U U O O Y T + { @ T E Y + o o U E Y R T U U I I o T   . I   X # E   I . # . . I I . I I I I I I I X P W # $ { 3 { T @ o + Y o 3 { T o @ + X + U o O + _ R o T Y @ o o U O + U X X X X X X o o o U o X U U X X X X X X U o X I X # U @ T @ @ _ + d } g.#.{ R T X @ Y T # $ 3 } > { { @ T o X o U X + o U o U O U U O + T o o + Y T @ R T o o o o o o o O O O T T T T T g.~ $ @ R $ # E o $ f E o U @ # T U @ f #.I X X X X   X X @ + Y U X U X 3 } U + @ { T X U o X o U O U o o o o O T U o U O T o O o 3 { o T O O O T T O @ ",
"X X X X U o T U o X X X X X X U Y + U X U X U U X @ 3 { U X X X U X X X X X U T T O + T U I X + { T E g.T $ P o X X X X X X X U X o o o     X X U U X     X o Y @ X     X X X   @ T X o # # T # Y { } Y T I @ + + T @ T X + $ > } T + Y T @ + o @ @ + O U T T U X U U X o U X $ 2 T T Y @ + Y O Y U + { R T X X o @ d &.E X U   U U X X X X X U U T @ U U U U U U U U U T g.( R q @ @ @ o X @ @ @ @ Y $ R T o @ T P h #.# , E E X U X @ Y U X U X # Y   R E U o # R U # = R I . = R @ W R = W Q : W = = : W W R T . = = W W - { W = ; Q W E I       U U @ > ` +.T T U Y + T Y + , _ E U @ T X U U U o T + T + U X @ T o U o # = ; = & * ! R @ @ @ U @ # o q E Y d ,.E o @ # U + o O @ @ d qXE @ q { @ + T @ @ Y Y + + + Y O @ > _ _ Y O + Y + + > Y + + > + Y + @ + { 3 3 { P R + $ @ } } N #.%.} f @.f d f T R + U U U U o + O U + + U o # Y o U U o o U X X d 0.e.f M g.  s $.~ X + o X @ U U $ { T T g.eXP.T o U o o @ T X X @ + O T U U @ @ E O Y U @ o + U @ + U U o X o T o R s ,.R @ r.U o o o + U o T o X U U @ U X X X o U X o X @ T X U X U X X U o X "
};
